; G-Code generated by Simplify3D(R) Version 4.1.2
; Sep 24, 2022 at 2:40:42 PM
; Settings Summary
;   processName,Process1
;   applyToModels,Alerion-L2
;   profileName,PProp - LW-PLA
;   profileVersion,2022-05-27 11:45:37
;   baseProfile,Default
;   printMaterial,
;   printQuality,
;   printExtruders,
;   extruderName,Primary Extruder
;   extruderToolheadNumber,0
;   extruderDiameter,0.4
;   extruderAutoWidth,0
;   extruderWidth,0.42
;   extrusionMultiplier,0.45
;   extruderUseRetract,1
;   extruderRetractionDistance,0
;   extruderExtraRestartDistance,0.12
;   extruderRetractionZLift,0
;   extruderRetractionSpeed,1800
;   extruderUseCoasting,1
;   extruderCoastingDistance,0.2
;   extruderUseWipe,1
;   extruderWipeDistance,2
;   primaryExtruder,0
;   layerHeight,0.3
;   topSolidLayers,0
;   bottomSolidLayers,0
;   perimeterOutlines,1
;   printPerimetersInsideOut,1
;   startPointOption,2
;   startPointOriginX,0
;   startPointOriginY,-100
;   sequentialIslands,0
;   spiralVaseMode,1
;   firstLayerHeightPercentage,90
;   firstLayerWidthPercentage,100
;   firstLayerUnderspeed,0.5
;   useRaft,0
;   raftExtruder,0
;   raftTopLayers,3
;   raftBaseLayers,2
;   raftOffset,3
;   raftSeparationDistance,0.14
;   raftTopInfill,100
;   aboveRaftSpeedMultiplier,0.3
;   useSkirt,1
;   skirtExtruder,0
;   skirtLayers,1
;   skirtOutlines,3
;   skirtOffset,1.4
;   usePrimePillar,0
;   primePillarExtruder,999
;   primePillarWidth,12
;   primePillarLocation,7
;   primePillarSpeedMultiplier,1
;   useOozeShield,0
;   oozeShieldExtruder,999
;   oozeShieldOffset,2
;   oozeShieldOutlines,1
;   oozeShieldSidewallShape,1
;   oozeShieldSidewallAngle,30
;   oozeShieldSpeedMultiplier,1
;   infillExtruder,0
;   internalInfillPattern,Rectilinear
;   externalInfillPattern,Rectilinear
;   infillPercentage,0
;   outlineOverlapPercentage,15
;   infillExtrusionWidthPercentage,100
;   minInfillLength,5
;   infillLayerInterval,1
;   internalInfillAngles,45,-45
;   overlapInternalInfillAngles,0
;   externalInfillAngles,45,-45
;   generateSupport,0
;   supportExtruder,0
;   supportInfillPercentage,30
;   supportExtraInflation,0
;   supportBaseLayers,0
;   denseSupportExtruder,0
;   denseSupportLayers,0
;   denseSupportInfillPercentage,70
;   supportLayerInterval,1
;   supportHorizontalPartOffset,0.3
;   supportUpperSeparationLayers,1
;   supportLowerSeparationLayers,1
;   supportType,0
;   supportGridSpacing,4
;   maxOverhangAngle,45
;   supportAngles,0
;   temperatureName,Primary Extruder,Heated Bed
;   temperatureNumber,0,1
;   temperatureSetpointCount,1,1
;   temperatureSetpointLayers,1,1
;   temperatureSetpointTemperatures,250,55
;   temperatureStabilizeAtStartup,1,1
;   temperatureHeatedBed,0,1
;   fanLayers,1
;   fanSpeeds,100
;   blipFanToFullPower,1
;   adjustSpeedForCooling,0
;   minSpeedLayerTime,15
;   minCoolingSpeedSlowdown,80
;   increaseFanForCooling,0
;   minFanLayerTime,20
;   maxCoolingFanSpeed,100
;   increaseFanForBridging,0
;   bridgingFanSpeed,100
;   use5D,1
;   relativeEdistances,1
;   allowEaxisZeroing,1
;   independentExtruderAxes,0
;   includeM10123,0
;   stickySupport,1
;   applyToolheadOffsets,0
;   gcodeXoffset,0
;   gcodeYoffset,0
;   gcodeZoffset,0
;   overrideMachineDefinition,1
;   machineTypeOverride,0
;   strokeXoverride,200
;   strokeYoverride,200
;   strokeZoverride,200
;   originOffsetXoverride,0
;   originOffsetYoverride,0
;   originOffsetZoverride,0
;   homeXdirOverride,-1
;   homeYdirOverride,-1
;   homeZdirOverride,-1
;   flipXoverride,1
;   flipYoverride,-1
;   flipZoverride,1
;   toolheadOffsets,0,0|0,0|0,0|0,0|0,0|0,0
;   overrideFirmwareConfiguration,1
;   firmwareTypeOverride,RepRap (Marlin/Repetier/Sprinter)
;   GPXconfigOverride,r2
;   baudRateOverride,115200
;   overridePrinterModels,0
;   printerModelsOverride
;   startingGcode,G28,G92 E0.0
;   layerChangeGcode,
;   retractionGcode,
;   toolChangeGcode,
;   endingGcode,M104 S0 ; turn off extruder,M140 S0 ; turn off bed,G28 X0 ; home X axis,M84 ; disable motors,M107 ; turn off fan
;   exportFileFormat,gcode
;   celebration,0
;   celebrationSong,Take On Me
;   postProcessing,
;   defaultSpeed,2502
;   outlineUnderspeed,0.9
;   solidInfillUnderspeed,0.8
;   supportUnderspeed,0.8
;   rapidXYspeed,7800
;   rapidZspeed,1002
;   minBridgingArea,5
;   bridgingExtraInflation,0
;   bridgingExtrusionMultiplier,1
;   bridgingSpeedMultiplier,0.3
;   useFixedBridgingAngle,0
;   fixedBridgingAngle,0
;   applyBridgingToPerimeters,0
;   filamentDiameters,1.75|1.75|1.75|1.75|1.75|1.75
;   filamentPricesPerKg,1000|1000|1000|1000|1000|1000
;   filamentDensities,1.25|1.25|1.25|1.25|1.25|1.25
;   useMinPrintHeight,0
;   minPrintHeight,0.3
;   useMaxPrintHeight,0
;   maxPrintHeight,15
;   useDiaphragm,0
;   diaphragmLayerInterval,20
;   robustSlicing,1
;   mergeAllIntoSolid,0
;   onlyRetractWhenCrossingOutline,0
;   retractBetweenLayers,0
;   useRetractionMinTravel,0
;   retractionMinTravel,3
;   retractWhileWiping,0
;   onlyWipeOutlines,1
;   avoidCrossingOutline,1
;   maxMovementDetourFactor,3
;   toolChangeRetractionDistance,0
;   toolChangeExtraRestartDistance,0
;   toolChangeRetractionSpeed,360
;   externalThinWallType,0
;   internalThinWallType,2
;   thinWallAllowedOverlapPercentage,10
;   singleExtrusionMinLength,1
;   singleExtrusionMinPrintingWidthPercentage,50
;   singleExtrusionMaxPrintingWidthPercentage,200
;   singleExtrusionEndpointExtension,0.2
;   horizontalSizeCompensation,0
G90
M83
M106 S255
M140 S55
M190 S55
M104 S250 T0
M109 S250 T0
G28
G92 E0.0
; process Process1
; layer 1, Z = 0.270
T0
; feature skirt
; tool H0.270 W0.420
G1 Z0.270 F1002
G1 X19.705 Y19.116 F7800
G1 E0.1200 F1800
G1 X19.749 Y19.112 E0.0009 F1251
G1 X19.784 Y19.071 E0.0012
G1 X20.396 Y18.681 E0.0154
G1 X24.187 Y17.617 E0.0835
G1 X25.553 Y18.030 E0.0303
G1 X31.569 Y25.018 E0.1956
G1 X31.574 Y25.023 E0.0002
G1 X39.423 Y34.253 E0.2570
G1 X39.428 Y34.258 E0.0002
G1 X42.260 Y37.629 E0.0934
G1 X42.270 Y37.642 E0.0004
G1 X45.144 Y41.162 E0.0964
G1 X45.159 Y41.181 E0.0005
G1 X47.812 Y44.563 E0.0912
G1 X47.828 Y44.583 E0.0005
G1 X49.363 Y46.627 E0.0542
G1 X49.382 Y46.652 E0.0007
G1 X51.744 Y49.973 E0.0865
G1 X51.803 Y50.065 E0.0023
G1 X52.173 Y50.696 E0.0155
G1 X52.278 Y50.928 E0.0054
G1 X52.890 Y52.764 E0.0411
G1 X50.637 Y54.910 E0.0660
G1 X48.841 Y54.213 E0.0409
G1 X48.591 Y54.080 E0.0060
G1 X48.048 Y53.708 E0.0140
G1 X47.956 Y53.638 E0.0025
G1 X46.192 Y52.167 E0.0487
G1 X46.177 Y52.154 E0.0004
G1 X25.103 Y33.980 E0.5904
G1 X17.514 Y27.442 E0.2125
G1 X17.097 Y26.100 E0.0298
G1 X18.495 Y20.789 E0.1165
G1 X18.674 Y20.435 E0.0084
G1 X18.669 Y20.371 E0.0014
G1 X19.078 Y19.894 E0.0133
G1 X19.705 Y19.116 E0.0212
G1 X20.063 Y19.392 F7800
G1 E0.1200 F1800
G1 X20.570 Y19.068 E0.0128 F1251
G1 X24.183 Y18.055 E0.0796
G1 X25.315 Y18.396 E0.0251
G1 X31.250 Y25.291 E0.1930
G1 X31.254 Y25.295 E0.0001
G1 X39.102 Y34.524 E0.2570
G1 X39.106 Y34.528 E0.0001
G1 X41.937 Y37.898 E0.0934
G1 X41.946 Y37.909 E0.0003
G1 X44.818 Y41.426 E0.0963
G1 X44.830 Y41.441 E0.0004
G1 X47.481 Y44.820 E0.0911
G1 X47.494 Y44.837 E0.0005
G1 X49.026 Y46.877 E0.0541
G1 X49.041 Y46.898 E0.0006
G1 X51.397 Y50.209 E0.0862
G1 X51.446 Y50.285 E0.0019
G1 X51.799 Y50.889 E0.0149
G1 X51.886 Y51.081 E0.0045
G1 X52.407 Y52.644 E0.0349
G1 X50.541 Y54.422 E0.0547
G1 X49.015 Y53.830 E0.0347
G1 X48.808 Y53.720 E0.0050
G1 X48.293 Y53.368 E0.0132
G1 X48.217 Y53.310 E0.0020
G1 X46.462 Y51.845 E0.0485
G1 X46.450 Y51.835 E0.0003
G1 X25.377 Y33.662 E0.5903
G1 X17.879 Y27.202 E0.2100
G1 X17.534 Y26.091 E0.0247
G1 X18.890 Y20.939 E0.1130
G1 X19.084 Y20.556 E0.0091
G1 X19.103 Y20.532 E0.0006
G1 X19.101 Y20.512 E0.0004
G1 X19.401 Y20.163 E0.0098
G1 X19.920 Y19.518 E0.0176
G1 X19.957 Y19.515 E0.0008
G1 X20.063 Y19.392 E0.0035
G1 X20.341 Y19.712 F7800
G1 E0.1200 F1800
G1 X20.743 Y19.456 E0.0101 F1251
G1 X24.178 Y18.492 E0.0757
G1 X25.076 Y18.763 E0.0199
G1 X30.934 Y25.568 E0.1905
G1 X38.785 Y34.799 E0.2571
G1 X41.615 Y38.167 E0.0933
G1 X41.622 Y38.176 E0.0002
G1 X44.491 Y41.690 E0.0962
G1 X44.501 Y41.702 E0.0003
G1 X47.149 Y45.078 E0.0910
G1 X47.159 Y45.091 E0.0004
G1 X48.688 Y47.127 E0.0540
G1 X48.700 Y47.144 E0.0004
G1 X51.049 Y50.445 E0.0860
G1 X51.088 Y50.505 E0.0015
G1 X51.426 Y51.082 E0.0142
G1 X51.495 Y51.235 E0.0036
G1 X51.924 Y52.524 E0.0288
G1 X50.444 Y53.934 E0.0434
G1 X49.190 Y53.447 E0.0285
G1 X49.026 Y53.360 E0.0039
G1 X48.539 Y53.027 E0.0125
G1 X48.479 Y52.981 E0.0016
G1 X46.733 Y51.524 E0.0482
G1 X46.723 Y51.515 E0.0003
G1 X25.652 Y33.344 E0.5903
G1 X18.245 Y26.963 E0.2074
G1 X17.971 Y26.081 E0.0196
G1 X19.285 Y21.089 E0.1095
G1 X19.438 Y20.785 E0.0072
G1 X19.534 Y20.666 E0.0032
G1 X19.533 Y20.654 E0.0003
G1 X19.723 Y20.432 E0.0062
G1 X20.136 Y19.920 E0.0139
G1 X20.164 Y19.918 E0.0006
G1 X20.341 Y19.712 E0.0057
; feature outer perimeter
G1 X21.525 Y21.127 F7800
G1 E0.1200 F1800
G1 X24.090 Y20.407 E0.0565 F1126
G1 X29.550 Y26.750 E0.1776
G1 X37.393 Y35.971 E0.2568
G1 X40.217 Y39.333 E0.0931
G1 X41.978 Y41.477 E0.0589
G1 X43.075 Y42.834 E0.0370
G1 X44.525 Y44.663 E0.0495
G1 X45.710 Y46.192 E0.0410
G1 X47.225 Y48.210 E0.0535
G1 X48.771 Y50.351 E0.0560
G1 X49.539 Y51.462 E0.0286
G1 X49.577 Y51.527 E0.0016
G1 X47.905 Y50.132 E0.0462
G1 X39.898 Y43.250 E0.2240
G1 X27.006 Y32.109 E0.3615
G1 X29.491 Y29.218 E0.0809
G1 X29.157 Y28.931 E0.0093
G1 X26.673 Y31.822 E0.0809
G1 X19.882 Y25.971 E0.1902
G1 X20.989 Y21.763 E0.0923
G1 X33.046 Y32.124 E0.3373
G1 X33.548 Y31.540 E0.0163
G1 X21.590 Y21.264 E0.3345
G1 X21.485 Y21.174 F1126
G1 X21.525 Y21.127
G1 X23.451 Y20.586 F1126
; layer 2, Z = 0.570
; tool H0.300 W0.420
G1 X24.085 Y20.406 F7800
G1 X29.538 Y26.741 Z0.290 E0.1050 F2252
G1 X37.384 Y35.966 Z0.318 E0.1658
G1 X40.209 Y39.330 Z0.329 E0.0619
G1 X41.968 Y41.472 Z0.335 E0.0398
G1 X43.068 Y42.832 Z0.340 E0.0254
G1 X44.516 Y44.659 Z0.345 E0.0344
G1 X45.702 Y46.189 Z0.350 E0.0289
G1 X47.219 Y48.210 Z0.356 E0.0383
G1 X48.764 Y50.350 Z0.362 E0.0406
G1 X49.533 Y51.462 Z0.365 E0.0210
G1 X49.571 Y51.528 Z0.365 E0.0012
G1 X47.899 Y50.132 Z0.370 E0.0343
G1 X39.891 Y43.249 Z0.395 E0.1765
G1 X27.000 Y32.110 Z0.436 E0.3118
G1 X29.486 Y29.218 Z0.445 E0.0711
G1 X29.152 Y28.931 Z0.446 E0.0082
G1 X26.667 Y31.823 Z0.455 E0.0726
G1 X19.874 Y25.970 Z0.476 E0.1783
G1 X20.982 Y21.761 Z0.486 E0.0883
G1 X33.041 Y32.125 Z0.524 E0.3461
G1 X33.543 Y31.541 Z0.526 E0.0168
G1 X21.478 Y21.173 Z0.564 E0.3710
G1 X21.519 Y21.126 Z0.564 E0.0014
G1 X24.085 Y20.406 Z0.570 E0.0628
; layer 3, Z = 0.870
G1 X27.341 Y24.194 Z0.582 E0.1178 F2252
G1 X29.526 Y26.732 Z0.590 E0.0789
G1 X37.372 Y35.959 Z0.618 E0.2855
G1 X40.202 Y39.328 Z0.629 E0.1037
G1 X41.958 Y41.467 Z0.635 E0.0652
G1 X43.061 Y42.830 Z0.640 E0.0413
G1 X44.506 Y44.654 Z0.645 E0.0549
G1 X45.693 Y46.186 Z0.650 E0.0457
G1 X47.212 Y48.209 Z0.656 E0.0596
G1 X48.757 Y50.349 Z0.662 E0.0622
G1 X49.526 Y51.462 Z0.665 E0.0319
G1 X49.565 Y51.528 Z0.665 E0.0018
G1 X47.892 Y50.132 Z0.670 E0.0514
G1 X39.883 Y43.248 Z0.695 E0.2490
G1 X26.995 Y32.111 Z0.736 E0.4015
G1 X29.480 Y29.219 Z0.745 E0.0899
G1 X29.147 Y28.932 Z0.746 E0.0104
G1 X26.661 Y31.823 Z0.755 E0.0899
G1 X19.865 Y25.968 Z0.776 E0.2115
G1 X20.960 Y21.810 Z0.786 E0.1014
G1 X20.974 Y21.760 Z0.786 E0.0012
G1 X33.036 Y32.125 Z0.824 E0.3749
G1 X33.537 Y31.541 Z0.826 E0.0182
G1 X21.472 Y21.172 Z0.864 E0.3750
G1 X21.512 Y21.125 Z0.864 E0.0015
G1 X24.079 Y20.404 Z0.870 E0.0629
; layer 4, Z = 1.170
G1 X27.335 Y24.193 Z0.882 E0.1178 F2252
G1 X29.512 Y26.722 Z0.890 E0.0787
G1 X37.361 Y35.952 Z0.918 E0.2856
G1 X40.194 Y39.326 Z0.929 E0.1039
G1 X41.947 Y41.460 Z0.935 E0.0651
G1 X43.054 Y42.829 Z0.940 E0.0415
G1 X44.497 Y44.650 Z0.945 E0.0548
G1 X45.685 Y46.183 Z0.950 E0.0457
G1 X47.206 Y48.208 Z0.956 E0.0597
G1 X48.749 Y50.347 Z0.962 E0.0622
G1 X49.519 Y51.461 Z0.965 E0.0319
G1 X49.559 Y51.529 Z0.965 E0.0018
G1 X47.885 Y50.132 Z0.970 E0.0514
G1 X39.875 Y43.247 Z0.995 E0.2490
G1 X26.989 Y32.112 Z1.036 E0.4015
G1 X29.475 Y29.219 Z1.045 E0.0899
G1 X29.141 Y28.932 Z1.046 E0.0104
G1 X26.656 Y31.824 Z1.055 E0.0899
G1 X19.856 Y25.967 Z1.076 E0.2116
G1 X20.938 Y21.857 Z1.086 E0.1002
G1 X20.967 Y21.759 Z1.086 E0.0024
G1 X33.030 Y32.126 Z1.124 E0.3749
G1 X33.532 Y31.542 Z1.126 E0.0182
G1 X21.465 Y21.171 Z1.164 E0.3751
G1 X21.505 Y21.124 Z1.164 E0.0015
G1 X24.074 Y20.403 Z1.170 E0.0629
; layer 5, Z = 1.470
G1 X27.330 Y24.192 Z1.182 E0.1178 F2252
G1 X29.500 Y26.713 Z1.190 E0.0784
G1 X37.351 Y35.946 Z1.218 E0.2857
G1 X40.186 Y39.323 Z1.229 E0.1039
G1 X41.937 Y41.455 Z1.235 E0.0650
G1 X43.046 Y42.826 Z1.240 E0.0416
G1 X44.487 Y44.646 Z1.245 E0.0547
G1 X45.676 Y46.179 Z1.250 E0.0457
G1 X47.199 Y48.208 Z1.256 E0.0598
G1 X48.742 Y50.346 Z1.262 E0.0621
G1 X49.513 Y51.461 Z1.265 E0.0320
G1 X49.553 Y51.529 Z1.265 E0.0019
G1 X47.878 Y50.132 Z1.270 E0.0514
G1 X39.867 Y43.246 Z1.295 E0.2490
G1 X26.983 Y32.113 Z1.336 E0.4014
G1 X29.469 Y29.219 Z1.345 E0.0899
G1 X29.135 Y28.932 Z1.346 E0.0104
G1 X26.650 Y31.825 Z1.355 E0.0899
G1 X19.848 Y25.965 Z1.376 E0.2116
G1 X20.917 Y21.903 Z1.386 E0.0990
G1 X20.960 Y21.758 Z1.386 E0.0036
G1 X33.025 Y32.126 Z1.424 E0.3750
G1 X33.527 Y31.542 Z1.426 E0.0182
G1 X21.458 Y21.170 Z1.464 E0.3751
G1 X21.498 Y21.123 Z1.464 E0.0015
G1 X24.068 Y20.402 Z1.470 E0.0629
; layer 6, Z = 1.770
G1 X27.324 Y24.190 Z1.482 E0.1178 F2252
G1 X29.487 Y26.703 Z1.490 E0.0782
G1 X37.339 Y35.939 Z1.518 E0.2858
G1 X40.179 Y39.321 Z1.529 E0.1041
G1 X41.926 Y41.449 Z1.535 E0.0649
G1 X43.039 Y42.824 Z1.540 E0.0417
G1 X44.477 Y44.640 Z1.545 E0.0546
G1 X45.668 Y46.177 Z1.550 E0.0458
G1 X47.192 Y48.207 Z1.556 E0.0599
G1 X48.734 Y50.344 Z1.562 E0.0621
G1 X49.506 Y51.461 Z1.565 E0.0320
G1 X49.547 Y51.530 Z1.565 E0.0019
G1 X47.872 Y50.132 Z1.570 E0.0514
G1 X39.858 Y43.245 Z1.595 E0.2491
G1 X26.977 Y32.113 Z1.636 E0.4013
G1 X29.463 Y29.220 Z1.645 E0.0899
G1 X29.130 Y28.933 Z1.646 E0.0104
G1 X26.644 Y31.826 Z1.655 E0.0899
G1 X19.839 Y25.964 Z1.676 E0.2117
G1 X20.896 Y21.949 Z1.686 E0.0979
G1 X20.953 Y21.757 Z1.686 E0.0047
G1 X33.019 Y32.126 Z1.724 E0.3750
G1 X33.521 Y31.542 Z1.726 E0.0182
G1 X21.451 Y21.169 Z1.764 E0.3752
G1 X21.491 Y21.122 Z1.764 E0.0015
G1 X24.062 Y20.400 Z1.770 E0.0630
; layer 7, Z = 2.070
G1 X27.318 Y24.189 Z1.782 E0.1178 F2252
G1 X29.475 Y26.695 Z1.790 E0.0779
G1 X37.328 Y35.932 Z1.818 E0.2858
G1 X40.171 Y39.318 Z1.829 E0.1042
G1 X41.915 Y41.442 Z1.835 E0.0648
G1 X43.032 Y42.824 Z1.840 E0.0419
G1 X44.467 Y44.635 Z1.845 E0.0545
G1 X45.659 Y46.174 Z1.850 E0.0459
G1 X47.185 Y48.207 Z1.856 E0.0599
G1 X48.727 Y50.343 Z1.862 E0.0621
G1 X49.499 Y51.461 Z1.865 E0.0320
G1 X49.540 Y51.530 Z1.865 E0.0019
G1 X47.865 Y50.132 Z1.870 E0.0514
G1 X39.850 Y43.244 Z1.895 E0.2491
G1 X26.971 Y32.114 Z1.936 E0.4013
G1 X29.458 Y29.220 Z1.945 E0.0899
G1 X29.124 Y28.933 Z1.946 E0.0104
G1 X26.638 Y31.827 Z1.955 E0.0899
G1 X19.831 Y25.962 Z1.976 E0.2118
G1 X20.875 Y21.996 Z1.986 E0.0967
G1 X20.946 Y21.756 Z1.986 E0.0059
G1 X33.014 Y32.127 Z2.024 E0.3751
G1 X33.516 Y31.543 Z2.026 E0.0182
G1 X21.444 Y21.168 Z2.064 E0.3752
G1 X21.484 Y21.121 Z2.064 E0.0015
G1 X24.057 Y20.399 Z2.070 E0.0630
; layer 8, Z = 2.370
G1 X27.313 Y24.188 Z2.082 E0.1178 F2252
G1 X29.461 Y26.685 Z2.090 E0.0776
G1 X37.318 Y35.926 Z2.118 E0.2859
G1 X40.163 Y39.315 Z2.129 E0.1043
G1 X41.905 Y41.437 Z2.135 E0.0647
G1 X43.024 Y42.821 Z2.140 E0.0419
G1 X44.459 Y44.632 Z2.145 E0.0545
G1 X45.650 Y46.170 Z2.150 E0.0459
G1 X47.179 Y48.206 Z2.156 E0.0600
G1 X48.720 Y50.341 Z2.162 E0.0621
G1 X49.493 Y51.460 Z2.165 E0.0321
G1 X49.534 Y51.531 Z2.165 E0.0019
G1 X47.858 Y50.133 Z2.170 E0.0515
G1 X39.842 Y43.243 Z2.195 E0.2492
