; G-Code generated by Simplify3D(R) Version 4.1.2
; Sep 24, 2022 at 2:40:27 PM
; Settings Summary
;   processName,Process1
;   applyToModels,Alerion-R2
;   profileName,PProp - LW-PLA
;   profileVersion,2022-05-27 11:45:37
;   baseProfile,Default
;   printMaterial,
;   printQuality,
;   printExtruders,
;   extruderName,Primary Extruder
;   extruderToolheadNumber,0
;   extruderDiameter,0.4
;   extruderAutoWidth,0
;   extruderWidth,0.42
;   extrusionMultiplier,0.45
;   extruderUseRetract,1
;   extruderRetractionDistance,0
;   extruderExtraRestartDistance,0.12
;   extruderRetractionZLift,0
;   extruderRetractionSpeed,1800
;   extruderUseCoasting,1
;   extruderCoastingDistance,0.2
;   extruderUseWipe,1
;   extruderWipeDistance,2
;   primaryExtruder,0
;   layerHeight,0.3
;   topSolidLayers,0
;   bottomSolidLayers,0
;   perimeterOutlines,1
;   printPerimetersInsideOut,1
;   startPointOption,2
;   startPointOriginX,0
;   startPointOriginY,-100
;   sequentialIslands,0
;   spiralVaseMode,1
;   firstLayerHeightPercentage,90
;   firstLayerWidthPercentage,100
;   firstLayerUnderspeed,0.5
;   useRaft,0
;   raftExtruder,0
;   raftTopLayers,3
;   raftBaseLayers,2
;   raftOffset,3
;   raftSeparationDistance,0.14
;   raftTopInfill,100
;   aboveRaftSpeedMultiplier,0.3
;   useSkirt,1
;   skirtExtruder,0
;   skirtLayers,1
;   skirtOutlines,3
;   skirtOffset,1.4
;   usePrimePillar,0
;   primePillarExtruder,999
;   primePillarWidth,12
;   primePillarLocation,7
;   primePillarSpeedMultiplier,1
;   useOozeShield,0
;   oozeShieldExtruder,999
;   oozeShieldOffset,2
;   oozeShieldOutlines,1
;   oozeShieldSidewallShape,1
;   oozeShieldSidewallAngle,30
;   oozeShieldSpeedMultiplier,1
;   infillExtruder,0
;   internalInfillPattern,Rectilinear
;   externalInfillPattern,Rectilinear
;   infillPercentage,0
;   outlineOverlapPercentage,15
;   infillExtrusionWidthPercentage,100
;   minInfillLength,5
;   infillLayerInterval,1
;   internalInfillAngles,45,-45
;   overlapInternalInfillAngles,0
;   externalInfillAngles,45,-45
;   generateSupport,0
;   supportExtruder,0
;   supportInfillPercentage,30
;   supportExtraInflation,0
;   supportBaseLayers,0
;   denseSupportExtruder,0
;   denseSupportLayers,0
;   denseSupportInfillPercentage,70
;   supportLayerInterval,1
;   supportHorizontalPartOffset,0.3
;   supportUpperSeparationLayers,1
;   supportLowerSeparationLayers,1
;   supportType,0
;   supportGridSpacing,4
;   maxOverhangAngle,45
;   supportAngles,0
;   temperatureName,Primary Extruder,Heated Bed
;   temperatureNumber,0,1
;   temperatureSetpointCount,1,1
;   temperatureSetpointLayers,1,1
;   temperatureSetpointTemperatures,250,55
;   temperatureStabilizeAtStartup,1,1
;   temperatureHeatedBed,0,1
;   fanLayers,1
;   fanSpeeds,100
;   blipFanToFullPower,1
;   adjustSpeedForCooling,0
;   minSpeedLayerTime,15
;   minCoolingSpeedSlowdown,80
;   increaseFanForCooling,0
;   minFanLayerTime,20
;   maxCoolingFanSpeed,100
;   increaseFanForBridging,0
;   bridgingFanSpeed,100
;   use5D,1
;   relativeEdistances,1
;   allowEaxisZeroing,1
;   independentExtruderAxes,0
;   includeM10123,0
;   stickySupport,1
;   applyToolheadOffsets,0
;   gcodeXoffset,0
;   gcodeYoffset,0
;   gcodeZoffset,0
;   overrideMachineDefinition,1
;   machineTypeOverride,0
;   strokeXoverride,200
;   strokeYoverride,200
;   strokeZoverride,200
;   originOffsetXoverride,0
;   originOffsetYoverride,0
;   originOffsetZoverride,0
;   homeXdirOverride,-1
;   homeYdirOverride,-1
;   homeZdirOverride,-1
;   flipXoverride,1
;   flipYoverride,-1
;   flipZoverride,1
;   toolheadOffsets,0,0|0,0|0,0|0,0|0,0|0,0
;   overrideFirmwareConfiguration,1
;   firmwareTypeOverride,RepRap (Marlin/Repetier/Sprinter)
;   GPXconfigOverride,r2
;   baudRateOverride,115200
;   overridePrinterModels,0
;   printerModelsOverride
;   startingGcode,G28,G92 E0.0
;   layerChangeGcode,
;   retractionGcode,
;   toolChangeGcode,
;   endingGcode,M104 S0 ; turn off extruder,M140 S0 ; turn off bed,G28 X0 ; home X axis,M84 ; disable motors,M107 ; turn off fan
;   exportFileFormat,gcode
;   celebration,0
;   celebrationSong,Take On Me
;   postProcessing,
;   defaultSpeed,2502
;   outlineUnderspeed,0.9
;   solidInfillUnderspeed,0.8
;   supportUnderspeed,0.8
;   rapidXYspeed,7800
;   rapidZspeed,1002
;   minBridgingArea,5
;   bridgingExtraInflation,0
;   bridgingExtrusionMultiplier,1
;   bridgingSpeedMultiplier,0.3
;   useFixedBridgingAngle,0
;   fixedBridgingAngle,0
;   applyBridgingToPerimeters,0
;   filamentDiameters,1.75|1.75|1.75|1.75|1.75|1.75
;   filamentPricesPerKg,1000|1000|1000|1000|1000|1000
;   filamentDensities,1.25|1.25|1.25|1.25|1.25|1.25
;   useMinPrintHeight,0
;   minPrintHeight,0.3
;   useMaxPrintHeight,0
;   maxPrintHeight,15
;   useDiaphragm,0
;   diaphragmLayerInterval,20
;   robustSlicing,1
;   mergeAllIntoSolid,0
;   onlyRetractWhenCrossingOutline,0
;   retractBetweenLayers,0
;   useRetractionMinTravel,0
;   retractionMinTravel,3
;   retractWhileWiping,0
;   onlyWipeOutlines,1
;   avoidCrossingOutline,1
;   maxMovementDetourFactor,3
;   toolChangeRetractionDistance,0
;   toolChangeExtraRestartDistance,0
;   toolChangeRetractionSpeed,360
;   externalThinWallType,0
;   internalThinWallType,2
;   thinWallAllowedOverlapPercentage,10
;   singleExtrusionMinLength,1
;   singleExtrusionMinPrintingWidthPercentage,50
;   singleExtrusionMaxPrintingWidthPercentage,200
;   singleExtrusionEndpointExtension,0.2
;   horizontalSizeCompensation,0
G90
M83
M106 S255
M140 S55
M190 S55
M104 S250 T0
M109 S250 T0
G28
G92 E0.0
; process Process1
; layer 1, Z = 0.270
T0
; feature skirt
; tool H0.270 W0.420
G1 Z0.270 F1002
G1 X16.471 Y20.237 F7800
G1 E0.1200 F1800
G1 X16.535 Y20.240 E0.0014 F1251
G1 X16.883 Y20.050 E0.0084
G1 X22.146 Y18.481 E0.1165
G1 X23.501 Y18.854 E0.0298
G1 X30.282 Y26.229 E0.2125
G1 X49.126 Y46.704 E0.5904
G1 X49.139 Y46.719 E0.0004
G1 X50.667 Y48.434 E0.0487
G1 X50.740 Y48.524 E0.0025
G1 X51.129 Y49.054 E0.0140
G1 X51.269 Y49.300 E0.0060
G1 X52.024 Y51.073 E0.0409
G1 X49.952 Y53.394 E0.0660
G1 X48.097 Y52.841 E0.0411
G1 X47.862 Y52.744 E0.0054
G1 X47.219 Y52.395 E0.0155
G1 X47.126 Y52.339 E0.0023
G1 X43.727 Y50.083 E0.0866
G1 X43.695 Y50.060 E0.0008
G1 X40.029 Y47.452 E0.0954
G1 X40.006 Y47.435 E0.0006
G1 X36.715 Y44.974 E0.0872
G1 X36.695 Y44.959 E0.0005
G1 X31.027 Y40.541 E0.1525
G1 X31.017 Y40.533 E0.0003
G1 X21.538 Y32.985 E0.2571
G1 X21.532 Y32.980 E0.0002
G1 X14.353 Y27.193 E0.1956
G1 X13.897 Y25.841 E0.0303
G1 X14.837 Y22.018 E0.0835
G1 X15.208 Y21.394 E0.0154
G1 X15.248 Y21.357 E0.0012
G1 X15.250 Y21.313 E0.0009
G1 X16.008 Y20.661 E0.0212
G1 X16.471 Y20.237 E0.0133
G1 X16.669 Y20.645 F7800
G1 E0.1200 F1800
G1 X17.046 Y20.439 E0.0091 F1251
G1 X22.151 Y18.918 E0.1130
G1 X23.273 Y19.227 E0.0247
G1 X29.973 Y26.513 E0.2100
G1 X48.815 Y46.987 E0.5903
G1 X48.826 Y46.999 E0.0003
G1 X50.347 Y48.706 E0.0485
G1 X50.407 Y48.780 E0.0020
G1 X50.776 Y49.283 E0.0132
G1 X50.892 Y49.487 E0.0050
G1 X51.533 Y50.992 E0.0347
G1 X49.817 Y52.915 E0.0547
G1 X48.238 Y52.445 E0.0349
G1 X48.043 Y52.364 E0.0045
G1 X47.428 Y52.030 E0.0149
G1 X47.350 Y51.984 E0.0019
G1 X43.962 Y49.735 E0.0863
G1 X43.935 Y49.716 E0.0007
G1 X40.275 Y47.111 E0.0953
G1 X40.256 Y47.097 E0.0005
G1 X36.968 Y44.639 E0.0871
G1 X36.952 Y44.627 E0.0004
G1 X31.286 Y40.210 E0.1524
G1 X31.278 Y40.204 E0.0002
G1 X21.800 Y32.657 E0.2571
G1 X21.795 Y32.653 E0.0001
G1 X14.712 Y26.943 E0.1930
G1 X14.334 Y25.823 E0.0251
G1 X15.230 Y22.179 E0.0796
G1 X15.537 Y21.661 E0.0128
G1 X15.657 Y21.552 E0.0035
G1 X15.659 Y21.515 E0.0008
G1 X16.287 Y20.975 E0.0176
G1 X16.626 Y20.664 E0.0098
G1 X16.646 Y20.665 E0.0004
G1 X16.669 Y20.645 E0.0006
G1 X16.910 Y20.993 F7800
G1 E0.1200 F1800
G1 X17.208 Y20.829 E0.0072 F1251
G1 X22.156 Y19.355 E0.1095
G1 X23.046 Y19.600 E0.0196
G1 X29.664 Y26.797 E0.2074
G1 X48.505 Y47.270 E0.5903
G1 X48.514 Y47.280 E0.0003
G1 X50.026 Y48.978 E0.0482
G1 X50.074 Y49.037 E0.0016
G1 X50.423 Y49.512 E0.0125
G1 X50.515 Y49.674 E0.0039
G1 X51.043 Y50.912 E0.0285
G1 X49.681 Y52.437 E0.0434
G1 X48.379 Y52.049 E0.0288
G1 X48.224 Y51.985 E0.0035
G1 X47.636 Y51.666 E0.0142
G1 X47.575 Y51.629 E0.0015
G1 X44.197 Y49.386 E0.0860
G1 X44.176 Y49.372 E0.0006
G1 X40.520 Y46.771 E0.0952
G1 X40.505 Y46.759 E0.0004
G1 X37.221 Y44.304 E0.0870
G1 X37.208 Y44.294 E0.0003
G1 X31.545 Y39.880 E0.1523
G1 X31.538 Y39.875 E0.0002
G1 X22.058 Y32.325 E0.2571
G1 X15.071 Y26.693 E0.1904
G1 X14.771 Y25.804 E0.0199
G1 X15.623 Y22.339 E0.0757
G1 X15.867 Y21.929 E0.0101
G1 X16.066 Y21.746 E0.0057
G1 X16.068 Y21.718 E0.0006
G1 X16.566 Y21.289 E0.0139
G1 X16.781 Y21.091 E0.0062
G1 X16.794 Y21.092 E0.0003
G1 X16.910 Y20.993 E0.0032
; feature outer perimeter
G1 X17.937 Y22.511 F7800
G1 E0.1200 F1800
G1 X22.107 Y21.268 E0.0923 F1126
G1 X28.174 Y27.867 E0.1902
G1 X25.365 Y30.443 E0.0809
G1 X25.663 Y30.767 E0.0093
G1 X28.472 Y28.190 E0.0809
G1 X40.024 Y40.716 E0.3615
G1 X47.160 Y48.497 E0.2240
G1 X48.609 Y50.123 E0.0462
G1 X48.543 Y50.087 E0.0016
G1 X47.408 Y49.355 E0.0286
G1 X45.218 Y47.879 E0.0560
G1 X43.152 Y46.430 E0.0535
G1 X41.586 Y45.295 E0.0410
G1 X38.319 Y42.852 E0.0866
G1 X36.119 Y41.161 E0.0589
G1 X32.668 Y38.447 E0.0931
G1 X23.198 Y30.906 E0.2568
G1 X16.682 Y25.654 E0.1776
G1 X17.319 Y23.067 E0.0565
G1 X17.364 Y23.026 E0.0013
G1 X28.115 Y34.747 E0.3374
G1 X28.683 Y34.227 E0.0163
G1 X18.072 Y22.659 E0.3330
G1 X17.937 Y22.511 F1126
G1 X19.854 Y21.940 F1126
; layer 2, Z = 0.570
; tool H0.300 W0.420
G1 X17.938 Y22.502 F7800
G1 X22.106 Y21.260 Z0.280 E0.0530 F2252
G1 X28.175 Y27.861 Z0.302 E0.1168
G1 X25.365 Y30.438 Z0.311 E0.0510
G1 X25.663 Y30.762 Z0.312 E0.0059
G1 X28.473 Y28.185 Z0.321 E0.0525
G1 X40.023 Y40.709 Z0.361 E0.2617
G1 X47.160 Y48.490 Z0.386 E0.1726
G1 X48.609 Y50.117 Z0.391 E0.0360
G1 X48.542 Y50.081 Z0.391 E0.0013
G1 X47.406 Y49.348 Z0.394 E0.0225
G1 X45.217 Y47.873 Z0.401 E0.0447
G1 X43.149 Y46.422 Z0.407 E0.0434
G1 X41.581 Y45.286 Z0.411 E0.0336
G1 X39.708 Y43.898 Z0.417 E0.0409
G1 X38.313 Y42.843 Z0.421 E0.0310
G1 X36.116 Y41.154 Z0.428 E0.0498
G1 X32.662 Y38.438 Z0.438 E0.0808
G1 X23.188 Y30.894 Z0.467 E0.2363
G1 X16.681 Y25.649 Z0.486 E0.1696
G1 X17.317 Y23.061 Z0.493 E0.0547
G1 X17.363 Y23.019 Z0.493 E0.0013
G1 X28.115 Y34.742 Z0.531 E0.3503
G1 X28.683 Y34.222 Z0.532 E0.0170
G1 X17.938 Y22.502 Z0.570 E0.3749
; layer 3, Z = 0.870
G1 X17.986 Y22.488 Z0.570 E0.0012 F2252
G1 X22.104 Y21.253 Z0.580 E0.1014
G1 X22.537 Y21.723 Z0.582 E0.0151
G1 X28.176 Y27.855 Z0.602 E0.1964
G1 X25.366 Y30.432 Z0.611 E0.0899
G1 X25.663 Y30.757 Z0.612 E0.0104
G1 X28.474 Y28.179 Z0.621 E0.0899
G1 X40.022 Y40.701 Z0.661 E0.4015
G1 X47.160 Y48.483 Z0.686 E0.2489
G1 X48.610 Y50.111 Z0.691 E0.0514
G1 X48.542 Y50.074 Z0.691 E0.0018
G1 X47.405 Y49.341 Z0.695 E0.0319
G1 X45.216 Y47.866 Z0.701 E0.0622
G1 X43.145 Y46.413 Z0.707 E0.0596
G1 X41.576 Y45.276 Z0.711 E0.0457
G1 X39.707 Y43.891 Z0.717 E0.0548
G1 X38.307 Y42.832 Z0.721 E0.0414
G1 X36.113 Y41.146 Z0.728 E0.0652
G1 X32.655 Y38.427 Z0.738 E0.1037
G1 X23.179 Y30.882 Z0.767 E0.2855
G1 X16.679 Y25.643 Z0.786 E0.1968
G1 X17.316 Y23.054 Z0.793 E0.0629
G1 X17.362 Y23.012 Z0.793 E0.0015
G1 X28.116 Y34.737 Z0.831 E0.3750
G1 X28.683 Y34.216 Z0.832 E0.0182
G1 X17.939 Y22.502 Z0.870 E0.3747
G1 X17.934 Y22.496 Z0.870 E0.0002
; layer 4, Z = 1.170
G1 X18.032 Y22.465 Z0.870 E0.0024 F2252
G1 X22.102 Y21.244 Z0.880 E0.1002
G1 X22.537 Y21.716 Z0.882 E0.0151
G1 X28.176 Y27.849 Z0.902 E0.1964
G1 X25.366 Y30.427 Z0.911 E0.0899
G1 X25.663 Y30.751 Z0.912 E0.0104
G1 X28.474 Y28.173 Z0.921 E0.0899
G1 X40.020 Y40.693 Z0.961 E0.4015
G1 X47.160 Y48.476 Z0.986 E0.2490
G1 X48.610 Y50.105 Z0.991 E0.0514
G1 X48.541 Y50.067 Z0.991 E0.0018
G1 X47.403 Y49.334 Z0.995 E0.0319
G1 X45.215 Y47.859 Z1.001 E0.0622
G1 X43.142 Y46.405 Z1.007 E0.0597
G1 X41.571 Y45.267 Z1.011 E0.0457
G1 X39.704 Y43.884 Z1.017 E0.0548
G1 X38.300 Y42.821 Z1.021 E0.0415
G1 X36.111 Y41.139 Z1.028 E0.0651
G1 X32.648 Y38.416 Z1.038 E0.1038
G1 X23.168 Y30.869 Z1.067 E0.2856
G1 X16.678 Y25.638 Z1.086 E0.1965
G1 X17.315 Y23.047 Z1.093 E0.0629
G1 X17.361 Y23.005 Z1.093 E0.0015
G1 X28.116 Y34.731 Z1.131 E0.3751
G1 X28.683 Y34.211 Z1.132 E0.0182
G1 X17.937 Y22.494 Z1.170 E0.3748
G1 X17.932 Y22.489 Z1.170 E0.0001
; layer 5, Z = 1.470
G1 X18.077 Y22.442 Z1.170 E0.0036 F2252
G1 X22.101 Y21.235 Z1.180 E0.0990
G1 X22.535 Y21.707 Z1.182 E0.0151
G1 X28.177 Y27.844 Z1.202 E0.1965
G1 X25.366 Y30.421 Z1.211 E0.0899
G1 X25.663 Y30.746 Z1.212 E0.0104
G1 X28.475 Y28.167 Z1.221 E0.0899
G1 X40.019 Y40.685 Z1.261 E0.4014
G1 X47.160 Y48.470 Z1.286 E0.2490
G1 X48.610 Y50.098 Z1.291 E0.0514
G1 X48.541 Y50.061 Z1.291 E0.0019
G1 X47.401 Y49.326 Z1.295 E0.0320
G1 X45.215 Y47.853 Z1.301 E0.0621
G1 X43.138 Y46.396 Z1.307 E0.0598
G1 X41.566 Y45.258 Z1.311 E0.0457
G1 X39.702 Y43.876 Z1.317 E0.0547
G1 X38.295 Y42.811 Z1.321 E0.0416
G1 X36.108 Y41.131 Z1.328 E0.0650
G1 X32.641 Y38.405 Z1.338 E0.1040
G1 X23.160 Y30.857 Z1.367 E0.2857
G1 X16.676 Y25.632 Z1.386 E0.1963
G1 X17.314 Y23.040 Z1.393 E0.0629
G1 X17.360 Y22.998 Z1.393 E0.0015
G1 X28.116 Y34.726 Z1.431 E0.3751
G1 X28.683 Y34.206 Z1.432 E0.0182
G1 X17.935 Y22.487 Z1.470 E0.3748
G1 X17.931 Y22.482 Z1.470 E0.0001
; layer 6, Z = 1.770
G1 X18.123 Y22.420 Z1.470 E0.0047 F2252
G1 X22.099 Y21.227 Z1.480 E0.0979
G1 X22.533 Y21.699 Z1.482 E0.0151
G1 X28.178 Y27.838 Z1.502 E0.1966
G1 X25.366 Y30.416 Z1.511 E0.0899
G1 X25.664 Y30.740 Z1.512 E0.0104
G1 X28.476 Y28.161 Z1.521 E0.0899
G1 X40.018 Y40.677 Z1.561 E0.4013
G1 X47.160 Y48.463 Z1.586 E0.2491
G1 X48.611 Y50.092 Z1.591 E0.0514
G1 X48.540 Y50.054 Z1.591 E0.0019
G1 X47.400 Y49.319 Z1.595 E0.0320
G1 X45.214 Y47.846 Z1.601 E0.0621
G1 X43.135 Y46.388 Z1.607 E0.0599
G1 X41.562 Y45.248 Z1.611 E0.0458
G1 X39.700 Y43.869 Z1.617 E0.0546
G1 X38.288 Y42.801 Z1.621 E0.0417
G1 X36.104 Y41.123 Z1.628 E0.0649
G1 X32.634 Y38.395 Z1.638 E0.1040
G1 X23.149 Y30.844 Z1.667 E0.2858
G1 X16.675 Y25.627 Z1.686 E0.1960
G1 X17.313 Y23.033 Z1.693 E0.0630
G1 X17.358 Y22.991 Z1.693 E0.0015
G1 X28.116 Y34.721 Z1.731 E0.3752
G1 X28.684 Y34.200 Z1.732 E0.0182
G1 X17.934 Y22.480 Z1.770 E0.3749
G1 X17.930 Y22.475 Z1.770 E0.0001
; layer 7, Z = 2.070
G1 X18.168 Y22.397 Z1.771 E0.0059 F2252
G1 X22.097 Y21.218 Z1.780 E0.0967
G1 X22.531 Y21.690 Z1.782 E0.0151
G1 X28.178 Y27.832 Z1.802 E0.1967
G1 X25.366 Y30.410 Z1.811 E0.0899
G1 X25.664 Y30.734 Z1.812 E0.0104
G1 X28.476 Y28.155 Z1.821 E0.0900
G1 X40.016 Y40.669 Z1.861 E0.4013
G1 X47.160 Y48.457 Z1.886 E0.2491
G1 X48.611 Y50.086 Z1.891 E0.0514
G1 X48.540 Y50.047 Z1.891 E0.0019
G1 X47.398 Y49.312 Z1.895 E0.0320
G1 X45.213 Y47.840 Z1.901 E0.0621
G1 X43.131 Y46.380 Z1.907 E0.0599
G1 X41.556 Y45.239 Z1.911 E0.0459
G1 X39.698 Y43.862 Z1.917 E0.0545
G1 X38.282 Y42.791 Z1.921 E0.0419
G1 X36.103 Y41.116 Z1.928 E0.0648
G1 X32.627 Y38.383 Z1.938 E0.1042
G1 X23.141 Y30.833 Z1.967 E0.2858
G1 X16.673 Y25.621 Z1.986 E0.1958
G1 X17.312 Y23.026 Z1.993 E0.0630
G1 X17.357 Y22.984 Z1.993 E0.0015
G1 X28.116 Y34.715 Z2.031 E0.3752
G1 X28.684 Y34.195 Z2.032 E0.0182
G1 X17.933 Y22.473 Z2.070 E0.3750
G1 X17.929 Y22.468 Z2.070 E0.0001
; layer 8, Z = 2.370
G1 X17.968 Y22.455 Z2.070 E0.0010 F2252
G1 X22.095 Y21.210 Z2.080 E0.1016
G1 X22.529 Y21.680 Z2.082 E0.0151
G1 X28.179 Y27.826 Z2.102 E0.1968
G1 X25.367 Y30.405 Z2.111 E0.0899
G1 X25.664 Y30.729 Z2.112 E0.0104
G1 X28.477 Y28.150 Z2.121 E0.0900
G1 X40.015 Y40.661 Z2.161 E0.4012
G1 X47.160 Y48.450 Z2.186 E0.2492
G1 X48.611 Y50.080 Z2.191 E0.0515
G1 X48.539 Y50.041 Z2.191 E0.0019
G1 X47.396 Y49.304 Z2.195 E0.0321
G1 X45.212 Y47.833 Z2.201 E0.0621
G1 X43.128 Y46.371 Z2.207 E0.0600
