; G-Code generated by Simplify3D(R) Version 4.1.2
; Sep 24, 2022 at 2:39:22 PM
; Settings Summary
;   processName,PProp
;   applyToModels,Alerion-L1
;   profileName,PProp - LW-PLA
;   profileVersion,2022-05-27 11:45:37
;   baseProfile,Default
;   printMaterial,
;   printQuality,
;   printExtruders,
;   extruderName,Primary Extruder
;   extruderToolheadNumber,0
;   extruderDiameter,0.4
;   extruderAutoWidth,0
;   extruderWidth,0.42
;   extrusionMultiplier,0.45
;   extruderUseRetract,1
;   extruderRetractionDistance,0
;   extruderExtraRestartDistance,0.12
;   extruderRetractionZLift,0
;   extruderRetractionSpeed,1800
;   extruderUseCoasting,1
;   extruderCoastingDistance,0.2
;   extruderUseWipe,1
;   extruderWipeDistance,2
;   primaryExtruder,0
;   layerHeight,0.3
;   topSolidLayers,0
;   bottomSolidLayers,0
;   perimeterOutlines,1
;   printPerimetersInsideOut,1
;   startPointOption,2
;   startPointOriginX,0
;   startPointOriginY,-100
;   sequentialIslands,0
;   spiralVaseMode,1
;   firstLayerHeightPercentage,90
;   firstLayerWidthPercentage,100
;   firstLayerUnderspeed,0.5
;   useRaft,0
;   raftExtruder,0
;   raftTopLayers,3
;   raftBaseLayers,2
;   raftOffset,3
;   raftSeparationDistance,0.14
;   raftTopInfill,100
;   aboveRaftSpeedMultiplier,0.3
;   useSkirt,1
;   skirtExtruder,0
;   skirtLayers,1
;   skirtOutlines,3
;   skirtOffset,1.4
;   usePrimePillar,0
;   primePillarExtruder,999
;   primePillarWidth,12
;   primePillarLocation,7
;   primePillarSpeedMultiplier,1
;   useOozeShield,0
;   oozeShieldExtruder,999
;   oozeShieldOffset,2
;   oozeShieldOutlines,1
;   oozeShieldSidewallShape,1
;   oozeShieldSidewallAngle,30
;   oozeShieldSpeedMultiplier,1
;   infillExtruder,0
;   internalInfillPattern,Rectilinear
;   externalInfillPattern,Rectilinear
;   infillPercentage,0
;   outlineOverlapPercentage,15
;   infillExtrusionWidthPercentage,100
;   minInfillLength,5
;   infillLayerInterval,1
;   internalInfillAngles,45,-45
;   overlapInternalInfillAngles,0
;   externalInfillAngles,45,-45
;   generateSupport,0
;   supportExtruder,0
;   supportInfillPercentage,30
;   supportExtraInflation,0
;   supportBaseLayers,0
;   denseSupportExtruder,0
;   denseSupportLayers,0
;   denseSupportInfillPercentage,70
;   supportLayerInterval,1
;   supportHorizontalPartOffset,0.3
;   supportUpperSeparationLayers,1
;   supportLowerSeparationLayers,1
;   supportType,0
;   supportGridSpacing,4
;   maxOverhangAngle,45
;   supportAngles,0
;   temperatureName,Primary Extruder,Heated Bed
;   temperatureNumber,0,1
;   temperatureSetpointCount,1,1
;   temperatureSetpointLayers,1,1
;   temperatureSetpointTemperatures,250,55
;   temperatureStabilizeAtStartup,1,1
;   temperatureHeatedBed,0,1
;   fanLayers,1
;   fanSpeeds,100
;   blipFanToFullPower,1
;   adjustSpeedForCooling,0
;   minSpeedLayerTime,15
;   minCoolingSpeedSlowdown,80
;   increaseFanForCooling,0
;   minFanLayerTime,20
;   maxCoolingFanSpeed,100
;   increaseFanForBridging,0
;   bridgingFanSpeed,100
;   use5D,1
;   relativeEdistances,1
;   allowEaxisZeroing,1
;   independentExtruderAxes,0
;   includeM10123,0
;   stickySupport,1
;   applyToolheadOffsets,0
;   gcodeXoffset,0
;   gcodeYoffset,0
;   gcodeZoffset,0
;   overrideMachineDefinition,1
;   machineTypeOverride,0
;   strokeXoverride,200
;   strokeYoverride,200
;   strokeZoverride,200
;   originOffsetXoverride,0
;   originOffsetYoverride,0
;   originOffsetZoverride,0
;   homeXdirOverride,-1
;   homeYdirOverride,-1
;   homeZdirOverride,-1
;   flipXoverride,1
;   flipYoverride,-1
;   flipZoverride,1
;   toolheadOffsets,0,0|0,0|0,0|0,0|0,0|0,0
;   overrideFirmwareConfiguration,1
;   firmwareTypeOverride,RepRap (Marlin/Repetier/Sprinter)
;   GPXconfigOverride,r2
;   baudRateOverride,115200
;   overridePrinterModels,0
;   printerModelsOverride
;   startingGcode,G28,G92 E0.0
;   layerChangeGcode,
;   retractionGcode,
;   toolChangeGcode,
;   endingGcode,M104 S0 ; turn off extruder,M140 S0 ; turn off bed,G28 X0 ; home X axis,M84 ; disable motors,M107 ; turn off fan
;   exportFileFormat,gcode
;   celebration,0
;   celebrationSong,Take On Me
;   postProcessing,
;   defaultSpeed,2502
;   outlineUnderspeed,0.9
;   solidInfillUnderspeed,0.8
;   supportUnderspeed,0.8
;   rapidXYspeed,7800
;   rapidZspeed,1002
;   minBridgingArea,5
;   bridgingExtraInflation,0
;   bridgingExtrusionMultiplier,1
;   bridgingSpeedMultiplier,0.3
;   useFixedBridgingAngle,0
;   fixedBridgingAngle,0
;   applyBridgingToPerimeters,0
;   filamentDiameters,1.75|1.75|1.75|1.75|1.75|1.75
;   filamentPricesPerKg,1000|1000|1000|1000|1000|1000
;   filamentDensities,1.25|1.25|1.25|1.25|1.25|1.25
;   useMinPrintHeight,0
;   minPrintHeight,0.3
;   useMaxPrintHeight,0
;   maxPrintHeight,15
;   useDiaphragm,0
;   diaphragmLayerInterval,20
;   robustSlicing,1
;   mergeAllIntoSolid,0
;   onlyRetractWhenCrossingOutline,0
;   retractBetweenLayers,0
;   useRetractionMinTravel,0
;   retractionMinTravel,3
;   retractWhileWiping,0
;   onlyWipeOutlines,1
;   avoidCrossingOutline,1
;   maxMovementDetourFactor,3
;   toolChangeRetractionDistance,0
;   toolChangeExtraRestartDistance,0
;   toolChangeRetractionSpeed,360
;   externalThinWallType,0
;   internalThinWallType,2
;   thinWallAllowedOverlapPercentage,10
;   singleExtrusionMinLength,1
;   singleExtrusionMinPrintingWidthPercentage,50
;   singleExtrusionMaxPrintingWidthPercentage,200
;   singleExtrusionEndpointExtension,0.2
;   horizontalSizeCompensation,0
G90
M83
M106 S255
M140 S55
M190 S55
M104 S250 T0
M109 S250 T0
G28
G92 E0.0
; process PProp
; layer 1, Z = 0.270
T0
; feature skirt
; tool H0.270 W0.420
G1 Z0.270 F1002
G1 X15.946 Y18.142 F7800
G1 E0.1200 F1800
G1 X17.001 Y17.471 E0.0265 F1251
G1 X17.272 Y17.299 E0.0068
G1 X17.804 Y17.112 E0.0120
G1 X22.036 Y16.652 E0.0903
G1 X23.191 Y16.459 E0.0249
G1 X24.537 Y17.056 E0.0312
G1 X24.609 Y17.168 E0.0028
G1 X40.413 Y13.083 E0.3463
G1 X40.638 Y13.577 E0.0115
G1 X41.047 Y13.792 E0.0098
G1 X41.863 Y14.045 E0.0181
G1 X42.026 Y14.387 E0.0080
G1 X42.574 Y14.884 E0.0157
G1 X42.781 Y15.130 E0.0068
G1 X43.135 Y15.680 E0.0139
G1 X43.251 Y15.910 E0.0054
G1 X43.482 Y16.522 E0.0139
G1 X43.556 Y16.835 E0.0068
G1 X43.646 Y17.731 E0.0191
G1 X43.624 Y18.116 E0.0082
G1 X43.432 Y18.997 E0.0191
G1 X43.324 Y19.299 E0.0068
G1 X43.027 Y19.875 E0.0137
G1 X42.895 Y20.078 E0.0051
G1 X33.773 Y31.500 E0.3101
G1 X45.242 Y49.437 E0.4517
G1 X45.255 Y49.457 E0.0005
G1 X46.164 Y50.943 E0.0370
G1 X46.218 Y51.040 E0.0024
G1 X46.509 Y51.628 E0.0139
G1 X46.604 Y51.895 E0.0060
G1 X47.039 Y53.772 E0.0409
G1 X44.595 Y55.697 E0.0660
G1 X42.864 Y54.830 E0.0411
G1 X42.650 Y54.693 E0.0054
G1 X42.078 Y54.239 E0.0155
G1 X41.996 Y54.167 E0.0023
G1 X39.041 Y51.354 E0.0865
G1 X39.013 Y51.326 E0.0008
G1 X35.861 Y48.124 E0.0953
G1 X35.841 Y48.103 E0.0006
G1 X33.029 Y45.108 E0.0872
G1 X33.012 Y45.090 E0.0005
G1 X28.199 Y39.753 E0.1525
G1 X28.190 Y39.744 E0.0003
G1 X20.170 Y30.663 E0.2570
G1 X20.165 Y30.657 E0.0002
G1 X14.097 Y23.704 E0.1958
G1 X13.883 Y22.293 E0.0303
G1 X15.473 Y18.693 E0.0835
G1 X15.946 Y18.142 E0.0154
G1 X16.224 Y18.463 F7800
G1 E0.1200 F1800
G1 X17.226 Y17.826 E0.0252 F1251
G1 X17.457 Y17.679 E0.0058
G1 X17.898 Y17.524 E0.0099
G1 X22.093 Y17.068 E0.0895
G1 X23.136 Y16.894 E0.0224
G1 X24.251 Y17.389 E0.0259
G1 X24.419 Y17.651 E0.0066
G1 X40.177 Y13.578 E0.3453
G1 X40.316 Y13.882 E0.0071
G1 X40.886 Y14.182 E0.0137
G1 X41.563 Y14.392 E0.0150
G1 X41.683 Y14.642 E0.0059
G1 X42.271 Y15.177 E0.0169
G1 X42.443 Y15.380 E0.0056
G1 X42.770 Y15.889 E0.0128
G1 X42.866 Y16.079 E0.0045
G1 X43.080 Y16.645 E0.0128
G1 X43.141 Y16.904 E0.0056
G1 X43.225 Y17.740 E0.0178
G1 X43.206 Y18.059 E0.0068
G1 X43.028 Y18.880 E0.0178
G1 X42.938 Y19.131 E0.0056
G1 X42.663 Y19.664 E0.0127
G1 X42.554 Y19.832 E0.0043
G1 X33.257 Y31.473 E0.3161
G1 X44.887 Y49.661 E0.4580
G1 X44.897 Y49.678 E0.0004
G1 X45.801 Y51.154 E0.0367
G1 X45.846 Y51.235 E0.0020
G1 X46.121 Y51.793 E0.0132
G1 X46.200 Y52.013 E0.0050
G1 X46.570 Y53.607 E0.0347
G1 X44.544 Y55.202 E0.0547
G1 X43.072 Y54.465 E0.0349
G1 X42.894 Y54.351 E0.0045
G1 X42.347 Y53.916 E0.0148
G1 X42.278 Y53.856 E0.0019
G1 X39.333 Y51.052 E0.0863
G1 X39.310 Y51.029 E0.0007
G1 X36.162 Y47.831 E0.0952
G1 X36.145 Y47.813 E0.0005
G1 X33.336 Y44.822 E0.0871
G1 X33.322 Y44.807 E0.0004
G1 X28.511 Y39.473 E0.1524
G1 X28.504 Y39.465 E0.0002
G1 X20.485 Y30.385 E0.2570
G1 X20.481 Y30.381 E0.0001
G1 X14.494 Y23.520 E0.1932
G1 X14.316 Y22.351 E0.0251
G1 X15.833 Y18.919 E0.0796
G1 X16.224 Y18.463 E0.0128
G1 X16.502 Y18.784 F7800
G1 E0.1200 F1800
G1 X17.452 Y18.180 E0.0239 F1251
G1 X17.641 Y18.060 E0.0048
G1 X17.991 Y17.937 E0.0079
G1 X22.151 Y17.484 E0.0888
G1 X23.081 Y17.329 E0.0200
G1 X23.965 Y17.722 E0.0205
G1 X24.229 Y18.134 E0.0104
G1 X39.941 Y14.072 E0.3443
G1 X40.079 Y14.374 E0.0070
G1 X40.237 Y14.315 E0.0036
G1 X40.725 Y14.571 E0.0117
G1 X41.264 Y14.739 E0.0120
G1 X41.350 Y14.919 E0.0043
G1 X41.409 Y14.961 E0.0015
G1 X41.968 Y15.469 E0.0160
G1 X42.104 Y15.630 E0.0045
G1 X42.405 Y16.097 E0.0118
G1 X42.481 Y16.248 E0.0036
G1 X42.677 Y16.768 E0.0118
G1 X42.726 Y16.974 E0.0045
G1 X42.803 Y17.749 E0.0165
G1 X42.789 Y18.002 E0.0054
G1 X42.623 Y18.764 E0.0165
G1 X42.552 Y18.963 E0.0045
G1 X42.299 Y19.453 E0.0117
G1 X42.212 Y19.586 E0.0034
G1 X32.741 Y31.446 E0.3220
G1 X44.532 Y49.886 E0.4644
G1 X44.540 Y49.899 E0.0003
G1 X45.438 Y51.365 E0.0365
G1 X45.473 Y51.429 E0.0016
G1 X45.734 Y51.957 E0.0125
G1 X45.797 Y52.132 E0.0039
G1 X46.100 Y53.442 E0.0285
G1 X44.494 Y54.707 E0.0434
G1 X43.279 Y54.099 E0.0288
G1 X43.138 Y54.009 E0.0035
G1 X42.615 Y53.593 E0.0142
G1 X42.561 Y53.546 E0.0015
G1 X39.626 Y50.750 E0.0860
G1 X39.607 Y50.732 E0.0006
G1 X36.463 Y47.538 E0.0951
G1 X36.449 Y47.524 E0.0004
G1 X33.644 Y44.536 E0.0870
G1 X33.633 Y44.524 E0.0003
G1 X28.824 Y39.192 E0.1523
G1 X28.818 Y39.186 E0.0002
G1 X20.797 Y30.104 E0.2571
G1 X14.891 Y23.336 E0.1906
G1 X14.750 Y22.408 E0.0199
G1 X16.192 Y19.146 E0.0757
G1 X16.502 Y18.784 E0.0101
; feature outer perimeter
G1 X17.734 Y20.158 F7800
G1 E0.1200 F1800
G1 X17.786 Y20.124 E0.0013 F1126
G1 X26.334 Y33.536 E0.3374
G1 X26.983 Y33.122 E0.0163
G1 X18.441 Y19.719 E0.3372
G1 X22.399 Y19.288 E0.0845
G1 X22.767 Y19.227 E0.0079
G1 X23.406 Y20.226 E0.0252
G1 X38.933 Y16.213 E0.3402
G1 X39.374 Y16.146 E0.0095
G1 X39.530 Y16.147 E0.0033
G1 X39.732 Y16.169 E0.0043
G1 X39.835 Y16.201 E0.0023
G1 X39.691 Y16.564 E0.0083
G1 X39.572 Y16.536 E0.0026
G1 X39.331 Y16.523 E0.0051
G1 X39.129 Y16.561 E0.0044
G1 X38.944 Y16.631 E0.0042
G1 X38.774 Y16.730 E0.0042
G1 X38.623 Y16.857 E0.0042
G1 X38.495 Y17.008 E0.0042
G1 X38.395 Y17.178 E0.0042
G1 X38.325 Y17.363 E0.0042
G1 X38.287 Y17.556 E0.0042
G1 X38.282 Y17.754 E0.0042
G1 X38.311 Y17.949 E0.0042
G1 X38.372 Y18.137 E0.0042
G1 X38.465 Y18.311 E0.0042
G1 X38.585 Y18.468 E0.0042
G1 X38.730 Y18.602 E0.0042
G1 X38.896 Y18.709 E0.0042
G1 X39.077 Y18.787 E0.0042
G1 X39.269 Y18.833 E0.0042
G1 X39.466 Y18.846 E0.0042
G1 X39.663 Y18.825 E0.0042
G1 X39.853 Y18.772 E0.0042
G1 X40.031 Y18.687 E0.0042
G1 X40.193 Y18.574 E0.0042
G1 X40.333 Y18.434 E0.0042
G1 X40.447 Y18.273 E0.0042
G1 X40.532 Y18.095 E0.0042
G1 X40.587 Y17.905 E0.0042
G1 X40.608 Y17.709 E0.0042
G1 X40.596 Y17.512 E0.0042
G1 X40.550 Y17.320 E0.0042
G1 X40.473 Y17.138 E0.0042
G1 X40.367 Y16.972 E0.0042
G1 X40.233 Y16.826 E0.0042
G1 X40.092 Y16.717 E0.0038
G1 X40.231 Y16.368 E0.0080
G1 X40.285 Y16.397 E0.0013
G1 X40.539 Y16.605 E0.0070
G1 X40.639 Y16.717 E0.0032
G1 X40.816 Y16.992 E0.0069
G1 X40.932 Y17.297 E0.0069
G1 X40.963 Y17.452 E0.0034
G1 X40.978 Y17.772 E0.0068
G1 X40.925 Y18.095 E0.0069
G1 X40.878 Y18.237 E0.0032
G1 X40.728 Y18.529 E0.0070
G1 X30.662 Y31.158 E0.3426
G1 X30.473 Y31.279 E0.0048
G1 X37.024 Y41.488 E0.2573
G1 X42.993 Y50.858 E0.2357
G1 X43.841 Y52.243 E0.0345
G1 X43.783 Y52.196 E0.0016
G1 X42.793 Y51.279 E0.0286
G1 X40.892 Y49.444 E0.0561
G1 X39.112 Y47.659 E0.0535
G1 X37.769 Y46.270 E0.0410
G1 X34.977 Y43.297 E0.0865
G1 X33.102 Y41.246 E0.0590
G1 X30.180 Y37.978 E0.0930
G1 X22.166 Y28.905 E0.2568
G1 X16.658 Y22.593 E0.1777
G1 X17.653 Y20.341 E0.0522
G1 X17.734 Y20.158 F1126
G1 X17.786 Y20.124 F1126
G1 X18.828 Y21.759
G1 X23.581 Y20.499 F7800
G1 E0.1200 F1800
G1 X27.588 Y26.771 E0.1579 F1126
G1 X24.374 Y28.819 E0.0809
G1 X24.611 Y29.190 E0.0093
G1 X27.825 Y27.142 E0.0809
G1 X30.228 Y30.897 E0.0946
G1 X30.458 Y30.749 E0.0058
G1 X31.944 Y28.937 E0.0497
G1 X29.676 Y29.195 E0.0484
G1 X29.547 Y28.999 E0.0050
G1 X32.147 Y28.678 E0.0556
G1 X33.739 Y26.752 E0.0530
G1 X28.242 Y26.963 E0.1167
G1 X28.155 Y26.830 E0.0034
G1 X33.906 Y26.551 E0.1222
G1 X35.188 Y25.041 E0.0420
G1 X28.166 Y25.134 E0.1490
G1 X27.385 Y25.621 E0.0195
G1 X27.276 Y25.455 E0.0042
G1 X37.739 Y18.732 E0.2638
G1 X37.846 Y18.895 E0.0041
G1 X28.979 Y24.593 E0.2236
G1 X29.073 Y24.898 E0.0068
G1 X35.408 Y24.715 E0.1345
G1 X36.739 Y23.093 E0.0445
G1 X32.303 Y23.004 E0.0941
G1 X32.485 Y22.884 E0.0046
G1 X36.982 Y22.811 E0.0954
G1 X38.633 Y20.780 E0.0555
G1 X35.619 Y20.881 E0.0640
G1 X35.930 Y20.685 E0.0078
G1 X38.828 Y20.500 E0.0616
G1 X39.888 Y19.169 E0.0361
G1 X39.343 Y19.220 E0.0116
G1 X39.193 Y19.203 E0.0032
G1 X39.041 Y19.170 E0.0033
G1 X38.731 Y19.050 E0.0071
G1 X38.602 Y18.974 E0.0032
G1 X38.348 Y18.767 E0.0069
G1 X38.147 Y18.516 E0.0068
G1 X38.000 Y18.223 E0.0069
G1 X37.954 Y18.080 E0.0032
G1 X37.904 Y17.757 E0.0069
G1 X37.923 Y17.430 E0.0069
G1 X37.955 Y17.283 E0.0032
G1 X38.203 Y16.640 E0.0146
G1 X37.327 Y16.842 E0.0191
G1 X36.273 Y19.156 E0.0539
G1 X36.109 Y19.260 E0.0041
G1 X37.219 Y16.812 E0.0570
G1 X34.812 Y17.443 E0.0528
G1 X33.363 Y21.027 E0.0820
G1 X33.113 Y21.188 E0.0063
G1 X34.554 Y17.533 E0.0834
G1 X32.088 Y18.183 E0.0541
G1 X30.117 Y23.111 E0.1126
G1 X29.759 Y23.339 E0.0090
G1 X31.836 Y18.252 E0.1166
G1 X29.590 Y18.861 E0.0494
G1 X26.829 Y24.753 E0.1380
G1 X26.628 Y24.429 E0.0081
G1 X29.202 Y19.021 E0.1271
G1 X26.664 Y19.654 E0.0555
G1 X25.287 Y22.369 E0.0646
G1 X25.139 Y22.144 E0.0057
G1 X26.291 Y19.747 E0.0564
G1 X23.773 Y20.445 E0.0554
G1 X23.581 Y20.499 F1126
G1 X24.657 Y22.184 F1126
; layer 2, Z = 0.570
; tool H0.300 W0.420
G1 Z0.570 F1002
G1 X25.139 Y22.144 F7800
G1 X26.291 Y19.747
G1 X23.578 Y20.501
G1 X23.403 Y20.229
G1 E0.1200 F1800
G1 X38.933 Y16.213 E0.3781 F2252
G1 X39.374 Y16.146 E0.0105
G1 X39.530 Y16.147 E0.0037
G1 X39.732 Y16.169 E0.0048
G1 X39.835 Y16.201 E0.0025
G1 X39.691 Y16.564 E0.0092
G1 X39.572 Y16.536 E0.0029
G1 X39.331 Y16.523 E0.0057
G1 X39.129 Y16.561 E0.0048
G1 X38.944 Y16.631 E0.0047
G1 X38.774 Y16.730 E0.0047
G1 X38.623 Y16.857 E0.0047
G1 X38.495 Y17.008 E0.0047
G1 X38.395 Y17.178 E0.0047
G1 X38.325 Y17.363 E0.0047
G1 X38.287 Y17.556 E0.0047
G1 X38.282 Y17.754 E0.0047
G1 X38.311 Y17.949 E0.0047
G1 X38.372 Y18.137 E0.0047
G1 X38.465 Y18.311 E0.0047
G1 X38.585 Y18.468 E0.0047
G1 X38.730 Y18.602 E0.0047
G1 X38.896 Y18.709 E0.0047
G1 X39.077 Y18.787 E0.0047
G1 X39.269 Y18.833 E0.0047
G1 X39.466 Y18.846 E0.0047
G1 X39.663 Y18.825 E0.0047
G1 X39.853 Y18.772 E0.0047
G1 X40.031 Y18.687 E0.0047
G1 X40.193 Y18.574 E0.0047
G1 X40.333 Y18.434 E0.0047
G1 X40.447 Y18.273 E0.0047
G1 X40.532 Y18.095 E0.0047
G1 X40.587 Y17.905 E0.0047
G1 X40.608 Y17.709 E0.0047
G1 X40.596 Y17.512 E0.0047
G1 X40.550 Y17.320 E0.0047
G1 X40.473 Y17.138 E0.0047
G1 X40.367 Y16.972 E0.0047
G1 X40.233 Y16.826 E0.0047
G1 X40.092 Y16.717 E0.0042
G1 X40.231 Y16.368 E0.0088
G1 X40.285 Y16.397 E0.0014
G1 X40.539 Y16.605 E0.0077
G1 X40.639 Y16.717 E0.0035
G1 X40.816 Y16.992 E0.0077
G1 X40.931 Y17.297 E0.0077
G1 X40.965 Y17.469 E0.0041
