; G-Code generated by Simplify3D(R) Version 4.1.2
; Sep 24, 2022 at 2:40:04 PM
; Settings Summary
;   processName,Process1
;   applyToModels,Alerion-R1
;   profileName,PProp - LW-PLA
;   profileVersion,2022-05-27 11:45:37
;   baseProfile,Default
;   printMaterial,
;   printQuality,
;   printExtruders,
;   extruderName,Primary Extruder
;   extruderToolheadNumber,0
;   extruderDiameter,0.4
;   extruderAutoWidth,0
;   extruderWidth,0.42
;   extrusionMultiplier,0.45
;   extruderUseRetract,1
;   extruderRetractionDistance,0
;   extruderExtraRestartDistance,0.12
;   extruderRetractionZLift,0
;   extruderRetractionSpeed,1800
;   extruderUseCoasting,1
;   extruderCoastingDistance,0.2
;   extruderUseWipe,1
;   extruderWipeDistance,2
;   primaryExtruder,0
;   layerHeight,0.3
;   topSolidLayers,0
;   bottomSolidLayers,0
;   perimeterOutlines,1
;   printPerimetersInsideOut,1
;   startPointOption,2
;   startPointOriginX,0
;   startPointOriginY,-100
;   sequentialIslands,0
;   spiralVaseMode,1
;   firstLayerHeightPercentage,90
;   firstLayerWidthPercentage,100
;   firstLayerUnderspeed,0.5
;   useRaft,0
;   raftExtruder,0
;   raftTopLayers,3
;   raftBaseLayers,2
;   raftOffset,3
;   raftSeparationDistance,0.14
;   raftTopInfill,100
;   aboveRaftSpeedMultiplier,0.3
;   useSkirt,1
;   skirtExtruder,0
;   skirtLayers,1
;   skirtOutlines,3
;   skirtOffset,1.4
;   usePrimePillar,0
;   primePillarExtruder,999
;   primePillarWidth,12
;   primePillarLocation,7
;   primePillarSpeedMultiplier,1
;   useOozeShield,0
;   oozeShieldExtruder,999
;   oozeShieldOffset,2
;   oozeShieldOutlines,1
;   oozeShieldSidewallShape,1
;   oozeShieldSidewallAngle,30
;   oozeShieldSpeedMultiplier,1
;   infillExtruder,0
;   internalInfillPattern,Rectilinear
;   externalInfillPattern,Rectilinear
;   infillPercentage,0
;   outlineOverlapPercentage,15
;   infillExtrusionWidthPercentage,100
;   minInfillLength,5
;   infillLayerInterval,1
;   internalInfillAngles,45,-45
;   overlapInternalInfillAngles,0
;   externalInfillAngles,45,-45
;   generateSupport,0
;   supportExtruder,0
;   supportInfillPercentage,30
;   supportExtraInflation,0
;   supportBaseLayers,0
;   denseSupportExtruder,0
;   denseSupportLayers,0
;   denseSupportInfillPercentage,70
;   supportLayerInterval,1
;   supportHorizontalPartOffset,0.3
;   supportUpperSeparationLayers,1
;   supportLowerSeparationLayers,1
;   supportType,0
;   supportGridSpacing,4
;   maxOverhangAngle,45
;   supportAngles,0
;   temperatureName,Primary Extruder,Heated Bed
;   temperatureNumber,0,1
;   temperatureSetpointCount,1,1
;   temperatureSetpointLayers,1,1
;   temperatureSetpointTemperatures,250,55
;   temperatureStabilizeAtStartup,1,1
;   temperatureHeatedBed,0,1
;   fanLayers,1
;   fanSpeeds,100
;   blipFanToFullPower,1
;   adjustSpeedForCooling,0
;   minSpeedLayerTime,15
;   minCoolingSpeedSlowdown,80
;   increaseFanForCooling,0
;   minFanLayerTime,20
;   maxCoolingFanSpeed,100
;   increaseFanForBridging,0
;   bridgingFanSpeed,100
;   use5D,1
;   relativeEdistances,1
;   allowEaxisZeroing,1
;   independentExtruderAxes,0
;   includeM10123,0
;   stickySupport,1
;   applyToolheadOffsets,0
;   gcodeXoffset,0
;   gcodeYoffset,0
;   gcodeZoffset,0
;   overrideMachineDefinition,1
;   machineTypeOverride,0
;   strokeXoverride,200
;   strokeYoverride,200
;   strokeZoverride,200
;   originOffsetXoverride,0
;   originOffsetYoverride,0
;   originOffsetZoverride,0
;   homeXdirOverride,-1
;   homeYdirOverride,-1
;   homeZdirOverride,-1
;   flipXoverride,1
;   flipYoverride,-1
;   flipZoverride,1
;   toolheadOffsets,0,0|0,0|0,0|0,0|0,0|0,0
;   overrideFirmwareConfiguration,1
;   firmwareTypeOverride,RepRap (Marlin/Repetier/Sprinter)
;   GPXconfigOverride,r2
;   baudRateOverride,115200
;   overridePrinterModels,0
;   printerModelsOverride
;   startingGcode,G28,G92 E0.0
;   layerChangeGcode,
;   retractionGcode,
;   toolChangeGcode,
;   endingGcode,M104 S0 ; turn off extruder,M140 S0 ; turn off bed,G28 X0 ; home X axis,M84 ; disable motors,M107 ; turn off fan
;   exportFileFormat,gcode
;   celebration,0
;   celebrationSong,Take On Me
;   postProcessing,
;   defaultSpeed,2502
;   outlineUnderspeed,0.9
;   solidInfillUnderspeed,0.8
;   supportUnderspeed,0.8
;   rapidXYspeed,7800
;   rapidZspeed,1002
;   minBridgingArea,5
;   bridgingExtraInflation,0
;   bridgingExtrusionMultiplier,1
;   bridgingSpeedMultiplier,0.3
;   useFixedBridgingAngle,0
;   fixedBridgingAngle,0
;   applyBridgingToPerimeters,0
;   filamentDiameters,1.75|1.75|1.75|1.75|1.75|1.75
;   filamentPricesPerKg,1000|1000|1000|1000|1000|1000
;   filamentDensities,1.25|1.25|1.25|1.25|1.25|1.25
;   useMinPrintHeight,0
;   minPrintHeight,0.3
;   useMaxPrintHeight,0
;   maxPrintHeight,15
;   useDiaphragm,0
;   diaphragmLayerInterval,20
;   robustSlicing,1
;   mergeAllIntoSolid,0
;   onlyRetractWhenCrossingOutline,0
;   retractBetweenLayers,0
;   useRetractionMinTravel,0
;   retractionMinTravel,3
;   retractWhileWiping,0
;   onlyWipeOutlines,1
;   avoidCrossingOutline,1
;   maxMovementDetourFactor,3
;   toolChangeRetractionDistance,0
;   toolChangeExtraRestartDistance,0
;   toolChangeRetractionSpeed,360
;   externalThinWallType,0
;   internalThinWallType,2
;   thinWallAllowedOverlapPercentage,10
;   singleExtrusionMinLength,1
;   singleExtrusionMinPrintingWidthPercentage,50
;   singleExtrusionMaxPrintingWidthPercentage,200
;   singleExtrusionEndpointExtension,0.2
;   horizontalSizeCompensation,0
G90
M83
M106 S255
M140 S55
M190 S55
M104 S250 T0
M109 S250 T0
G28
G92 E0.0
; process Process1
; layer 1, Z = 0.270
T0
; feature skirt
; tool H0.270 W0.420
G1 Z0.270 F1002
G1 X18.550 Y16.837 F7800
G1 E0.1200 F1800
G1 X19.228 Y16.102 E0.0212 F1251
G1 X19.615 Y15.682 E0.0121
G1 X20.240 Y15.314 E0.0154
G1 X24.066 Y14.387 E0.0835
G1 X25.416 Y14.848 E0.0303
G1 X31.183 Y22.054 E0.1958
G1 X31.188 Y22.060 E0.0002
G1 X38.701 Y31.563 E0.2570
G1 X38.709 Y31.573 E0.0003
G1 X43.107 Y37.257 E0.1525
G1 X43.122 Y37.277 E0.0005
G1 X45.571 Y40.576 E0.0872
G1 X45.588 Y40.599 E0.0006
G1 X48.180 Y44.270 E0.0953
G1 X48.203 Y44.303 E0.0008
G1 X50.447 Y47.709 E0.0865
G1 X50.503 Y47.803 E0.0023
G1 X50.849 Y48.446 E0.0155
G1 X50.946 Y48.681 E0.0054
G1 X51.492 Y50.539 E0.0411
G1 X49.163 Y52.603 E0.0660
G1 X47.393 Y51.841 E0.0409
G1 X47.148 Y51.700 E0.0060
G1 X46.620 Y51.310 E0.0139
G1 X46.534 Y51.240 E0.0024
G1 X45.233 Y50.080 E0.0370
G1 X45.216 Y50.065 E0.0005
G1 X29.599 Y35.595 E0.4517
G1 X16.711 Y42.561 E0.3108
G1 X16.425 Y42.673 E0.0065
G1 X15.558 Y42.890 E0.0190
G1 X15.174 Y42.924 E0.0082
G1 X14.243 Y42.860 E0.0198
G1 X13.867 Y42.773 E0.0082
G1 X13.031 Y42.437 E0.0191
G1 X12.751 Y42.279 E0.0068
G1 X12.228 Y41.885 E0.0139
G1 X12.040 Y41.710 E0.0054
G1 X11.631 Y41.241 E0.0132
G1 X11.484 Y41.030 E0.0054
G1 X11.289 Y40.680 E0.0085
G1 X10.985 Y40.461 E0.0079
G1 X10.881 Y39.613 E0.0181
G1 X10.741 Y39.172 E0.0098
G1 X10.295 Y38.863 E0.0115
G1 X17.119 Y24.034 E0.3463
G1 X17.022 Y23.944 E0.0028
G1 X16.673 Y22.513 E0.0312
G1 X17.068 Y21.410 E0.0249
G1 X18.272 Y17.327 E0.0903
G1 X18.550 Y16.837 E0.0120
G1 X18.891 Y17.086 F7800
G1 E0.1200 F1800
G1 X19.536 Y16.387 E0.0202 F1251
G1 X19.882 Y16.012 E0.0108
G1 X20.400 Y15.708 E0.0128
G1 X24.046 Y14.824 E0.0796
G1 X25.165 Y15.206 E0.0251
G1 X30.855 Y22.316 E0.1932
G1 X30.859 Y22.321 E0.0001
G1 X38.371 Y31.823 E0.2570
G1 X38.378 Y31.832 E0.0002
G1 X42.774 Y37.513 E0.1524
G1 X42.786 Y37.529 E0.0004
G1 X45.232 Y40.824 E0.0871
G1 X45.246 Y40.843 E0.0005
G1 X47.835 Y44.509 E0.0952
G1 X47.854 Y44.537 E0.0007
G1 X50.091 Y47.932 E0.0863
G1 X50.137 Y48.010 E0.0019
G1 X50.469 Y48.626 E0.0148
G1 X50.549 Y48.821 E0.0045
G1 X51.014 Y50.401 E0.0349
G1 X49.084 Y52.111 E0.0547
G1 X47.581 Y51.465 E0.0347
G1 X47.378 Y51.348 E0.0050
G1 X46.878 Y50.978 E0.0132
G1 X46.806 Y50.920 E0.0020
G1 X45.514 Y49.768 E0.0367
G1 X45.500 Y49.755 E0.0004
G1 X29.663 Y35.083 E0.4580
G1 X16.534 Y42.179 E0.3166
G1 X16.297 Y42.272 E0.0054
G1 X15.488 Y42.474 E0.0177
G1 X15.170 Y42.502 E0.0068
G1 X14.305 Y42.443 E0.0184
G1 X13.993 Y42.371 E0.0068
G1 X13.214 Y42.057 E0.0178
G1 X12.982 Y41.926 E0.0056
G1 X12.498 Y41.563 E0.0128
G1 X12.342 Y41.418 E0.0045
G1 X11.962 Y40.981 E0.0123
G1 X11.840 Y40.807 E0.0045
G1 X11.610 Y40.394 E0.0100
G1 X11.379 Y40.227 E0.0060
G1 X11.293 Y39.523 E0.0150
G1 X11.099 Y38.909 E0.0137
G1 X10.824 Y38.718 E0.0071
G1 X17.628 Y23.933 E0.3453
G1 X17.400 Y23.721 E0.0066
G1 X17.111 Y22.536 E0.0259
G1 X17.467 Y21.541 E0.0224
G1 X18.661 Y17.493 E0.0895
G1 X18.891 Y17.086 E0.0099
G1 X19.233 Y17.335 F7800
G1 E0.1200 F1800
G1 X19.845 Y16.671 E0.0192 F1251
G1 X20.148 Y16.343 E0.0095
G1 X20.559 Y16.101 E0.0101
G1 X24.026 Y15.261 E0.0757
G1 X24.913 Y15.564 E0.0199
G1 X30.530 Y22.582 E0.1907
G1 X38.041 Y32.083 E0.2570
G1 X38.046 Y32.090 E0.0002
G1 X42.440 Y37.768 E0.1523
G1 X42.450 Y37.781 E0.0003
G1 X44.893 Y41.072 E0.0870
G1 X44.904 Y41.088 E0.0004
G1 X47.490 Y44.749 E0.0951
G1 X47.505 Y44.770 E0.0006
G1 X49.735 Y48.156 E0.0860
G1 X49.772 Y48.217 E0.0015
G1 X50.089 Y48.806 E0.0142
G1 X50.152 Y48.960 E0.0035
G1 X50.535 Y50.264 E0.0288
G1 X49.005 Y51.620 E0.0434
G1 X47.770 Y51.089 E0.0285
G1 X47.608 Y50.996 E0.0039
G1 X47.135 Y50.646 E0.0125
G1 X47.078 Y50.600 E0.0016
G1 X45.795 Y49.456 E0.0365
G1 X45.784 Y49.446 E0.0003
G1 X29.728 Y34.570 E0.4644
G1 X16.358 Y41.797 E0.3225
G1 X16.170 Y41.870 E0.0043
G1 X15.418 Y42.059 E0.0164
G1 X15.166 Y42.081 E0.0054
G1 X14.366 Y42.026 E0.0170
G1 X14.119 Y41.969 E0.0054
G1 X13.396 Y41.678 E0.0165
G1 X13.212 Y41.574 E0.0045
G1 X12.768 Y41.240 E0.0118
G1 X12.645 Y41.125 E0.0036
G1 X12.294 Y40.722 E0.0113
G1 X12.197 Y40.584 E0.0036
G1 X11.939 Y40.120 E0.0113
G1 X11.934 Y40.109 E0.0002
G1 X11.774 Y39.994 E0.0042
G1 X11.705 Y39.434 E0.0120
G1 X11.539 Y38.908 E0.0117
G1 X11.625 Y38.763 E0.0036
G1 X11.353 Y38.574 E0.0070
G1 X18.137 Y23.831 E0.3443
G1 X17.778 Y23.499 E0.0104
G1 X17.549 Y22.559 E0.0205
G1 X17.867 Y21.671 E0.0200
G1 X19.050 Y17.658 E0.0888
G1 X19.233 Y17.335 E0.0079
; feature outer perimeter
G1 X20.724 Y18.416 F7800
G1 E0.1200 F1800
G1 X32.399 Y29.201 E0.3372 F1126
G1 X32.922 Y28.636 E0.0163
G1 X21.239 Y17.844 E0.3374
G1 X21.281 Y17.799 E0.0013
G1 X23.869 Y17.172 E0.0565
G1 X29.104 Y23.712 E0.1777
G1 X36.611 Y33.209 E0.2568
G1 X39.309 Y36.664 E0.0930
G1 X40.995 Y38.874 E0.0590
G1 X43.425 Y42.148 E0.0865
G1 X44.553 Y43.716 E0.0410
G1 X45.994 Y45.786 E0.0535
G1 X47.463 Y47.982 E0.0561
G1 X48.190 Y49.118 E0.0286
G1 X48.225 Y49.184 E0.0016
G1 X47.013 Y48.104 E0.0345
G1 X38.851 Y40.567 E0.2357
G1 X29.966 Y32.309 E0.2573
G1 X29.813 Y32.473 E0.0048
G1 X15.599 Y40.139 E0.3426
G1 X15.285 Y40.235 E0.0070
G1 X15.131 Y40.257 E0.0033
G1 X14.976 Y40.262 E0.0033
G1 X14.651 Y40.223 E0.0069
G1 X14.341 Y40.117 E0.0069
G1 X14.209 Y40.046 E0.0032
G1 X13.947 Y39.850 E0.0069
G1 X13.736 Y39.607 E0.0068
G1 X13.579 Y39.325 E0.0068
G1 X13.561 Y39.267 E0.0013
G1 X13.928 Y39.192 E0.0080
G1 X14.011 Y39.350 E0.0038
G1 X14.131 Y39.507 E0.0042
G1 X14.275 Y39.642 E0.0042
G1 X14.440 Y39.750 E0.0042
G1 X14.622 Y39.828 E0.0042
G1 X14.813 Y39.875 E0.0042
G1 X15.010 Y39.889 E0.0042
G1 X15.207 Y39.870 E0.0042
G1 X15.397 Y39.817 E0.0042
G1 X15.576 Y39.733 E0.0042
G1 X15.738 Y39.620 E0.0042
G1 X15.878 Y39.481 E0.0042
G1 X15.993 Y39.321 E0.0042
G1 X16.080 Y39.143 E0.0042
G1 X16.135 Y38.954 E0.0042
G1 X16.157 Y38.758 E0.0042
G1 X16.146 Y38.560 E0.0042
G1 X16.101 Y38.368 E0.0042
G1 X16.025 Y38.186 E0.0042
G1 X15.919 Y38.019 E0.0042
G1 X15.786 Y37.873 E0.0042
G1 X15.631 Y37.751 E0.0042
G1 X15.457 Y37.657 E0.0042
G1 X15.270 Y37.594 E0.0042
G1 X15.075 Y37.564 E0.0042
G1 X14.877 Y37.567 E0.0042
G1 X14.683 Y37.603 E0.0042
G1 X14.498 Y37.672 E0.0042
G1 X14.327 Y37.770 E0.0042
G1 X14.175 Y37.897 E0.0042
G1 X14.047 Y38.047 E0.0042
G1 X13.946 Y38.216 E0.0042
G1 X13.872 Y38.408 E0.0044
G1 X13.843 Y38.648 E0.0051
G1 X13.849 Y38.769 E0.0026
G1 X13.466 Y38.847 E0.0083
G1 X13.453 Y38.740 E0.0023
G1 X13.467 Y38.537 E0.0043
G1 X13.494 Y38.383 E0.0033
G1 X13.638 Y37.961 E0.0095
G1 X20.342 Y23.393 E0.3402
G1 X19.472 Y22.587 E0.0252
G1 X19.598 Y22.236 E0.0079
G1 X20.667 Y18.608 E0.0802
G1 X20.724 Y18.416 F1126
G1 X22.193 Y19.773 F1126
G1 X20.580 Y23.613 F7800
G1 E0.1200 F1800
G1 X19.359 Y26.147 E0.0597 F1126
G1 X21.922 Y25.438 E0.0564
G1 X22.118 Y25.624 E0.0057
G1 X19.201 Y26.498 E0.0646
G1 X18.128 Y28.883 E0.0555
G1 X23.907 Y27.309 E0.1271
G1 X24.190 Y27.565 E0.0081
G1 X17.902 Y29.237 E0.1380
G1 X16.904 Y31.339 E0.0494
G1 X22.279 Y30.197 E0.1166
G1 X21.991 Y30.509 E0.0090
G1 X16.791 Y31.574 E0.1126
G1 X15.714 Y33.886 E0.0541
G1 X19.567 Y33.117 E0.0834
G1 X19.364 Y33.334 E0.0063
G1 X15.580 Y34.124 E0.0820
G1 X14.532 Y36.381 E0.0528
G1 X17.138 Y35.723 E0.0570
G1 X17.006 Y35.866 E0.0041
G1 X14.542 Y36.493 E0.0539
G1 X14.188 Y37.319 E0.0191
G1 X14.865 Y37.189 E0.0146
G1 X15.015 Y37.184 E0.0032
G1 X15.340 Y37.223 E0.0069
G1 X15.644 Y37.328 E0.0068
G1 X15.925 Y37.496 E0.0069
G1 X16.040 Y37.592 E0.0032
G1 X16.255 Y37.839 E0.0069
G1 X16.414 Y38.125 E0.0069
G1 X16.466 Y38.266 E0.0032
G1 X16.529 Y38.593 E0.0071
G1 X16.535 Y38.748 E0.0033
G1 X16.525 Y38.899 E0.0032
G1 X16.378 Y39.426 E0.0116
G1 X17.875 Y38.619 E0.0361
G1 X18.572 Y35.800 E0.0616
G1 X18.820 Y35.528 E0.0078
G1 X18.186 Y38.477 E0.0640
G1 X20.478 Y37.212 E0.0555
G1 X21.347 Y32.800 E0.0954
G1 X21.498 Y32.641 E0.0046
G1 X20.798 Y37.023 E0.0941
G1 X22.631 Y36.001 E0.0445
G1 X23.935 Y29.799 E0.1345
G1 X23.651 Y29.652 E0.0068
G1 X16.471 Y37.368 E0.2236
G1 X16.329 Y37.233 E0.0041
G1 X24.802 Y28.129 E0.2638
G1 X24.945 Y28.266 E0.0042
G1 X24.328 Y28.948 E0.0195
G1 X22.991 Y35.843 E0.1490
G1 X24.704 Y34.848 E0.0420
G1 X25.999 Y29.238 E0.1222
G1 X26.115 Y29.347 E0.0034
G1 X24.931 Y34.720 E0.1167
G1 X27.110 Y33.495 E0.0530
G1 X27.886 Y30.993 E0.0556
G1 X28.057 Y31.154 E0.0050
G1 X27.401 Y33.341 E0.0484
G1 X29.447 Y32.200 E0.0497
G1 X29.634 Y32.000 E0.0058
G1 X26.364 Y28.969 E0.0946
G1 X28.951 Y26.169 E0.0809
G1 X28.627 Y25.870 E0.0093
G1 X26.041 Y28.670 E0.0809
G1 X20.727 Y23.749 E0.1537
G1 X20.580 Y23.613 F1126
G1 X19.712 Y25.415 F1126
; layer 2, Z = 0.570
; tool H0.300 W0.420
G1 Z0.570 F1002
G1 X20.345 Y23.390 F7800
G1 E0.1200 F1800
G1 X19.480 Y22.589 E0.0278 F2252
G1 X19.601 Y22.250 E0.0085
G1 X20.730 Y18.418 E0.0942
G1 X32.404 Y29.201 E0.3746
G1 X32.927 Y28.635 E0.0182
G1 X21.246 Y17.846 E0.3749
G1 X21.288 Y17.800 E0.0015
G1 X23.874 Y17.173 E0.0627
G1 X29.115 Y23.721 E0.1977
G1 X36.621 Y33.215 E0.2853
G1 X39.316 Y36.667 E0.1032
G1 X41.004 Y38.879 E0.0656
G1 X43.434 Y42.153 E0.0961
G1 X44.562 Y43.720 E0.0455
G1 X46.001 Y45.786 E0.0593
G1 X47.470 Y47.983 E0.0623
G1 X48.196 Y49.118 E0.0318
G1 X48.231 Y49.184 E0.0018
G1 X47.019 Y48.104 E0.0383
G1 X38.858 Y40.568 E0.2619
G1 X29.969 Y32.306 E0.2861
G1 X29.813 Y32.473 E0.0054
G1 X15.599 Y40.139 E0.3807
G1 X15.285 Y40.235 E0.0077
G1 X15.131 Y40.257 E0.0037
G1 X14.976 Y40.262 E0.0037
G1 X14.651 Y40.223 E0.0077
G1 X14.341 Y40.117 E0.0077
G1 X14.209 Y40.046 E0.0035
G1 X13.947 Y39.850 E0.0077
G1 X13.736 Y39.607 E0.0076
G1 X13.579 Y39.325 E0.0076
G1 X13.561 Y39.267 E0.0014
G1 X13.928 Y39.192 E0.0088
G1 X14.011 Y39.350 E0.0042
G1 X14.131 Y39.507 E0.0047
G1 X14.275 Y39.642 E0.0047
G1 X14.440 Y39.750 E0.0047
G1 X14.622 Y39.828 E0.0047
G1 X14.813 Y39.875 E0.0047
G1 X15.010 Y39.889 E0.0047
G1 X15.207 Y39.870 E0.0047
G1 X15.397 Y39.817 E0.0047
G1 X15.576 Y39.733 E0.0047
G1 X15.738 Y39.620 E0.0047
G1 X15.878 Y39.481 E0.0047
G1 X15.993 Y39.321 E0.0047
G1 X16.080 Y39.143 E0.0047
G1 X16.135 Y38.954 E0.0047
G1 X16.157 Y38.758 E0.0047
G1 X16.146 Y38.560 E0.0047
