; G-Code generated by Simplify3D(R) Version 4.1.2
; Sep 24, 2022 at 2:32:29 PM
; Settings Summary
;   processName,PProp
;   applyToModels,Cover
;   profileName,PProp - LW-PLA
;   profileVersion,2022-05-27 11:45:37
;   baseProfile,Default
;   printMaterial,
;   printQuality,
;   printExtruders,
;   extruderName,Primary Extruder
;   extruderToolheadNumber,0
;   extruderDiameter,0.4
;   extruderAutoWidth,0
;   extruderWidth,0.42
;   extrusionMultiplier,0.45
;   extruderUseRetract,1
;   extruderRetractionDistance,0
;   extruderExtraRestartDistance,0.12
;   extruderRetractionZLift,0
;   extruderRetractionSpeed,1800
;   extruderUseCoasting,1
;   extruderCoastingDistance,0.2
;   extruderUseWipe,1
;   extruderWipeDistance,2
;   primaryExtruder,0
;   layerHeight,0.3
;   topSolidLayers,0
;   bottomSolidLayers,0
;   perimeterOutlines,1
;   printPerimetersInsideOut,1
;   startPointOption,2
;   startPointOriginX,0
;   startPointOriginY,-100
;   sequentialIslands,0
;   spiralVaseMode,1
;   firstLayerHeightPercentage,90
;   firstLayerWidthPercentage,100
;   firstLayerUnderspeed,0.5
;   useRaft,0
;   raftExtruder,0
;   raftTopLayers,3
;   raftBaseLayers,2
;   raftOffset,3
;   raftSeparationDistance,0.14
;   raftTopInfill,100
;   aboveRaftSpeedMultiplier,0.3
;   useSkirt,1
;   skirtExtruder,0
;   skirtLayers,1
;   skirtOutlines,3
;   skirtOffset,1.4
;   usePrimePillar,0
;   primePillarExtruder,999
;   primePillarWidth,12
;   primePillarLocation,7
;   primePillarSpeedMultiplier,1
;   useOozeShield,0
;   oozeShieldExtruder,999
;   oozeShieldOffset,2
;   oozeShieldOutlines,1
;   oozeShieldSidewallShape,1
;   oozeShieldSidewallAngle,30
;   oozeShieldSpeedMultiplier,1
;   infillExtruder,0
;   internalInfillPattern,Rectilinear
;   externalInfillPattern,Rectilinear
;   infillPercentage,0
;   outlineOverlapPercentage,15
;   infillExtrusionWidthPercentage,100
;   minInfillLength,5
;   infillLayerInterval,1
;   internalInfillAngles,45,-45
;   overlapInternalInfillAngles,0
;   externalInfillAngles,45,-45
;   generateSupport,0
;   supportExtruder,0
;   supportInfillPercentage,30
;   supportExtraInflation,0
;   supportBaseLayers,0
;   denseSupportExtruder,0
;   denseSupportLayers,0
;   denseSupportInfillPercentage,70
;   supportLayerInterval,1
;   supportHorizontalPartOffset,0.3
;   supportUpperSeparationLayers,1
;   supportLowerSeparationLayers,1
;   supportType,0
;   supportGridSpacing,4
;   maxOverhangAngle,45
;   supportAngles,0
;   temperatureName,Primary Extruder,Heated Bed
;   temperatureNumber,0,1
;   temperatureSetpointCount,1,1
;   temperatureSetpointLayers,1,1
;   temperatureSetpointTemperatures,250,55
;   temperatureStabilizeAtStartup,1,1
;   temperatureHeatedBed,0,1
;   fanLayers,1
;   fanSpeeds,100
;   blipFanToFullPower,1
;   adjustSpeedForCooling,0
;   minSpeedLayerTime,15
;   minCoolingSpeedSlowdown,80
;   increaseFanForCooling,0
;   minFanLayerTime,20
;   maxCoolingFanSpeed,100
;   increaseFanForBridging,0
;   bridgingFanSpeed,100
;   use5D,1
;   relativeEdistances,1
;   allowEaxisZeroing,1
;   independentExtruderAxes,0
;   includeM10123,0
;   stickySupport,1
;   applyToolheadOffsets,0
;   gcodeXoffset,0
;   gcodeYoffset,0
;   gcodeZoffset,0
;   overrideMachineDefinition,1
;   machineTypeOverride,0
;   strokeXoverride,200
;   strokeYoverride,200
;   strokeZoverride,200
;   originOffsetXoverride,0
;   originOffsetYoverride,0
;   originOffsetZoverride,0
;   homeXdirOverride,-1
;   homeYdirOverride,-1
;   homeZdirOverride,-1
;   flipXoverride,1
;   flipYoverride,-1
;   flipZoverride,1
;   toolheadOffsets,0,0|0,0|0,0|0,0|0,0|0,0
;   overrideFirmwareConfiguration,1
;   firmwareTypeOverride,RepRap (Marlin/Repetier/Sprinter)
;   GPXconfigOverride,r2
;   baudRateOverride,115200
;   overridePrinterModels,0
;   printerModelsOverride
;   startingGcode,G28,G92 E0.0
;   layerChangeGcode,
;   retractionGcode,
;   toolChangeGcode,
;   endingGcode,M104 S0 ; turn off extruder,M140 S0 ; turn off bed,G28 X0 ; home X axis,M84 ; disable motors,M107 ; turn off fan
;   exportFileFormat,gcode
;   celebration,0
;   celebrationSong,Take On Me
;   postProcessing,
;   defaultSpeed,2502
;   outlineUnderspeed,0.9
;   solidInfillUnderspeed,0.8
;   supportUnderspeed,0.8
;   rapidXYspeed,7800
;   rapidZspeed,1002
;   minBridgingArea,5
;   bridgingExtraInflation,0
;   bridgingExtrusionMultiplier,1
;   bridgingSpeedMultiplier,0.3
;   useFixedBridgingAngle,0
;   fixedBridgingAngle,0
;   applyBridgingToPerimeters,0
;   filamentDiameters,1.75|1.75|1.75|1.75|1.75|1.75
;   filamentPricesPerKg,1000|1000|1000|1000|1000|1000
;   filamentDensities,1.25|1.25|1.25|1.25|1.25|1.25
;   useMinPrintHeight,0
;   minPrintHeight,0.3
;   useMaxPrintHeight,0
;   maxPrintHeight,15
;   useDiaphragm,0
;   diaphragmLayerInterval,20
;   robustSlicing,1
;   mergeAllIntoSolid,0
;   onlyRetractWhenCrossingOutline,0
;   retractBetweenLayers,0
;   useRetractionMinTravel,0
;   retractionMinTravel,3
;   retractWhileWiping,0
;   onlyWipeOutlines,1
;   avoidCrossingOutline,1
;   maxMovementDetourFactor,3
;   toolChangeRetractionDistance,0
;   toolChangeExtraRestartDistance,0
;   toolChangeRetractionSpeed,360
;   externalThinWallType,0
;   internalThinWallType,2
;   thinWallAllowedOverlapPercentage,10
;   singleExtrusionMinLength,1
;   singleExtrusionMinPrintingWidthPercentage,50
;   singleExtrusionMaxPrintingWidthPercentage,200
;   singleExtrusionEndpointExtension,0.2
;   horizontalSizeCompensation,0
G90
M83
M106 S255
M140 S55
M190 S55
M104 S250 T0
M109 S250 T0
G28
G92 E0.0
; process PProp
; layer 1, Z = 0.270
T0
; feature skirt
; tool H0.270 W0.420
G1 Z0.270 F1002
G1 X27.334 Y58.223 F7800
G1 E0.1200 F1800
G1 X29.070 Y58.222 E0.0368 F1251
G1 X30.097 Y59.053 E0.0280
G1 X30.189 Y58.864 E0.0045
G1 X30.324 Y58.646 E0.0054
G1 X30.881 Y57.931 E0.0192
G1 X31.059 Y57.746 E0.0054
G1 X31.728 Y57.183 E0.0185
G1 X31.884 Y57.071 E0.0041
G1 X32.328 Y56.803 E0.0110
G1 X32.500 Y56.717 E0.0041
G1 X33.309 Y56.388 E0.0185
G1 X33.556 Y56.317 E0.0054
G1 X34.417 Y56.164 E0.0185
G1 X34.608 Y56.145 E0.0041
G1 X35.126 Y56.135 E0.0110
G1 X35.318 Y56.147 E0.0041
G1 X36.184 Y56.267 E0.0185
G1 X36.433 Y56.328 E0.0054
G1 X37.285 Y56.637 E0.0192
G1 X37.516 Y56.749 E0.0054
G1 X38.285 Y57.228 E0.0192
G1 X38.488 Y57.386 E0.0054
G1 X39.141 Y58.014 E0.0192
G1 X39.306 Y58.210 E0.0054
G1 X39.814 Y58.961 E0.0192
G1 X39.935 Y59.187 E0.0054
G1 X40.276 Y60.027 E0.0192
G1 X40.347 Y60.274 E0.0054
G1 X40.506 Y61.166 E0.0192
G1 X40.525 Y61.422 E0.0054
G1 X40.494 Y62.327 E0.0192
G1 X40.459 Y62.582 E0.0054
G1 X40.241 Y63.461 E0.0192
G1 X40.154 Y63.703 E0.0054
G1 X39.758 Y64.518 E0.0192
G1 X39.622 Y64.736 E0.0054
G1 X39.066 Y65.451 E0.0192
G1 X38.999 Y65.521 E0.0020
G1 X39.619 Y65.916 E0.0156
G1 X42.473 Y67.491 E0.0692
G1 X44.899 Y68.634 E0.0569
G1 X47.349 Y69.590 E0.0558
G1 X49.442 Y70.225 E0.0464
G1 X51.136 Y70.572 E0.0367
G1 X52.632 Y70.719 E0.0319
G1 X53.936 Y70.705 E0.0277
G1 X55.029 Y70.577 E0.0233
G1 X56.118 Y70.333 E0.0237
G1 X57.152 Y69.988 E0.0231
G1 X57.733 Y69.708 E0.0137
G1 X58.201 Y69.460 E0.0112
G1 X59.107 Y68.855 E0.0231
G1 X59.892 Y68.130 E0.0227
G1 X60.212 Y67.767 E0.0103
G1 X60.595 Y67.279 E0.0132
G1 X61.011 Y66.585 E0.0172
G1 X61.216 Y66.193 E0.0094
G1 X61.657 Y65.202 E0.0230
G1 X62.015 Y64.128 E0.0240
G1 X62.287 Y62.883 E0.0270
G1 X62.450 Y61.389 E0.0319
G1 X62.457 Y59.670 E0.0365
G1 X62.264 Y57.498 E0.0462
G1 X61.832 Y54.910 E0.0557
G1 X61.211 Y52.305 E0.0568
G1 X60.255 Y49.190 E0.0691
G1 X59.978 Y48.456 E0.0167
G1 X59.647 Y48.663 E0.0083
G1 X59.476 Y48.753 E0.0041
G1 X59.000 Y48.956 E0.0110
G1 X58.817 Y49.017 E0.0041
G1 X57.969 Y49.230 E0.0186
G1 X57.715 Y49.266 E0.0054
G1 X56.808 Y49.300 E0.0192
G1 X56.552 Y49.282 E0.0054
G1 X55.659 Y49.126 E0.0192
G1 X55.412 Y49.056 E0.0054
G1 X54.570 Y48.718 E0.0192
G1 X54.343 Y48.597 E0.0054
G1 X53.590 Y48.091 E0.0192
G1 X53.393 Y47.927 E0.0054
G1 X52.762 Y47.275 E0.0192
G1 X52.604 Y47.073 E0.0054
G1 X52.122 Y46.305 E0.0192
G1 X52.009 Y46.074 E0.0054
G1 X51.697 Y45.223 E0.0192
G1 X51.635 Y44.974 E0.0054
G1 X51.511 Y44.108 E0.0186
G1 X51.499 Y43.915 E0.0041
G1 X51.508 Y43.397 E0.0110
G1 X51.526 Y43.206 E0.0041
G1 X51.676 Y42.344 E0.0186
G1 X51.746 Y42.097 E0.0054
G1 X52.085 Y41.255 E0.0192
G1 X52.205 Y41.028 E0.0054
G1 X52.711 Y40.276 E0.0192
G1 X52.876 Y40.079 E0.0054
G1 X53.527 Y39.447 E0.0192
G1 X53.729 Y39.289 E0.0054
G1 X54.497 Y38.807 E0.0192
G1 X54.728 Y38.694 E0.0054
G1 X55.469 Y38.423 E0.0168
G1 X54.871 Y37.255 E0.0278
G1 X55.227 Y35.557 E0.0368
G1 X59.176 Y32.343 E0.1080
G1 X61.463 Y32.823 E0.0496
G1 X63.076 Y35.968 E0.0750
G1 X63.090 Y35.997 E0.0007
G1 X64.573 Y39.088 E0.0727
G1 X64.589 Y39.123 E0.0008
G1 X65.937 Y42.178 E0.0708
G1 X65.957 Y42.226 E0.0011
G1 X67.278 Y45.595 E0.0768
G1 X67.299 Y45.654 E0.0013
G1 X68.346 Y48.791 E0.0702
G1 X68.370 Y48.872 E0.0018
G1 X69.200 Y52.074 E0.0702
G1 X69.218 Y52.155 E0.0018
G1 X69.793 Y55.221 E0.0662
G1 X69.806 Y55.307 E0.0018
G1 X70.135 Y58.172 E0.0612
G1 X70.142 Y58.270 E0.0021
G1 X70.233 Y60.875 E0.0553
G1 X70.231 Y60.995 E0.0025
G1 X70.088 Y63.273 E0.0484
G1 X70.073 Y63.401 E0.0027
G1 X69.736 Y65.381 E0.0426
G1 X69.708 Y65.506 E0.0027
G1 X69.225 Y67.228 E0.0379
G1 X69.184 Y67.349 E0.0027
G1 X68.550 Y68.947 E0.0365
G1 X68.502 Y69.053 E0.0025
G1 X67.748 Y70.527 E0.0351
G1 X67.695 Y70.621 E0.0023
G1 X66.907 Y71.875 E0.0314
G1 X66.829 Y71.985 E0.0029
G1 X66.029 Y72.994 E0.0273
G1 X65.972 Y73.060 E0.0018
G1 X65.385 Y73.700 E0.0184
G1 X65.301 Y73.784 E0.0025
G1 X63.950 Y74.997 E0.0385
G1 X63.819 Y75.099 E0.0035
G1 X62.486 Y76.005 E0.0342
G1 X62.395 Y76.061 E0.0023
G1 X61.635 Y76.486 E0.0185
G1 X61.579 Y76.516 E0.0013
G1 X60.441 Y77.077 E0.0269
G1 X60.326 Y77.127 E0.0027
G1 X58.994 Y77.621 E0.0301
G1 X58.891 Y77.655 E0.0023
G1 X57.359 Y78.074 E0.0337
G1 X57.244 Y78.100 E0.0025
G1 X55.583 Y78.386 E0.0358
G1 X55.456 Y78.402 E0.0027
G1 X53.682 Y78.520 E0.0377
G1 X53.553 Y78.522 E0.0027
G1 X51.543 Y78.445 E0.0427
G1 X51.415 Y78.434 E0.0027
G1 X49.147 Y78.106 E0.0486
G1 X49.031 Y78.083 E0.0025
G1 X46.592 Y77.487 E0.0533
G1 X46.500 Y77.460 E0.0020
G1 X43.657 Y76.523 E0.0635
G1 X43.574 Y76.492 E0.0019
G1 X40.798 Y75.347 E0.0637
G1 X40.721 Y75.312 E0.0018
G1 X37.526 Y73.727 E0.0757
G1 X37.451 Y73.687 E0.0018
G1 X34.597 Y72.016 E0.0702
G1 X34.543 Y71.982 E0.0014
G1 X31.630 Y70.067 E0.0740
G1 X31.588 Y70.039 E0.0011
G1 X28.786 Y68.028 E0.0732
G1 X28.754 Y68.004 E0.0009
G1 X26.032 Y65.911 E0.0728
G1 X26.007 Y65.891 E0.0007
G1 X23.384 Y63.765 E0.0716
G1 X23.383 Y61.430 E0.0495
G1 X27.334 Y58.223 E0.1080
G1 X27.483 Y58.643 F7800
G1 E0.1200 F1800
G1 X28.922 Y58.642 E0.0305 F1251
G1 X30.244 Y59.712 E0.0361
G1 X30.557 Y59.067 E0.0152
G1 X30.669 Y58.886 E0.0045
G1 X31.199 Y58.206 E0.0183
G1 X31.347 Y58.053 E0.0045
G1 X31.986 Y57.515 E0.0177
G1 X32.115 Y57.422 E0.0034
G1 X32.530 Y57.171 E0.0103
G1 X32.673 Y57.100 E0.0034
G1 X33.447 Y56.786 E0.0177
G1 X33.651 Y56.727 E0.0045
G1 X34.474 Y56.580 E0.0177
G1 X34.633 Y56.565 E0.0034
G1 X35.117 Y56.555 E0.0103
G1 X35.277 Y56.565 E0.0034
G1 X36.104 Y56.680 E0.0177
G1 X36.311 Y56.731 E0.0045
G1 X37.121 Y57.024 E0.0183
G1 X37.313 Y57.117 E0.0045
G1 X38.045 Y57.573 E0.0183
G1 X38.213 Y57.703 E0.0045
G1 X38.834 Y58.301 E0.0183
G1 X38.971 Y58.464 E0.0045
G1 X39.454 Y59.178 E0.0183
G1 X39.554 Y59.366 E0.0045
G1 X39.879 Y60.164 E0.0183
G1 X39.938 Y60.369 E0.0045
G1 X40.089 Y61.218 E0.0183
G1 X40.104 Y61.430 E0.0045
G1 X40.075 Y62.292 E0.0183
G1 X40.046 Y62.502 E0.0045
G1 X39.839 Y63.339 E0.0183
G1 X39.767 Y63.539 E0.0045
G1 X39.390 Y64.315 E0.0183
G1 X39.278 Y64.495 E0.0045
G1 X38.748 Y65.176 E0.0183
G1 X38.600 Y65.329 E0.0045
G1 X38.306 Y65.577 E0.0082
G1 X39.404 Y66.277 E0.0276
G1 X42.282 Y67.865 E0.0697
G1 X44.733 Y69.020 E0.0575
G1 X47.212 Y69.987 E0.0564
G1 X49.339 Y70.632 E0.0472
G1 X51.073 Y70.988 E0.0375
G1 X52.614 Y71.140 E0.0329
G1 X53.963 Y71.125 E0.0286
G1 X55.099 Y70.992 E0.0243
G1 X56.231 Y70.739 E0.0246
G1 X57.310 Y70.378 E0.0241
G1 X57.923 Y70.083 E0.0144
G1 X58.416 Y69.821 E0.0118
G1 X59.368 Y69.186 E0.0243
G1 X60.193 Y68.424 E0.0238
G1 X60.535 Y68.036 E0.0110
G1 X60.941 Y67.518 E0.0140
G1 X61.377 Y66.791 E0.0180
G1 X61.594 Y66.376 E0.0099
G1 X62.049 Y65.354 E0.0237
G1 X62.421 Y64.240 E0.0249
G1 X62.702 Y62.950 E0.0280
G1 X62.870 Y61.413 E0.0328
G1 X62.877 Y59.652 E0.0374
G1 X62.681 Y57.445 E0.0470
G1 X62.243 Y54.827 E0.0563
G1 X61.617 Y52.194 E0.0574
G1 X60.653 Y49.054 E0.0697
G1 X60.188 Y47.822 E0.0279
G1 X60.146 Y47.854 E0.0011
G1 X59.438 Y48.299 E0.0177
G1 X59.296 Y48.373 E0.0034
G1 X58.850 Y48.563 E0.0103
G1 X58.699 Y48.614 E0.0034
G1 X57.888 Y48.818 E0.0177
G1 X57.677 Y48.847 E0.0045
G1 X56.815 Y48.879 E0.0183
G1 X56.603 Y48.865 E0.0045
G1 X55.753 Y48.716 E0.0183
G1 X55.548 Y48.658 E0.0045
G1 X54.747 Y48.336 E0.0183
G1 X54.559 Y48.236 E0.0045
G1 X53.843 Y47.755 E0.0183
G1 X53.680 Y47.619 E0.0045
G1 X53.079 Y46.999 E0.0183
G1 X52.948 Y46.831 E0.0045
G1 X52.489 Y46.100 E0.0183
G1 X52.396 Y45.909 E0.0045
G1 X52.099 Y45.099 E0.0183
G1 X52.047 Y44.893 E0.0045
G1 X51.930 Y44.065 E0.0177
G1 X51.920 Y43.905 E0.0034
G1 X51.927 Y43.420 E0.0103
G1 X51.942 Y43.262 E0.0034
G1 X52.086 Y42.438 E0.0177
G1 X52.144 Y42.233 E0.0045
G1 X52.466 Y41.432 E0.0183
G1 X52.566 Y41.244 E0.0045
G1 X53.047 Y40.528 E0.0183
G1 X53.184 Y40.365 E0.0045
G1 X53.803 Y39.764 E0.0183
G1 X53.971 Y39.633 E0.0045
G1 X54.702 Y39.175 E0.0183
G1 X54.893 Y39.081 E0.0045
G1 X55.678 Y38.794 E0.0177
G1 X55.832 Y38.751 E0.0034
G1 X56.084 Y38.701 E0.0055
G1 X55.312 Y37.195 E0.0359
G1 X55.608 Y35.789 E0.0305
G1 X59.286 Y32.795 E0.1006
G1 X61.181 Y33.193 E0.0411
G1 X62.701 Y36.157 E0.0707
G1 X62.712 Y36.181 E0.0006
G1 X64.193 Y39.267 E0.0726
G1 X64.206 Y39.296 E0.0007
G1 X65.551 Y42.344 E0.0707
G1 X65.568 Y42.383 E0.0009
G1 X66.885 Y45.743 E0.0766
G1 X66.903 Y45.792 E0.0011
G1 X67.945 Y48.917 E0.0699
G1 X67.965 Y48.984 E0.0015
G1 X68.792 Y52.172 E0.0699
G1 X68.807 Y52.240 E0.0015
G1 X69.379 Y55.291 E0.0659
G1 X69.390 Y55.362 E0.0015
G1 X69.717 Y58.212 E0.0609
G1 X69.723 Y58.293 E0.0017
G1 X69.813 Y60.880 E0.0549
G1 X69.811 Y60.979 E0.0021
G1 X69.669 Y63.235 E0.0480
G1 X69.657 Y63.342 E0.0023
G1 X69.324 Y65.299 E0.0421
G1 X69.300 Y65.403 E0.0023
G1 X68.824 Y67.104 E0.0375
G1 X68.790 Y67.205 E0.0023
G1 X68.163 Y68.783 E0.0360
G1 X68.124 Y68.871 E0.0020
G1 X67.379 Y70.328 E0.0347
G1 X67.334 Y70.406 E0.0019
G1 X66.557 Y71.642 E0.0310
G1 X66.493 Y71.733 E0.0024
G1 X65.704 Y72.727 E0.0269
G1 X65.657 Y72.781 E0.0015
G1 X65.083 Y73.409 E0.0181
G1 X65.012 Y73.479 E0.0021
G1 X63.680 Y74.675 E0.0380
G1 X63.572 Y74.760 E0.0029
G1 X62.257 Y75.653 E0.0337
G1 X62.182 Y75.699 E0.0019
G1 X61.434 Y76.117 E0.0182
G1 X61.388 Y76.142 E0.0011
G1 X60.265 Y76.695 E0.0266
G1 X60.169 Y76.737 E0.0022
G1 X58.856 Y77.224 E0.0297
G1 X58.771 Y77.252 E0.0019
G1 X57.258 Y77.666 E0.0333
G1 X57.162 Y77.687 E0.0021
G1 X55.522 Y77.971 E0.0353
G1 X55.417 Y77.983 E0.0022
G1 X53.665 Y78.100 E0.0373
G1 X53.558 Y78.102 E0.0023
G1 X51.570 Y78.026 E0.0422
G1 X51.464 Y78.016 E0.0023
G1 X49.217 Y77.692 E0.0482
G1 X49.121 Y77.673 E0.0021
G1 X46.700 Y77.081 E0.0529
G1 X46.624 Y77.059 E0.0017
G1 X43.796 Y76.126 E0.0632
G1 X43.727 Y76.101 E0.0016
G1 X40.965 Y74.961 E0.0634
G1 X40.901 Y74.932 E0.0015
G1 X37.719 Y73.354 E0.0754
G1 X37.657 Y73.321 E0.0015
G1 X34.814 Y71.656 E0.0699
G1 X34.769 Y71.628 E0.0011
G1 X31.864 Y69.718 E0.0738
G1 X31.830 Y69.695 E0.0009
G1 X29.034 Y67.689 E0.0730
G1 X29.007 Y67.669 E0.0007
G1 X26.290 Y65.579 E0.0727
G1 X26.270 Y65.563 E0.0005
G1 X23.803 Y63.565 E0.0673
