; G-Code generated by Simplify3D(R) Version 4.1.2
; Sep 24, 2022 at 2:38:01 PM
; Settings Summary
;   processName,PProp
;   applyToModels,Elevator-L
;   profileName,PProp - LW-PLA
;   profileVersion,2022-05-27 11:45:37
;   baseProfile,Default
;   printMaterial,
;   printQuality,
;   printExtruders,
;   extruderName,Primary Extruder
;   extruderToolheadNumber,0
;   extruderDiameter,0.4
;   extruderAutoWidth,0
;   extruderWidth,0.42
;   extrusionMultiplier,0.45
;   extruderUseRetract,1
;   extruderRetractionDistance,0
;   extruderExtraRestartDistance,0.12
;   extruderRetractionZLift,0
;   extruderRetractionSpeed,1800
;   extruderUseCoasting,1
;   extruderCoastingDistance,0.2
;   extruderUseWipe,1
;   extruderWipeDistance,2
;   primaryExtruder,0
;   layerHeight,0.3
;   topSolidLayers,0
;   bottomSolidLayers,0
;   perimeterOutlines,1
;   printPerimetersInsideOut,1
;   startPointOption,2
;   startPointOriginX,0
;   startPointOriginY,-100
;   sequentialIslands,0
;   spiralVaseMode,1
;   firstLayerHeightPercentage,90
;   firstLayerWidthPercentage,100
;   firstLayerUnderspeed,0.5
;   useRaft,0
;   raftExtruder,0
;   raftTopLayers,3
;   raftBaseLayers,2
;   raftOffset,3
;   raftSeparationDistance,0.14
;   raftTopInfill,100
;   aboveRaftSpeedMultiplier,0.3
;   useSkirt,1
;   skirtExtruder,0
;   skirtLayers,1
;   skirtOutlines,3
;   skirtOffset,1.4
;   usePrimePillar,0
;   primePillarExtruder,999
;   primePillarWidth,12
;   primePillarLocation,7
;   primePillarSpeedMultiplier,1
;   useOozeShield,0
;   oozeShieldExtruder,999
;   oozeShieldOffset,2
;   oozeShieldOutlines,1
;   oozeShieldSidewallShape,1
;   oozeShieldSidewallAngle,30
;   oozeShieldSpeedMultiplier,1
;   infillExtruder,0
;   internalInfillPattern,Rectilinear
;   externalInfillPattern,Rectilinear
;   infillPercentage,0
;   outlineOverlapPercentage,15
;   infillExtrusionWidthPercentage,100
;   minInfillLength,5
;   infillLayerInterval,1
;   internalInfillAngles,45,-45
;   overlapInternalInfillAngles,0
;   externalInfillAngles,45,-45
;   generateSupport,0
;   supportExtruder,0
;   supportInfillPercentage,30
;   supportExtraInflation,0
;   supportBaseLayers,0
;   denseSupportExtruder,0
;   denseSupportLayers,0
;   denseSupportInfillPercentage,70
;   supportLayerInterval,1
;   supportHorizontalPartOffset,0.3
;   supportUpperSeparationLayers,1
;   supportLowerSeparationLayers,1
;   supportType,0
;   supportGridSpacing,4
;   maxOverhangAngle,45
;   supportAngles,0
;   temperatureName,Primary Extruder,Heated Bed
;   temperatureNumber,0,1
;   temperatureSetpointCount,1,1
;   temperatureSetpointLayers,1,1
;   temperatureSetpointTemperatures,250,55
;   temperatureStabilizeAtStartup,1,1
;   temperatureHeatedBed,0,1
;   fanLayers,1
;   fanSpeeds,100
;   blipFanToFullPower,1
;   adjustSpeedForCooling,0
;   minSpeedLayerTime,15
;   minCoolingSpeedSlowdown,80
;   increaseFanForCooling,0
;   minFanLayerTime,20
;   maxCoolingFanSpeed,100
;   increaseFanForBridging,0
;   bridgingFanSpeed,100
;   use5D,1
;   relativeEdistances,1
;   allowEaxisZeroing,1
;   independentExtruderAxes,0
;   includeM10123,0
;   stickySupport,1
;   applyToolheadOffsets,0
;   gcodeXoffset,0
;   gcodeYoffset,0
;   gcodeZoffset,0
;   overrideMachineDefinition,1
;   machineTypeOverride,0
;   strokeXoverride,200
;   strokeYoverride,200
;   strokeZoverride,200
;   originOffsetXoverride,0
;   originOffsetYoverride,0
;   originOffsetZoverride,0
;   homeXdirOverride,-1
;   homeYdirOverride,-1
;   homeZdirOverride,-1
;   flipXoverride,1
;   flipYoverride,-1
;   flipZoverride,1
;   toolheadOffsets,0,0|0,0|0,0|0,0|0,0|0,0
;   overrideFirmwareConfiguration,1
;   firmwareTypeOverride,RepRap (Marlin/Repetier/Sprinter)
;   GPXconfigOverride,r2
;   baudRateOverride,115200
;   overridePrinterModels,0
;   printerModelsOverride
;   startingGcode,G28,G92 E0.0
;   layerChangeGcode,
;   retractionGcode,
;   toolChangeGcode,
;   endingGcode,M104 S0 ; turn off extruder,M140 S0 ; turn off bed,G28 X0 ; home X axis,M84 ; disable motors,M107 ; turn off fan
;   exportFileFormat,gcode
;   celebration,0
;   celebrationSong,Take On Me
;   postProcessing,
;   defaultSpeed,2502
;   outlineUnderspeed,0.9
;   solidInfillUnderspeed,0.8
;   supportUnderspeed,0.8
;   rapidXYspeed,7800
;   rapidZspeed,1002
;   minBridgingArea,5
;   bridgingExtraInflation,0
;   bridgingExtrusionMultiplier,1
;   bridgingSpeedMultiplier,0.3
;   useFixedBridgingAngle,0
;   fixedBridgingAngle,0
;   applyBridgingToPerimeters,0
;   filamentDiameters,1.75|1.75|1.75|1.75|1.75|1.75
;   filamentPricesPerKg,1000|1000|1000|1000|1000|1000
;   filamentDensities,1.25|1.25|1.25|1.25|1.25|1.25
;   useMinPrintHeight,0
;   minPrintHeight,0.3
;   useMaxPrintHeight,0
;   maxPrintHeight,15
;   useDiaphragm,0
;   diaphragmLayerInterval,20
;   robustSlicing,1
;   mergeAllIntoSolid,0
;   onlyRetractWhenCrossingOutline,0
;   retractBetweenLayers,0
;   useRetractionMinTravel,0
;   retractionMinTravel,3
;   retractWhileWiping,0
;   onlyWipeOutlines,1
;   avoidCrossingOutline,1
;   maxMovementDetourFactor,3
;   toolChangeRetractionDistance,0
;   toolChangeExtraRestartDistance,0
;   toolChangeRetractionSpeed,360
;   externalThinWallType,0
;   internalThinWallType,2
;   thinWallAllowedOverlapPercentage,10
;   singleExtrusionMinLength,1
;   singleExtrusionMinPrintingWidthPercentage,50
;   singleExtrusionMaxPrintingWidthPercentage,200
;   singleExtrusionEndpointExtension,0.2
;   horizontalSizeCompensation,0
G90
M83
M106 S255
M140 S55
M190 S55
M104 S250 T0
M109 S250 T0
G28
G92 E0.0
; process PProp
; layer 1, Z = 0.270
T0
; feature skirt
; tool H0.270 W0.420
G1 Z0.270 F1002
G1 X29.768 Y27.698 F7800
G1 E0.1200 F1800
G1 X30.736 Y27.292 E0.0223 F1251
G1 X31.026 Y27.211 E0.0064
G1 X31.412 Y27.151 E0.0083
G1 X32.861 Y26.742 E0.0320
G1 X33.052 Y26.704 E0.0041
G1 X34.519 Y26.532 E0.0313
G1 X35.697 Y27.020 E0.0271
G1 X37.024 Y28.699 E0.0454
G1 X37.052 Y28.736 E0.0010
G1 X38.324 Y30.476 E0.0457
G1 X38.576 Y30.516 E0.0054
G1 X39.388 Y31.806 E0.0323
G1 X43.583 Y37.352 E0.1475
G1 X43.590 Y37.361 E0.0003
G1 X46.502 Y41.291 E0.1038
G1 X46.509 Y41.300 E0.0003
G1 X51.892 Y48.713 E0.1944
G1 X51.901 Y48.726 E0.0003
G1 X54.465 Y52.356 E0.0943
G1 X54.481 Y52.379 E0.0006
G1 X56.937 Y56.031 E0.0934
G1 X56.964 Y56.072 E0.0010
G1 X60.079 Y61.131 E0.1260
G1 X56.793 Y63.847 E0.0905
G1 X52.664 Y60.066 E0.1188
G1 X52.622 Y60.026 E0.0013
G1 X49.530 Y56.907 E0.0932
G1 X49.513 Y56.890 E0.0005
G1 X46.430 Y53.659 E0.0948
G1 X46.416 Y53.645 E0.0004
G1 X40.220 Y46.940 E0.1937
G1 X40.211 Y46.931 E0.0003
G1 X36.933 Y43.310 E0.1036
G1 X36.924 Y43.299 E0.0003
G1 X28.081 Y33.311 E0.2830
G1 X27.824 Y32.009 E0.0282
G1 X29.054 Y28.460 E0.0797
G1 X29.768 Y27.698 E0.0222
G1 X30.013 Y28.051 F7800
G1 E0.1200 F1800
G1 X30.875 Y27.690 E0.0198 F1251
G1 X31.115 Y27.622 E0.0053
G1 X31.501 Y27.563 E0.0083
G1 X32.960 Y27.150 E0.0322
G1 X33.118 Y27.119 E0.0034
G1 X34.459 Y26.962 E0.0286
G1 X35.435 Y27.366 E0.0224
G1 X36.692 Y28.957 E0.0430
G1 X36.715 Y28.987 E0.0008
G1 X37.959 Y30.688 E0.0447
G1 X37.939 Y30.838 E0.0032
G1 X38.321 Y30.901 E0.0082
G1 X39.042 Y32.045 E0.0287
G1 X43.247 Y37.604 E0.1479
G1 X43.253 Y37.612 E0.0002
G1 X46.164 Y41.540 E0.1037
G1 X46.170 Y41.548 E0.0002
G1 X51.551 Y48.959 E0.1943
G1 X51.559 Y48.970 E0.0003
G1 X54.120 Y52.596 E0.0942
G1 X54.133 Y52.615 E0.0005
G1 X56.586 Y56.262 E0.0932
G1 X56.608 Y56.296 E0.0009
G1 X59.530 Y61.040 E0.1182
G1 X56.807 Y63.290 E0.0749
G1 X52.952 Y59.760 E0.1109
G1 X52.916 Y59.726 E0.0010
G1 X49.829 Y56.613 E0.0930
G1 X49.816 Y56.599 E0.0004
G1 X46.735 Y53.371 E0.0947
G1 X46.723 Y53.359 E0.0003
G1 X40.529 Y46.656 E0.1936
G1 X40.522 Y46.648 E0.0002
G1 X37.245 Y43.028 E0.1036
G1 X37.237 Y43.020 E0.0002
G1 X28.471 Y33.118 E0.2806
G1 X28.258 Y32.039 E0.0233
G1 X29.421 Y28.682 E0.0754
G1 X30.013 Y28.051 E0.0184
G1 X30.258 Y28.404 F7800
G1 E0.1200 F1800
G1 X31.014 Y28.087 E0.0174 F1251
G1 X31.204 Y28.033 E0.0042
G1 X31.590 Y27.974 E0.0083
G1 X33.058 Y27.559 E0.0324
G1 X33.183 Y27.534 E0.0027
G1 X34.399 Y27.392 E0.0260
G1 X35.174 Y27.712 E0.0178
G1 X36.360 Y29.214 E0.0406
G1 X36.379 Y29.238 E0.0006
G1 X37.521 Y30.800 E0.0411
G1 X37.470 Y31.188 E0.0083
G1 X38.067 Y31.285 E0.0128
G1 X38.697 Y32.284 E0.0251
G1 X42.911 Y37.857 E0.1482
G1 X42.916 Y37.863 E0.0002
G1 X45.826 Y41.789 E0.1037
G1 X45.830 Y41.796 E0.0002
G1 X51.211 Y49.204 E0.1943
G1 X51.217 Y49.213 E0.0002
G1 X53.776 Y52.837 E0.0941
G1 X53.786 Y52.852 E0.0004
G1 X56.235 Y56.493 E0.0931
G1 X56.253 Y56.520 E0.0007
G1 X58.980 Y60.949 E0.1104
G1 X56.821 Y62.734 E0.0594
G1 X53.239 Y59.454 E0.1030
G1 X53.211 Y59.427 E0.0008
G1 X50.129 Y56.319 E0.0929
G1 X50.118 Y56.308 E0.0003
G1 X47.040 Y53.082 E0.0946
G1 X47.031 Y53.073 E0.0003
G1 X40.838 Y46.372 E0.1936
G1 X40.833 Y46.366 E0.0002
G1 X37.557 Y42.747 E0.1036
G1 X37.551 Y42.741 E0.0002
G1 X28.861 Y32.925 E0.2781
G1 X28.692 Y32.069 E0.0185
G1 X29.789 Y28.904 E0.0711
G1 X30.258 Y28.404 E0.0146
; feature outer perimeter
G1 X31.365 Y29.913 F7800
G1 E0.1200 F1800
G1 X31.603 Y29.813 E0.0055 F1126
G1 X31.977 Y29.756 E0.0080
G1 X33.479 Y29.331 E0.0331
G1 X33.904 Y29.269 E0.0091
G1 X34.074 Y29.257 E0.0036
G1 X34.921 Y30.328 E0.0290
G1 X35.553 Y31.192 E0.0227
G1 X33.345 Y32.971 E0.0601
G1 X34.868 Y34.851 E0.0513
G1 X37.041 Y33.071 E0.0596
G1 X37.198 Y33.320 E0.0063
G1 X41.457 Y38.950 E0.1498
G1 X44.361 Y42.869 E0.1035
G1 X47.179 Y46.720 E0.1012
G1 X49.734 Y50.268 E0.0928
G1 X52.283 Y53.877 E0.0937
G1 X54.714 Y57.492 E0.0924
G1 X55.907 Y59.429 E0.0483
G1 X54.486 Y58.128 E0.0409
G1 X51.428 Y55.044 E0.0921
G1 X48.362 Y51.831 E0.0942
G1 X45.388 Y48.636 E0.0926
G1 X42.179 Y45.141 E0.1007
G1 X38.910 Y41.530 E0.1034
G1 X35.291 Y37.470 E0.1154
G1 X30.594 Y32.138 E0.1508
G1 X31.300 Y30.102 E0.0457
G1 X31.365 Y29.913 F1126
G1 X31.603 Y29.813 F1126
G1 X31.977 Y29.756
G1 X33.290 Y29.385
; layer 2, Z = 0.570
; tool H0.300 W0.420
G1 X33.478 Y29.332 F7800
G1 X33.903 Y29.269 Z0.272 E0.0051 F2252
G1 X34.074 Y29.257 Z0.272 E0.0020
G1 X34.920 Y30.328 Z0.277 E0.0165
G1 X35.554 Y31.194 Z0.281 E0.0131
G1 X33.346 Y32.973 Z0.291 E0.0357
G1 X34.869 Y34.853 Z0.299 E0.0313
G1 X37.042 Y33.073 Z0.309 E0.0374
G1 X37.198 Y33.321 Z0.310 E0.0039
G1 X41.456 Y38.951 Z0.335 E0.1012
G1 X44.360 Y42.869 Z0.352 E0.0732
G1 X47.178 Y46.720 Z0.369 E0.0748
G1 X49.733 Y50.268 Z0.384 E0.0711
G1 X52.282 Y53.878 Z0.400 E0.0746
G1 X54.713 Y57.493 Z0.415 E0.0762
G1 X55.907 Y59.430 Z0.423 E0.0405
G1 X54.485 Y58.129 Z0.430 E0.0348
G1 X51.427 Y55.044 Z0.445 E0.0811
G1 X48.361 Y51.832 Z0.461 E0.0856
G1 X45.388 Y48.636 Z0.476 E0.0868
G1 X42.178 Y45.142 Z0.493 E0.0974
G1 X38.909 Y41.530 Z0.510 E0.1033
G1 X35.290 Y37.470 Z0.529 E0.1195
G1 X30.594 Y32.138 Z0.554 E0.1630
G1 X31.365 Y29.914 Z0.562 E0.0548
G1 X31.603 Y29.814 Z0.563 E0.0060
G1 X31.977 Y29.756 Z0.565 E0.0088
G1 X33.478 Y29.332 Z0.570 E0.0368
; layer 3, Z = 0.870
G1 X33.903 Y29.269 Z0.572 E0.0101 F2252
G1 X34.073 Y29.257 Z0.572 E0.0040
G1 X34.920 Y30.329 Z0.577 E0.0322
G1 X35.554 Y31.196 Z0.581 E0.0253
G1 X34.029 Y32.426 Z0.588 E0.0462
G1 X33.347 Y32.976 Z0.591 E0.0207
G1 X34.870 Y34.856 Z0.599 E0.0570
G1 X37.042 Y33.075 Z0.609 E0.0662
G1 X37.197 Y33.321 Z0.610 E0.0068
G1 X41.455 Y38.951 Z0.635 E0.1664
G1 X44.360 Y42.871 Z0.652 E0.1150
G1 X47.177 Y46.720 Z0.669 E0.1124
G1 X49.733 Y50.269 Z0.684 E0.1031
G1 X52.281 Y53.878 Z0.700 E0.1042
G1 X54.713 Y57.493 Z0.715 E0.1027
G1 X55.906 Y59.431 Z0.723 E0.0536
G1 X54.485 Y58.129 Z0.730 E0.0454
G1 X51.427 Y55.045 Z0.745 E0.1024
G1 X48.360 Y51.832 Z0.761 E0.1047
G1 X45.387 Y48.637 Z0.776 E0.1029
G1 X42.178 Y45.142 Z0.793 E0.1118
G1 X38.908 Y41.531 Z0.810 E0.1148
G1 X35.290 Y37.471 Z0.829 E0.1282
G1 X30.593 Y32.139 Z0.854 E0.1675
G1 X31.364 Y29.914 Z0.862 E0.0555
G1 X31.602 Y29.814 Z0.863 E0.0061
G1 X31.976 Y29.757 Z0.865 E0.0089
G1 X33.477 Y29.333 Z0.870 E0.0368
; layer 4, Z = 1.170
G1 X33.902 Y29.270 Z0.872 E0.0101 F2252
G1 X34.073 Y29.258 Z0.872 E0.0040
G1 X34.919 Y30.329 Z0.877 E0.0322
G1 X35.555 Y31.199 Z0.881 E0.0254
G1 X34.032 Y32.427 Z0.888 E0.0461
G1 X33.348 Y32.978 Z0.891 E0.0207
G1 X34.871 Y34.858 Z0.899 E0.0570
G1 X37.043 Y33.078 Z0.909 E0.0662
G1 X37.196 Y33.322 Z0.910 E0.0068
G1 X41.455 Y38.952 Z0.935 E0.1664
G1 X44.359 Y42.870 Z0.952 E0.1150
G1 X47.177 Y46.722 Z0.969 E0.1125
G1 X49.732 Y50.270 Z0.984 E0.1031
G1 X52.281 Y53.879 Z1.000 E0.1042
G1 X54.712 Y57.494 Z1.015 E0.1027
G1 X55.905 Y59.431 Z1.023 E0.0536
G1 X54.484 Y58.130 Z1.030 E0.0454
G1 X51.426 Y55.046 Z1.045 E0.1024
G1 X48.360 Y51.833 Z1.061 E0.1047
G1 X45.386 Y48.637 Z1.076 E0.1029
G1 X42.177 Y45.143 Z1.093 E0.1118
G1 X38.908 Y41.532 Z1.110 E0.1148
G1 X35.289 Y37.471 Z1.129 E0.1282
G1 X30.592 Y32.139 Z1.154 E0.1675
G1 X31.364 Y29.915 Z1.162 E0.0555
G1 X31.601 Y29.815 Z1.163 E0.0061
G1 X31.976 Y29.758 Z1.165 E0.0089
G1 X33.477 Y29.333 Z1.170 E0.0368
; layer 5, Z = 1.470
G1 X33.902 Y29.270 Z1.172 E0.0101 F2252
G1 X34.072 Y29.258 Z1.172 E0.0040
G1 X34.919 Y30.330 Z1.177 E0.0322
G1 X35.556 Y31.201 Z1.181 E0.0254
G1 X34.035 Y32.428 Z1.188 E0.0461
G1 X33.349 Y32.980 Z1.191 E0.0208
G1 X34.871 Y34.860 Z1.199 E0.0570
G1 X37.044 Y33.081 Z1.209 E0.0662
G1 X37.196 Y33.322 Z1.210 E0.0067
G1 X41.454 Y38.953 Z1.235 E0.1664
G1 X44.358 Y42.871 Z1.252 E0.1150
G1 X47.176 Y46.722 Z1.269 E0.1125
G1 X49.731 Y50.270 Z1.284 E0.1031
G1 X52.280 Y53.879 Z1.300 E0.1042
G1 X54.712 Y57.494 Z1.315 E0.1027
G1 X55.905 Y59.432 Z1.323 E0.0536
G1 X54.484 Y58.130 Z1.330 E0.0454
G1 X51.426 Y55.046 Z1.345 E0.1024
G1 X48.359 Y51.833 Z1.361 E0.1047
G1 X45.386 Y48.638 Z1.376 E0.1029
G1 X42.177 Y45.144 Z1.393 E0.1118
G1 X38.907 Y41.532 Z1.410 E0.1148
G1 X35.288 Y37.472 Z1.429 E0.1282
G1 X30.592 Y32.140 Z1.454 E0.1675
G1 X31.363 Y29.915 Z1.462 E0.0555
G1 X31.601 Y29.816 Z1.463 E0.0061
G1 X31.975 Y29.758 Z1.465 E0.0089
G1 X33.476 Y29.334 Z1.470 E0.0368
; layer 6, Z = 1.770
G1 X33.901 Y29.271 Z1.472 E0.0101 F2252
G1 X34.071 Y29.259 Z1.472 E0.0040
G1 X34.918 Y30.330 Z1.477 E0.0322
G1 X35.556 Y31.203 Z1.481 E0.0255
G1 X34.038 Y32.429 Z1.488 E0.0460
G1 X33.350 Y32.983 Z1.491 E0.0208
G1 X34.872 Y34.863 Z1.499 E0.0570
G1 X37.045 Y33.083 Z1.509 E0.0662
G1 X37.195 Y33.323 Z1.510 E0.0067
G1 X41.454 Y38.953 Z1.535 E0.1664
G1 X44.357 Y42.872 Z1.552 E0.1150
G1 X47.176 Y46.723 Z1.569 E0.1125
G1 X49.731 Y50.271 Z1.584 E0.1031
G1 X52.279 Y53.880 Z1.600 E0.1042
G1 X54.711 Y57.495 Z1.615 E0.1027
G1 X55.904 Y59.432 Z1.623 E0.0536
G1 X54.483 Y58.131 Z1.630 E0.0454
G1 X51.425 Y55.047 Z1.645 E0.1024
G1 X48.359 Y51.834 Z1.661 E0.1047
G1 X45.385 Y48.639 Z1.676 E0.1029
G1 X42.176 Y45.144 Z1.693 E0.1118
G1 X38.907 Y41.533 Z1.710 E0.1148
G1 X35.288 Y37.473 Z1.729 E0.1282
G1 X30.591 Y32.140 Z1.754 E0.1675
G1 X31.362 Y29.916 Z1.762 E0.0555
G1 X31.600 Y29.816 Z1.763 E0.0061
G1 X31.974 Y29.759 Z1.765 E0.0089
G1 X33.475 Y29.334 Z1.770 E0.0368
; layer 7, Z = 2.070
G1 X33.900 Y29.272 Z1.772 E0.0101 F2252
G1 X34.071 Y29.260 Z1.772 E0.0040
G1 X34.918 Y30.331 Z1.777 E0.0322
G1 X35.557 Y31.206 Z1.781 E0.0255
G1 X34.040 Y32.430 Z1.788 E0.0459
G1 X33.351 Y32.985 Z1.791 E0.0209
G1 X34.873 Y34.865 Z1.799 E0.0570
G1 X37.046 Y33.086 Z1.809 E0.0662
G1 X37.194 Y33.323 Z1.810 E0.0066
G1 X41.453 Y38.954 Z1.835 E0.1664
G1 X44.357 Y42.872 Z1.852 E0.1150
G1 X47.175 Y46.723 Z1.869 E0.1125
G1 X49.730 Y50.271 Z1.884 E0.1031
G1 X52.279 Y53.881 Z1.900 E0.1042
G1 X54.710 Y57.495 Z1.915 E0.1027
G1 X55.903 Y59.433 Z1.923 E0.0536
G1 X54.482 Y58.132 Z1.930 E0.0454
G1 X51.424 Y55.047 Z1.945 E0.1024
G1 X48.358 Y51.835 Z1.961 E0.1047
G1 X45.384 Y48.639 Z1.976 E0.1029
G1 X42.175 Y45.145 Z1.993 E0.1118
G1 X38.906 Y41.533 Z2.010 E0.1148
