; G-Code generated by Simplify3D(R) Version 4.1.2
; Sep 24, 2022 at 2:38:13 PM
; Settings Summary
;   processName,PProp
;   applyToModels,Elevator-R
;   profileName,PProp - LW-PLA
;   profileVersion,2022-05-27 11:45:37
;   baseProfile,Default
;   printMaterial,
;   printQuality,
;   printExtruders,
;   extruderName,Primary Extruder
;   extruderToolheadNumber,0
;   extruderDiameter,0.4
;   extruderAutoWidth,0
;   extruderWidth,0.42
;   extrusionMultiplier,0.45
;   extruderUseRetract,1
;   extruderRetractionDistance,0
;   extruderExtraRestartDistance,0.12
;   extruderRetractionZLift,0
;   extruderRetractionSpeed,1800
;   extruderUseCoasting,1
;   extruderCoastingDistance,0.2
;   extruderUseWipe,1
;   extruderWipeDistance,2
;   primaryExtruder,0
;   layerHeight,0.3
;   topSolidLayers,0
;   bottomSolidLayers,0
;   perimeterOutlines,1
;   printPerimetersInsideOut,1
;   startPointOption,2
;   startPointOriginX,0
;   startPointOriginY,-100
;   sequentialIslands,0
;   spiralVaseMode,1
;   firstLayerHeightPercentage,90
;   firstLayerWidthPercentage,100
;   firstLayerUnderspeed,0.5
;   useRaft,0
;   raftExtruder,0
;   raftTopLayers,3
;   raftBaseLayers,2
;   raftOffset,3
;   raftSeparationDistance,0.14
;   raftTopInfill,100
;   aboveRaftSpeedMultiplier,0.3
;   useSkirt,1
;   skirtExtruder,0
;   skirtLayers,1
;   skirtOutlines,3
;   skirtOffset,1.4
;   usePrimePillar,0
;   primePillarExtruder,999
;   primePillarWidth,12
;   primePillarLocation,7
;   primePillarSpeedMultiplier,1
;   useOozeShield,0
;   oozeShieldExtruder,999
;   oozeShieldOffset,2
;   oozeShieldOutlines,1
;   oozeShieldSidewallShape,1
;   oozeShieldSidewallAngle,30
;   oozeShieldSpeedMultiplier,1
;   infillExtruder,0
;   internalInfillPattern,Rectilinear
;   externalInfillPattern,Rectilinear
;   infillPercentage,0
;   outlineOverlapPercentage,15
;   infillExtrusionWidthPercentage,100
;   minInfillLength,5
;   infillLayerInterval,1
;   internalInfillAngles,45,-45
;   overlapInternalInfillAngles,0
;   externalInfillAngles,45,-45
;   generateSupport,0
;   supportExtruder,0
;   supportInfillPercentage,30
;   supportExtraInflation,0
;   supportBaseLayers,0
;   denseSupportExtruder,0
;   denseSupportLayers,0
;   denseSupportInfillPercentage,70
;   supportLayerInterval,1
;   supportHorizontalPartOffset,0.3
;   supportUpperSeparationLayers,1
;   supportLowerSeparationLayers,1
;   supportType,0
;   supportGridSpacing,4
;   maxOverhangAngle,45
;   supportAngles,0
;   temperatureName,Primary Extruder,Heated Bed
;   temperatureNumber,0,1
;   temperatureSetpointCount,1,1
;   temperatureSetpointLayers,1,1
;   temperatureSetpointTemperatures,250,55
;   temperatureStabilizeAtStartup,1,1
;   temperatureHeatedBed,0,1
;   fanLayers,1
;   fanSpeeds,100
;   blipFanToFullPower,1
;   adjustSpeedForCooling,0
;   minSpeedLayerTime,15
;   minCoolingSpeedSlowdown,80
;   increaseFanForCooling,0
;   minFanLayerTime,20
;   maxCoolingFanSpeed,100
;   increaseFanForBridging,0
;   bridgingFanSpeed,100
;   use5D,1
;   relativeEdistances,1
;   allowEaxisZeroing,1
;   independentExtruderAxes,0
;   includeM10123,0
;   stickySupport,1
;   applyToolheadOffsets,0
;   gcodeXoffset,0
;   gcodeYoffset,0
;   gcodeZoffset,0
;   overrideMachineDefinition,1
;   machineTypeOverride,0
;   strokeXoverride,200
;   strokeYoverride,200
;   strokeZoverride,200
;   originOffsetXoverride,0
;   originOffsetYoverride,0
;   originOffsetZoverride,0
;   homeXdirOverride,-1
;   homeYdirOverride,-1
;   homeZdirOverride,-1
;   flipXoverride,1
;   flipYoverride,-1
;   flipZoverride,1
;   toolheadOffsets,0,0|0,0|0,0|0,0|0,0|0,0
;   overrideFirmwareConfiguration,1
;   firmwareTypeOverride,RepRap (Marlin/Repetier/Sprinter)
;   GPXconfigOverride,r2
;   baudRateOverride,115200
;   overridePrinterModels,0
;   printerModelsOverride
;   startingGcode,G28,G92 E0.0
;   layerChangeGcode,
;   retractionGcode,
;   toolChangeGcode,
;   endingGcode,M104 S0 ; turn off extruder,M140 S0 ; turn off bed,G28 X0 ; home X axis,M84 ; disable motors,M107 ; turn off fan
;   exportFileFormat,gcode
;   celebration,0
;   celebrationSong,Take On Me
;   postProcessing,
;   defaultSpeed,2502
;   outlineUnderspeed,0.9
;   solidInfillUnderspeed,0.8
;   supportUnderspeed,0.8
;   rapidXYspeed,7800
;   rapidZspeed,1002
;   minBridgingArea,5
;   bridgingExtraInflation,0
;   bridgingExtrusionMultiplier,1
;   bridgingSpeedMultiplier,0.3
;   useFixedBridgingAngle,0
;   fixedBridgingAngle,0
;   applyBridgingToPerimeters,0
;   filamentDiameters,1.75|1.75|1.75|1.75|1.75|1.75
;   filamentPricesPerKg,1000|1000|1000|1000|1000|1000
;   filamentDensities,1.25|1.25|1.25|1.25|1.25|1.25
;   useMinPrintHeight,0
;   minPrintHeight,0.3
;   useMaxPrintHeight,0
;   maxPrintHeight,15
;   useDiaphragm,0
;   diaphragmLayerInterval,20
;   robustSlicing,1
;   mergeAllIntoSolid,0
;   onlyRetractWhenCrossingOutline,0
;   retractBetweenLayers,0
;   useRetractionMinTravel,0
;   retractionMinTravel,3
;   retractWhileWiping,0
;   onlyWipeOutlines,1
;   avoidCrossingOutline,1
;   maxMovementDetourFactor,3
;   toolChangeRetractionDistance,0
;   toolChangeExtraRestartDistance,0
;   toolChangeRetractionSpeed,360
;   externalThinWallType,0
;   internalThinWallType,2
;   thinWallAllowedOverlapPercentage,10
;   singleExtrusionMinLength,1
;   singleExtrusionMinPrintingWidthPercentage,50
;   singleExtrusionMaxPrintingWidthPercentage,200
;   singleExtrusionEndpointExtension,0.2
;   horizontalSizeCompensation,0
G90
M83
M106 S255
M140 S55
M190 S55
M104 S250 T0
M109 S250 T0
G28
G92 E0.0
; process PProp
; layer 1, Z = 0.270
T0
; feature skirt
; tool H0.270 W0.420
G1 Z0.270 F1002
G1 X21.400 Y18.954 F7800
G1 E0.1200 F1800
G1 X22.220 Y18.249 E0.0230 F1251
G1 X26.475 Y17.047 E0.0938
G1 X27.871 Y17.487 E0.0311
G1 X33.234 Y24.058 E0.1799
G1 X33.240 Y24.065 E0.0002
G1 X36.656 Y28.316 E0.1157
G1 X36.663 Y28.325 E0.0003
G1 X39.689 Y32.165 E0.1037
G1 X39.698 Y32.177 E0.0003
G1 X45.264 Y39.430 E0.1940
G1 X45.279 Y39.449 E0.0005
G1 X47.935 Y43.057 E0.0950
G1 X47.952 Y43.080 E0.0006
G1 X50.465 Y46.668 E0.0929
G1 X50.473 Y46.680 E0.0003
G1 X54.312 Y52.302 E0.1444
G1 X51.099 Y55.167 E0.0913
G1 X45.668 Y50.465 E0.1524
G1 X45.658 Y50.456 E0.0003
G1 X42.382 Y47.553 E0.0929
G1 X42.357 Y47.530 E0.0007
G1 X39.095 Y44.470 E0.0949
G1 X39.085 Y44.460 E0.0003
G1 X35.929 Y41.433 E0.0928
G1 X35.918 Y41.423 E0.0003
G1 X31.424 Y37.001 E0.1338
G1 X18.275 Y43.451 E0.3107
G1 X18.047 Y43.535 E0.0052
G1 X17.452 Y43.693 E0.0131
G1 X17.198 Y43.732 E0.0054
G1 X16.576 Y43.762 E0.0132
G1 X16.320 Y43.748 E0.0054
G1 X15.706 Y43.648 E0.0132
G1 X15.458 Y43.580 E0.0054
G1 X14.877 Y43.355 E0.0132
G1 X14.649 Y43.238 E0.0054
G1 X14.128 Y42.896 E0.0132
G1 X13.929 Y42.734 E0.0054
G1 X13.490 Y42.292 E0.0132
G1 X13.330 Y42.092 E0.0054
G1 X12.978 Y41.547 E0.0138
G1 X12.888 Y41.358 E0.0044
G1 X12.607 Y41.139 E0.0076
G1 X12.543 Y40.359 E0.0166
G1 X12.356 Y39.797 E0.0126
G1 X11.982 Y39.515 E0.0100
G1 X19.541 Y24.670 E0.3534
G1 X19.340 Y23.491 E0.0254
G1 X21.400 Y18.954 E0.1057
G1 X21.744 Y19.212 F7800
G1 E0.1200 F1800
G1 X22.424 Y18.628 E0.0190 F1251
G1 X26.468 Y17.485 E0.0892
G1 X27.625 Y17.850 E0.0257
G1 X32.908 Y24.322 E0.1772
G1 X32.912 Y24.328 E0.0002
G1 X36.328 Y28.578 E0.1157
G1 X36.334 Y28.586 E0.0002
G1 X39.358 Y32.423 E0.1036
G1 X39.366 Y32.434 E0.0003
G1 X44.930 Y39.684 E0.1939
G1 X44.942 Y39.700 E0.0004
G1 X47.595 Y43.304 E0.0950
G1 X47.609 Y43.323 E0.0005
G1 X50.120 Y46.908 E0.0929
G1 X50.127 Y46.918 E0.0003
G1 X53.758 Y52.234 E0.1366
G1 X51.095 Y54.608 E0.0757
G1 X45.944 Y50.148 E0.1446
G1 X45.935 Y50.140 E0.0002
G1 X42.663 Y47.241 E0.0928
G1 X42.642 Y47.221 E0.0006
G1 X39.383 Y44.164 E0.0948
G1 X39.374 Y44.156 E0.0002
G1 X36.221 Y41.131 E0.0927
G1 X36.212 Y41.122 E0.0003
G1 X31.506 Y36.492 E0.1401
G1 X18.109 Y43.064 E0.3166
G1 X17.920 Y43.135 E0.0043
G1 X17.366 Y43.281 E0.0122
G1 X17.156 Y43.313 E0.0045
G1 X16.578 Y43.341 E0.0123
G1 X16.366 Y43.329 E0.0045
G1 X15.794 Y43.237 E0.0123
G1 X15.589 Y43.181 E0.0045
G1 X15.050 Y42.971 E0.0123
G1 X14.860 Y42.874 E0.0045
G1 X14.376 Y42.557 E0.0123
G1 X14.212 Y42.423 E0.0045
G1 X13.804 Y42.012 E0.0123
G1 X13.671 Y41.846 E0.0045
G1 X13.346 Y41.342 E0.0127
G1 X13.236 Y41.111 E0.0054
G1 X13.229 Y41.091 E0.0004
G1 X13.011 Y40.921 E0.0059
G1 X12.957 Y40.274 E0.0138
G1 X12.743 Y39.628 E0.0144
G1 X12.770 Y39.583 E0.0011
G1 X12.516 Y39.391 E0.0068
G1 X19.978 Y24.737 E0.3489
G1 X19.776 Y23.547 E0.0256
G1 X21.744 Y19.212 E0.1010
G1 X22.088 Y19.470 F7800
G1 E0.1200 F1800
G1 X22.627 Y19.007 E0.0151 F1251
G1 X26.462 Y17.923 E0.0845
G1 X27.379 Y18.213 E0.0204
G1 X32.581 Y24.587 E0.1746
G1 X32.585 Y24.592 E0.0001
G1 X36.000 Y28.841 E0.1157
G1 X36.005 Y28.847 E0.0002
G1 X39.027 Y32.682 E0.1036
G1 X39.033 Y32.690 E0.0002
G1 X44.595 Y39.938 E0.1938
G1 X44.605 Y39.951 E0.0003
G1 X47.256 Y43.551 E0.0949
G1 X47.267 Y43.566 E0.0004
G1 X49.776 Y47.148 E0.0928
G1 X49.781 Y47.156 E0.0002
G1 X53.203 Y52.166 E0.1287
G1 X51.091 Y54.049 E0.0600
G1 X46.220 Y49.831 E0.1367
G1 X46.213 Y49.825 E0.0002
G1 X42.944 Y46.928 E0.0927
G1 X42.927 Y46.913 E0.0005
G1 X39.671 Y43.858 E0.0947
G1 X39.664 Y43.852 E0.0002
G1 X36.513 Y40.829 E0.0926
G1 X36.506 Y40.822 E0.0002
G1 X31.588 Y35.984 E0.1463
G1 X17.942 Y42.678 E0.3225
G1 X17.793 Y42.734 E0.0034
G1 X17.280 Y42.869 E0.0112
G1 X17.114 Y42.895 E0.0036
G1 X16.580 Y42.921 E0.0113
G1 X16.411 Y42.911 E0.0036
G1 X15.883 Y42.826 E0.0113
G1 X15.721 Y42.781 E0.0036
G1 X15.222 Y42.588 E0.0113
G1 X15.072 Y42.511 E0.0036
G1 X14.625 Y42.218 E0.0113
G1 X14.494 Y42.111 E0.0036
G1 X14.118 Y41.732 E0.0113
G1 X14.012 Y41.600 E0.0036
G1 X13.713 Y41.137 E0.0117
G1 X13.626 Y40.954 E0.0043
G1 X13.588 Y40.839 E0.0026
G1 X13.414 Y40.703 E0.0047
G1 X13.372 Y40.189 E0.0109
G1 X13.202 Y39.680 E0.0114
G1 X13.321 Y39.483 E0.0049
G1 X13.322 Y39.473 E0.0002
G1 X13.050 Y39.268 E0.0072
G1 X20.478 Y24.681 E0.3473
G1 X20.377 Y24.576 E0.0031
G1 X20.212 Y23.604 E0.0209
G1 X22.088 Y19.470 E0.0963
; feature outer perimeter
G1 X23.565 Y20.621 F7800
G1 E0.1200 F1800
G1 X26.360 Y19.843 E0.0616 F1126
G1 X31.170 Y25.735 E0.1614
G1 X34.578 Y29.977 E0.1154
G1 X37.594 Y33.805 E0.1034
G1 X40.501 Y37.561 E0.1008
G1 X43.145 Y41.037 E0.0927
G1 X45.783 Y44.620 E0.0944
G1 X48.281 Y48.187 E0.0924
G1 X49.989 Y50.687 E0.0642
G1 X47.415 Y48.459 E0.0722
G1 X44.162 Y45.576 E0.0922
G1 X40.920 Y42.535 E0.0943
G1 X37.777 Y39.520 E0.0924
G1 X34.346 Y36.164 E0.1018
G1 X31.904 Y33.740 E0.0730
G1 X31.738 Y33.905 E0.0050
G1 X17.231 Y41.000 E0.3426
G1 X16.919 Y41.082 E0.0069
G1 X16.598 Y41.098 E0.0068
G1 X16.280 Y41.046 E0.0068
G1 X15.980 Y40.930 E0.0068
G1 X15.711 Y40.754 E0.0068
G1 X15.484 Y40.525 E0.0068
G1 X15.307 Y40.250 E0.0069
G1 X15.246 Y40.112 E0.0032
G1 X15.229 Y40.048 E0.0014
G1 X15.599 Y39.988 E0.0080
G1 X15.675 Y40.149 E0.0038
G1 X15.789 Y40.310 E0.0042
G1 X15.928 Y40.451 E0.0042
G1 X16.089 Y40.565 E0.0042
G1 X16.266 Y40.651 E0.0042
G1 X16.456 Y40.706 E0.0042
G1 X16.653 Y40.727 E0.0042
G1 X16.850 Y40.715 E0.0042
G1 X17.042 Y40.670 E0.0042
G1 X17.224 Y40.594 E0.0042
G1 X17.390 Y40.487 E0.0042
G1 X17.536 Y40.354 E0.0042
G1 X17.657 Y40.198 E0.0042
G1 X17.751 Y40.024 E0.0042
G1 X17.813 Y39.837 E0.0042
G1 X17.843 Y39.642 E0.0042
G1 X17.840 Y39.452 E0.0040
G1 X17.803 Y39.251 E0.0043
G1 X17.734 Y39.066 E0.0042
G1 X17.635 Y38.895 E0.0042
G1 X17.508 Y38.743 E0.0042
G1 X17.357 Y38.616 E0.0042
G1 X17.188 Y38.515 E0.0042
G1 X17.003 Y38.445 E0.0042
G1 X16.809 Y38.406 E0.0042
G1 X16.612 Y38.401 E0.0042
G1 X16.417 Y38.430 E0.0042
G1 X16.229 Y38.491 E0.0042
G1 X16.054 Y38.583 E0.0042
G1 X15.897 Y38.703 E0.0042
G1 X15.763 Y38.848 E0.0042
G1 X15.656 Y39.013 E0.0042
G1 X15.574 Y39.202 E0.0044
G1 X15.535 Y39.440 E0.0051
G1 X15.537 Y39.562 E0.0026
G1 X15.151 Y39.625 E0.0083
G1 X15.142 Y39.517 E0.0023
G1 X15.164 Y39.315 E0.0043
G1 X15.197 Y39.162 E0.0033
G1 X15.358 Y38.746 E0.0095
G1 X22.551 Y24.622 E0.3363
G1 X22.750 Y24.424 E0.0060
G1 X22.132 Y23.777 E0.0190
G1 X23.482 Y20.803 E0.0693
G1 X23.565 Y20.621 F1126
G1 X25.491 Y20.085 F1126
G1 X26.328 Y25.093 F7800
G1 E0.1200 F1800
G1 X24.761 Y26.490 E0.0445 F1126
G1 X22.985 Y24.669 E0.0540
G1 X22.735 Y24.918 E0.0075
G1 X21.544 Y27.168 E0.0540
G1 X24.133 Y26.562 E0.0564
G1 X24.321 Y26.755 E0.0057
G1 X21.371 Y27.513 E0.0646
G1 X20.205 Y29.853 E0.0555
G1 X26.041 Y28.510 E0.1271
G1 X26.314 Y28.777 E0.0081
G1 X19.965 Y30.198 E0.1380
G1 X18.884 Y32.259 E0.0494
G1 X24.300 Y31.331 E0.1166
G1 X24.000 Y31.632 E0.0090
G1 X18.762 Y32.489 E0.1126
G1 X17.594 Y34.757 E0.0541
G1 X21.474 Y34.141 E0.0834
G1 X21.263 Y34.350 E0.0063
G1 X17.450 Y34.989 E0.0820
G1 X16.313 Y37.203 E0.0528
G1 X18.944 Y36.649 E0.0570
G1 X18.807 Y36.786 E0.0041
G1 X16.320 Y37.315 E0.0539
G1 X15.933 Y38.127 E0.0191
G1 X16.614 Y38.024 E0.0146
G1 X16.765 Y38.024 E0.0032
G1 X17.088 Y38.077 E0.0069
G1 X17.388 Y38.193 E0.0068
G1 X17.662 Y38.372 E0.0069
G1 X17.777 Y38.477 E0.0033
G1 X17.881 Y38.593 E0.0033
G1 X18.058 Y38.868 E0.0069
G1 X18.172 Y39.169 E0.0068
G1 X18.222 Y39.492 E0.0069
G1 X18.221 Y39.648 E0.0033
G1 X18.205 Y39.798 E0.0032
G1 X18.038 Y40.319 E0.0116
G1 X19.566 Y39.572 E0.0361
G1 X20.374 Y36.783 E0.0616
G1 X20.633 Y36.521 E0.0078
G1 X19.882 Y39.442 E0.0640
G1 X22.222 Y38.270 E0.0555
G1 X23.266 Y33.895 E0.0954
G1 X23.423 Y33.743 E0.0046
G1 X22.549 Y38.093 E0.0941
G1 X24.421 Y37.144 E0.0445
G1 X25.970 Y30.999 E0.1345
G1 X25.693 Y30.841 E0.0068
G1 X18.212 Y38.266 E0.2236
G1 X18.076 Y38.126 E0.0041
G1 X26.903 Y29.365 E0.2638
G1 X27.041 Y29.507 E0.0042
G1 X26.397 Y30.164 E0.0195
G1 X24.787 Y37.001 E0.1490
G1 X26.539 Y36.075 E0.0420
G1 X28.056 Y30.520 E0.1222
G1 X28.167 Y30.634 E0.0034
G1 X26.771 Y35.956 E0.1167
G1 X28.996 Y34.818 E0.0530
G1 X29.872 Y32.349 E0.0556
G1 X30.035 Y32.517 E0.0050
G1 X29.293 Y34.676 E0.0484
G1 X31.383 Y33.617 E0.0497
G1 X31.580 Y33.422 E0.0059
G1 X27.024 Y28.808 E0.1376
G1 X25.069 Y26.806 E0.0594
G1 X26.621 Y25.421 E0.0441
G1 X26.461 Y25.243 E0.0051
G1 X26.328 Y25.093 F1126
G1 X24.835 Y26.424 F1126
; layer 2, Z = 0.570
; tool H0.300 W0.420
G1 Z0.570 F1002
G1 X22.751 Y24.423 F7800
G1 E0.1200 F1800
G1 X22.130 Y23.781 E0.0210 F2252
G1 X23.551 Y20.651 E0.0810
G1 X23.721 Y20.577 E0.0044
G1 X26.360 Y19.843 E0.0646
G1 X31.162 Y25.726 E0.1790
G1 X34.575 Y29.973 E0.1284
G1 X37.588 Y33.797 E0.1148
G1 X40.498 Y37.558 E0.1121
G1 X43.140 Y41.031 E0.1029
G1 X45.780 Y44.617 E0.1050
G1 X48.277 Y48.181 E0.1026
G1 X49.988 Y50.687 E0.0715
G1 X47.369 Y48.418 E0.0817
G1 X44.150 Y45.566 E0.1014
G1 X40.877 Y42.494 E0.1058
G1 X37.766 Y39.510 E0.1016
G1 X34.299 Y36.117 E0.1144
G1 X31.904 Y33.740 E0.0795
G1 X31.738 Y33.905 E0.0055
G1 X17.231 Y41.000 E0.3807
G1 X16.919 Y41.082 E0.0076
G1 X16.598 Y41.098 E0.0076
G1 X16.280 Y41.046 E0.0076
G1 X15.980 Y40.930 E0.0076
G1 X15.711 Y40.754 E0.0076
G1 X15.484 Y40.525 E0.0076
G1 X15.307 Y40.250 E0.0077
G1 X15.246 Y40.112 E0.0036
G1 X15.229 Y40.048 E0.0016
G1 X15.599 Y39.988 E0.0088
G1 X15.675 Y40.149 E0.0042
G1 X15.789 Y40.310 E0.0047
G1 X15.928 Y40.451 E0.0047
G1 X16.089 Y40.565 E0.0047
G1 X16.266 Y40.651 E0.0047
G1 X16.456 Y40.706 E0.0047
G1 X16.652 Y40.727 E0.0047
G1 X16.850 Y40.715 E0.0047
G1 X17.042 Y40.670 E0.0047
G1 X17.224 Y40.594 E0.0047
G1 X17.390 Y40.487 E0.0047
G1 X17.536 Y40.354 E0.0047
G1 X17.657 Y40.198 E0.0047
G1 X17.751 Y40.024 E0.0047
G1 X17.813 Y39.837 E0.0047
G1 X17.843 Y39.642 E0.0047
G1 X17.840 Y39.469 E0.0041
G1 X17.804 Y39.253 E0.0052
G1 X17.734 Y39.066 E0.0047
G1 X17.635 Y38.895 E0.0047
G1 X17.508 Y38.743 E0.0047
G1 X17.357 Y38.616 E0.0047
G1 X17.188 Y38.515 E0.0047
G1 X17.003 Y38.445 E0.0047
