; G-Code generated by Simplify3D(R) Version 4.1.2
; Sep 24, 2022 at 2:29:56 PM
; Settings Summary
;   processName,PProp
;   applyToModels,Fuse-2
;   profileName,PProp - LW-PLA
;   profileVersion,2022-05-27 11:45:37
;   baseProfile,Default
;   printMaterial,
;   printQuality,
;   printExtruders,
;   extruderName,Primary Extruder
;   extruderToolheadNumber,0
;   extruderDiameter,0.4
;   extruderAutoWidth,0
;   extruderWidth,0.42
;   extrusionMultiplier,0.45
;   extruderUseRetract,1
;   extruderRetractionDistance,0
;   extruderExtraRestartDistance,0.12
;   extruderRetractionZLift,0
;   extruderRetractionSpeed,1800
;   extruderUseCoasting,1
;   extruderCoastingDistance,0.2
;   extruderUseWipe,1
;   extruderWipeDistance,2
;   primaryExtruder,0
;   layerHeight,0.3
;   topSolidLayers,0
;   bottomSolidLayers,0
;   perimeterOutlines,1
;   printPerimetersInsideOut,1
;   startPointOption,2
;   startPointOriginX,0
;   startPointOriginY,-100
;   sequentialIslands,0
;   spiralVaseMode,1
;   firstLayerHeightPercentage,90
;   firstLayerWidthPercentage,100
;   firstLayerUnderspeed,0.5
;   useRaft,0
;   raftExtruder,0
;   raftTopLayers,3
;   raftBaseLayers,2
;   raftOffset,3
;   raftSeparationDistance,0.14
;   raftTopInfill,100
;   aboveRaftSpeedMultiplier,0.3
;   useSkirt,1
;   skirtExtruder,0
;   skirtLayers,1
;   skirtOutlines,3
;   skirtOffset,1.4
;   usePrimePillar,0
;   primePillarExtruder,999
;   primePillarWidth,12
;   primePillarLocation,7
;   primePillarSpeedMultiplier,1
;   useOozeShield,0
;   oozeShieldExtruder,999
;   oozeShieldOffset,2
;   oozeShieldOutlines,1
;   oozeShieldSidewallShape,1
;   oozeShieldSidewallAngle,30
;   oozeShieldSpeedMultiplier,1
;   infillExtruder,0
;   internalInfillPattern,Rectilinear
;   externalInfillPattern,Rectilinear
;   infillPercentage,0
;   outlineOverlapPercentage,15
;   infillExtrusionWidthPercentage,100
;   minInfillLength,5
;   infillLayerInterval,1
;   internalInfillAngles,45,-45
;   overlapInternalInfillAngles,0
;   externalInfillAngles,45,-45
;   generateSupport,0
;   supportExtruder,0
;   supportInfillPercentage,30
;   supportExtraInflation,0
;   supportBaseLayers,0
;   denseSupportExtruder,0
;   denseSupportLayers,0
;   denseSupportInfillPercentage,70
;   supportLayerInterval,1
;   supportHorizontalPartOffset,0.3
;   supportUpperSeparationLayers,1
;   supportLowerSeparationLayers,1
;   supportType,0
;   supportGridSpacing,4
;   maxOverhangAngle,45
;   supportAngles,0
;   temperatureName,Primary Extruder,Heated Bed
;   temperatureNumber,0,1
;   temperatureSetpointCount,1,1
;   temperatureSetpointLayers,1,1
;   temperatureSetpointTemperatures,250,55
;   temperatureStabilizeAtStartup,1,1
;   temperatureHeatedBed,0,1
;   fanLayers,1
;   fanSpeeds,100
;   blipFanToFullPower,1
;   adjustSpeedForCooling,0
;   minSpeedLayerTime,15
;   minCoolingSpeedSlowdown,80
;   increaseFanForCooling,0
;   minFanLayerTime,20
;   maxCoolingFanSpeed,100
;   increaseFanForBridging,0
;   bridgingFanSpeed,100
;   use5D,1
;   relativeEdistances,1
;   allowEaxisZeroing,1
;   independentExtruderAxes,0
;   includeM10123,0
;   stickySupport,1
;   applyToolheadOffsets,0
;   gcodeXoffset,0
;   gcodeYoffset,0
;   gcodeZoffset,0
;   overrideMachineDefinition,1
;   machineTypeOverride,0
;   strokeXoverride,200
;   strokeYoverride,200
;   strokeZoverride,200
;   originOffsetXoverride,0
;   originOffsetYoverride,0
;   originOffsetZoverride,0
;   homeXdirOverride,-1
;   homeYdirOverride,-1
;   homeZdirOverride,-1
;   flipXoverride,1
;   flipYoverride,-1
;   flipZoverride,1
;   toolheadOffsets,0,0|0,0|0,0|0,0|0,0|0,0
;   overrideFirmwareConfiguration,1
;   firmwareTypeOverride,RepRap (Marlin/Repetier/Sprinter)
;   GPXconfigOverride,r2
;   baudRateOverride,115200
;   overridePrinterModels,0
;   printerModelsOverride
;   startingGcode,G28,G92 E0.0
;   layerChangeGcode,
;   retractionGcode,
;   toolChangeGcode,
;   endingGcode,M104 S0 ; turn off extruder,M140 S0 ; turn off bed,G28 X0 ; home X axis,M84 ; disable motors,M107 ; turn off fan
;   exportFileFormat,gcode
;   celebration,0
;   celebrationSong,Take On Me
;   postProcessing,
;   defaultSpeed,2502
;   outlineUnderspeed,0.9
;   solidInfillUnderspeed,0.8
;   supportUnderspeed,0.8
;   rapidXYspeed,7800
;   rapidZspeed,1002
;   minBridgingArea,5
;   bridgingExtraInflation,0
;   bridgingExtrusionMultiplier,1
;   bridgingSpeedMultiplier,0.3
;   useFixedBridgingAngle,0
;   fixedBridgingAngle,0
;   applyBridgingToPerimeters,0
;   filamentDiameters,1.75|1.75|1.75|1.75|1.75|1.75
;   filamentPricesPerKg,1000|1000|1000|1000|1000|1000
;   filamentDensities,1.25|1.25|1.25|1.25|1.25|1.25
;   useMinPrintHeight,0
;   minPrintHeight,0.3
;   useMaxPrintHeight,0
;   maxPrintHeight,15
;   useDiaphragm,0
;   diaphragmLayerInterval,20
;   robustSlicing,1
;   mergeAllIntoSolid,0
;   onlyRetractWhenCrossingOutline,0
;   retractBetweenLayers,0
;   useRetractionMinTravel,0
;   retractionMinTravel,3
;   retractWhileWiping,0
;   onlyWipeOutlines,1
;   avoidCrossingOutline,1
;   maxMovementDetourFactor,3
;   toolChangeRetractionDistance,0
;   toolChangeExtraRestartDistance,0
;   toolChangeRetractionSpeed,360
;   externalThinWallType,0
;   internalThinWallType,2
;   thinWallAllowedOverlapPercentage,10
;   singleExtrusionMinLength,1
;   singleExtrusionMinPrintingWidthPercentage,50
;   singleExtrusionMaxPrintingWidthPercentage,200
;   singleExtrusionEndpointExtension,0.2
;   horizontalSizeCompensation,0
G90
M83
M106 S255
M140 S55
M190 S55
M104 S250 T0
M109 S250 T0
G28
G92 E0.0
; process PProp
; layer 1, Z = 0.270
T0
; feature skirt
; tool H0.270 W0.420
G1 Z0.270 F1002
G1 X17.144 Y17.956 F7800
G1 E0.1200 F1800
G1 X17.334 Y17.940 E0.0040 F1251
G1 X17.823 Y17.465 E0.0145
G1 X17.903 Y17.394 E0.0023
G1 X18.557 Y16.860 E0.0179
G1 X18.605 Y16.823 E0.0013
G1 X19.467 Y16.188 E0.0227
G1 X19.606 Y16.099 E0.0035
G1 X21.154 Y15.252 E0.0374
G1 X21.255 Y15.203 E0.0024
G1 X22.692 Y14.579 E0.0332
G1 X22.795 Y14.540 E0.0023
G1 X24.476 Y13.984 E0.0376
G1 X24.602 Y13.950 E0.0028
G1 X26.351 Y13.572 E0.0380
G1 X26.477 Y13.552 E0.0027
G1 X28.474 Y13.335 E0.0426
G1 X28.603 Y13.328 E0.0027
G1 X30.887 Y13.323 E0.0485
G1 X31.006 Y13.329 E0.0025
G1 X33.604 Y13.577 E0.0554
G1 X33.701 Y13.590 E0.0021
G1 X36.542 Y14.092 E0.0612
G1 X36.627 Y14.110 E0.0018
G1 X39.653 Y14.870 E0.0662
G1 X39.733 Y14.893 E0.0018
G1 X42.789 Y15.885 E0.0682
G1 X42.867 Y15.913 E0.0018
G1 X46.151 Y17.232 E0.0751
G1 X46.213 Y17.258 E0.0014
G1 X49.445 Y18.766 E0.0757
G1 X49.490 Y18.788 E0.0010
G1 X52.482 Y20.334 E0.0715
G1 X52.516 Y20.352 E0.0008
G1 X55.417 Y21.970 E0.0705
G1 X55.445 Y21.986 E0.0007
G1 X58.116 Y23.567 E0.0659
G1 X58.146 Y23.586 E0.0008
G1 X60.486 Y25.065 E0.0587
G1 X60.515 Y25.084 E0.0007
G1 X63.669 Y27.206 E0.0806
G1 X63.707 Y27.233 E0.0010
G1 X65.412 Y28.479 E0.0448
G1 X65.442 Y28.502 E0.0008
G1 X66.245 Y29.128 E0.0216
G1 X66.267 Y29.146 E0.0006
G1 X67.108 Y29.834 E0.0230
G1 X67.133 Y29.855 E0.0007
G1 X69.151 Y31.600 E0.0566
G1 X69.170 Y31.617 E0.0005
G1 X81.722 Y42.939 E0.3586
G1 X81.729 Y42.945 E0.0002
G1 X90.283 Y50.784 E0.2461
G1 X90.295 Y50.795 E0.0004
G1 X95.067 Y55.288 E0.1391
G1 X95.084 Y55.304 E0.0005
G1 X96.887 Y57.069 E0.0535
G1 X96.906 Y57.088 E0.0006
G1 X98.333 Y58.546 E0.0433
G1 X98.360 Y58.574 E0.0008
G1 X99.465 Y59.777 E0.0346
G1 X99.504 Y59.822 E0.0013
G1 X100.337 Y60.822 E0.0276
G1 X100.391 Y60.893 E0.0019
G1 X101.003 Y61.747 E0.0223
G1 X101.072 Y61.856 E0.0027
G1 X101.504 Y62.617 E0.0186
G1 X101.576 Y62.766 E0.0035
G1 X101.856 Y63.466 E0.0160
G1 X101.907 Y63.625 E0.0036
G1 X102.065 Y64.259 E0.0139
G1 X102.086 Y64.363 E0.0022
G1 X102.183 Y64.969 E0.0130
G1 X102.195 Y65.069 E0.0022
G1 X102.240 Y65.674 E0.0129
G1 X102.243 Y65.769 E0.0020
G1 X102.242 Y66.390 E0.0132
G1 X102.235 Y66.516 E0.0027
G1 X102.111 Y67.685 E0.0249
G1 X102.087 Y67.826 E0.0030
G1 X101.938 Y68.485 E0.0143
G1 X101.964 Y68.581 E0.0021
G1 X101.786 Y69.152 E0.0127
G1 X101.497 Y70.428 E0.0278
G1 X101.365 Y70.470 E0.0029
G1 X101.140 Y71.039 E0.0130
G1 X101.104 Y71.119 E0.0019
G1 X100.749 Y71.858 E0.0174
G1 X100.710 Y71.932 E0.0018
G1 X100.239 Y72.761 E0.0202
G1 X100.202 Y72.822 E0.0015
G1 X99.588 Y73.770 E0.0240
G1 X99.556 Y73.816 E0.0012
G1 X98.771 Y74.915 E0.0287
G1 X98.745 Y74.950 E0.0009
G1 X97.757 Y76.233 E0.0343
G1 X97.737 Y76.259 E0.0007
G1 X96.513 Y77.763 E0.0411
G1 X96.490 Y77.789 E0.0007
G1 X93.321 Y81.465 E0.1030
G1 X93.307 Y81.481 E0.0005
G1 X91.471 Y83.536 E0.0585
G1 X91.459 Y83.549 E0.0004
G1 X87.619 Y87.730 E0.1205
G1 X87.603 Y87.747 E0.0005
G1 X83.936 Y91.589 E0.1127
G1 X83.919 Y91.606 E0.0005
G1 X82.300 Y93.238 E0.0488
G1 X82.282 Y93.255 E0.0005
G1 X80.891 Y94.600 E0.0410
G1 X80.867 Y94.622 E0.0007
G1 X79.673 Y95.715 E0.0343
G1 X79.640 Y95.744 E0.0009
G1 X78.612 Y96.619 E0.0286
G1 X78.569 Y96.655 E0.0012
G1 X77.677 Y97.347 E0.0240
G1 X77.619 Y97.388 E0.0015
G1 X76.833 Y97.928 E0.0202
G1 X76.763 Y97.973 E0.0018
G1 X76.058 Y98.390 E0.0174
G1 X75.981 Y98.432 E0.0019
G1 X75.423 Y98.709 E0.0132
G1 X75.393 Y98.843 E0.0029
G1 X74.147 Y99.240 E0.0278
G1 X73.592 Y99.466 E0.0127
G1 X73.494 Y99.448 E0.0021
G1 X72.864 Y99.649 E0.0140
G1 X72.727 Y99.684 E0.0030
G1 X71.553 Y99.914 E0.0254
G1 X71.382 Y99.935 E0.0036
G1 X70.209 Y99.997 E0.0249
G1 X70.062 Y99.996 E0.0031
G1 X69.429 Y99.953 E0.0135
G1 X69.324 Y99.942 E0.0022
G1 X68.694 Y99.844 E0.0135
G1 X68.555 Y99.814 E0.0030
G1 X67.392 Y99.492 E0.0256
G1 X67.238 Y99.438 E0.0035
G1 X66.103 Y98.954 E0.0262
G1 X66.010 Y98.910 E0.0022
G1 X65.422 Y98.598 E0.0141
G1 X65.346 Y98.554 E0.0019
G1 X64.269 Y97.878 E0.0270
G1 X64.182 Y97.818 E0.0022
G1 X63.078 Y96.985 E0.0293
G1 X63.012 Y96.932 E0.0018
G1 X61.551 Y95.662 E0.0411
G1 X61.525 Y95.639 E0.0007
G1 X59.297 Y93.588 E0.0642
G1 X59.290 Y93.580 E0.0002
G1 X48.186 Y83.181 E0.3228
G1 X48.181 Y83.176 E0.0001
G1 X42.302 Y77.608 E0.1718
G1 X42.295 Y77.601 E0.0002
G1 X36.698 Y72.206 E0.1649
G1 X36.688 Y72.196 E0.0003
G1 X34.226 Y69.768 E0.0734
G1 X34.215 Y69.757 E0.0003
G1 X32.106 Y67.623 E0.0637
G1 X32.092 Y67.608 E0.0004
G1 X30.289 Y65.722 E0.0554
G1 X30.272 Y65.704 E0.0005
G1 X28.728 Y64.021 E0.0485
G1 X28.706 Y63.997 E0.0007
G1 X27.330 Y62.416 E0.0445
G1 X27.303 Y62.384 E0.0009
G1 X25.122 Y59.701 E0.0734
G1 X25.075 Y59.640 E0.0016
G1 X23.255 Y57.092 E0.0664
G1 X23.237 Y57.066 E0.0007
G1 X21.376 Y54.311 E0.0705
G1 X21.354 Y54.276 E0.0009
G1 X19.464 Y51.269 E0.0753
G1 X19.439 Y51.227 E0.0010
G1 X17.755 Y48.290 E0.0718
G1 X17.724 Y48.233 E0.0014
G1 X16.170 Y45.161 E0.0731
G1 X16.134 Y45.084 E0.0018
G1 X14.846 Y42.034 E0.0703
G1 X14.817 Y41.956 E0.0018
G1 X13.828 Y39.086 E0.0644
G1 X13.803 Y39.002 E0.0019
G1 X13.018 Y36.054 E0.0647
G1 X12.996 Y35.958 E0.0021
G1 X12.541 Y33.452 E0.0540
G1 X12.526 Y33.332 E0.0026
G1 X12.336 Y30.993 E0.0498
G1 X12.333 Y30.865 E0.0027
G1 X12.378 Y28.908 E0.0415
G1 X12.388 Y28.780 E0.0027
G1 X12.614 Y27.016 E0.0377
G1 X12.638 Y26.888 E0.0028
G1 X13.041 Y25.194 E0.0369
G1 X13.073 Y25.084 E0.0024
G1 X13.564 Y23.638 E0.0324
G1 X13.604 Y23.535 E0.0023
G1 X14.277 Y22.016 E0.0352
G1 X14.356 Y21.867 E0.0036
G1 X15.358 Y20.249 E0.0404
G1 X15.435 Y20.139 E0.0028
G1 X15.964 Y19.463 E0.0182
G1 X15.962 Y19.275 E0.0040
G1 X16.589 Y18.665 E0.0186
G1 X17.144 Y17.956 E0.0191
G1 X17.362 Y18.359 F7800
G1 E0.1200 F1800
G1 X17.519 Y18.346 E0.0034 F1251
G1 X18.109 Y17.772 E0.0175
G1 X18.175 Y17.713 E0.0019
G1 X18.819 Y17.189 E0.0176
G1 X18.858 Y17.158 E0.0011
G1 X19.705 Y16.534 E0.0223
G1 X19.820 Y16.461 E0.0029
G1 X21.347 Y15.625 E0.0369
G1 X21.431 Y15.584 E0.0020
G1 X22.850 Y14.968 E0.0328
G1 X22.936 Y14.936 E0.0019
G1 X24.597 Y14.387 E0.0371
G1 X24.701 Y14.358 E0.0023
G1 X26.429 Y13.985 E0.0375
G1 X26.533 Y13.968 E0.0023
G1 X28.508 Y13.754 E0.0421
G1 X28.615 Y13.748 E0.0023
G1 X30.878 Y13.743 E0.0480
G1 X30.977 Y13.748 E0.0021
G1 X33.556 Y13.994 E0.0550
G1 X33.636 Y14.005 E0.0017
G1 X36.462 Y14.505 E0.0609
G1 X36.532 Y14.520 E0.0015
G1 X39.544 Y15.276 E0.0659
G1 X39.610 Y15.295 E0.0015
G1 X42.652 Y16.282 E0.0679
G1 X42.717 Y16.306 E0.0015
G1 X45.989 Y17.619 E0.0748
G1 X46.040 Y17.642 E0.0012
G1 X49.264 Y19.145 E0.0755
G1 X49.301 Y19.163 E0.0009
G1 X52.286 Y20.705 E0.0713
G1 X52.315 Y20.721 E0.0007
G1 X55.210 Y22.335 E0.0703
G1 X55.233 Y22.348 E0.0006
G1 X57.899 Y23.927 E0.0657
G1 X57.924 Y23.943 E0.0006
G1 X60.259 Y25.418 E0.0586
G1 X60.283 Y25.434 E0.0006
G1 X63.431 Y27.552 E0.0805
G1 X63.463 Y27.575 E0.0008
G1 X65.161 Y28.816 E0.0446
G1 X65.187 Y28.835 E0.0007
G1 X65.985 Y29.458 E0.0215
G1 X66.003 Y29.473 E0.0005
G1 X66.840 Y30.157 E0.0229
G1 X66.861 Y30.175 E0.0006
G1 X68.874 Y31.916 E0.0565
G1 X68.890 Y31.930 E0.0004
G1 X81.440 Y43.250 E0.3586
G1 X81.446 Y43.255 E0.0002
G1 X89.998 Y51.092 E0.2461
G1 X90.008 Y51.101 E0.0003
G1 X94.777 Y55.592 E0.1390
G1 X94.791 Y55.606 E0.0004
G1 X96.592 Y57.368 E0.0535
G1 X96.607 Y57.383 E0.0005
G1 X98.031 Y58.837 E0.0432
G1 X98.053 Y58.861 E0.0007
G1 X99.152 Y60.057 E0.0345
G1 X99.184 Y60.094 E0.0010
G1 X100.009 Y61.085 E0.0274
G1 X100.054 Y61.144 E0.0016
G1 X100.655 Y61.983 E0.0219
G1 X100.713 Y62.073 E0.0023
G1 X101.132 Y62.812 E0.0180
G1 X101.191 Y62.936 E0.0029
G1 X101.461 Y63.608 E0.0154
G1 X101.503 Y63.740 E0.0029
G1 X101.656 Y64.352 E0.0134
G1 X101.673 Y64.438 E0.0019
G1 X101.767 Y65.026 E0.0126
G1 X101.776 Y65.110 E0.0018
G1 X101.820 Y65.697 E0.0125
G1 X101.823 Y65.776 E0.0017
G1 X101.822 Y66.378 E0.0128
G1 X101.816 Y66.482 E0.0022
G1 X101.694 Y67.628 E0.0245
G1 X101.675 Y67.746 E0.0025
G1 X101.505 Y68.494 E0.0163
G1 X101.526 Y68.573 E0.0017
G1 X101.380 Y69.043 E0.0104
G1 X101.141 Y70.100 E0.0230
G1 X101.043 Y70.131 E0.0022
G1 X101.038 Y70.145 E0.0003
G1 X101.013 Y70.218 E0.0016
G1 X100.752 Y70.877 E0.0151
G1 X100.723 Y70.944 E0.0015
G1 X100.374 Y71.669 E0.0171
G1 X100.342 Y71.730 E0.0015
G1 X99.877 Y72.548 E0.0200
G1 X99.846 Y72.599 E0.0012
G1 X99.238 Y73.538 E0.0237
G1 X99.212 Y73.576 E0.0010
G1 X98.431 Y74.668 E0.0285
G1 X98.410 Y74.697 E0.0008
G1 X97.426 Y75.975 E0.0342
G1 X97.409 Y75.996 E0.0006
G1 X96.189 Y77.495 E0.0410
G1 X96.170 Y77.517 E0.0006
G1 X93.004 Y81.189 E0.1029
G1 X92.992 Y81.203 E0.0004
G1 X91.159 Y83.255 E0.0584
G1 X91.149 Y83.266 E0.0003
G1 X87.311 Y87.444 E0.1204
G1 X87.298 Y87.458 E0.0004
G1 X83.634 Y91.298 E0.1126
G1 X83.620 Y91.312 E0.0004
G1 X82.003 Y92.940 E0.0487
G1 X81.988 Y92.955 E0.0004
G1 X80.601 Y94.295 E0.0409
G1 X80.581 Y94.314 E0.0006
G1 X79.392 Y95.402 E0.0342
G1 X79.365 Y95.426 E0.0008
G1 X78.344 Y96.296 E0.0285
G1 X78.308 Y96.326 E0.0010
G1 X77.424 Y97.011 E0.0237
G1 X77.377 Y97.046 E0.0012
G1 X76.602 Y97.578 E0.0200
G1 X76.543 Y97.615 E0.0015
G1 X75.851 Y98.024 E0.0171
G1 X75.787 Y98.059 E0.0015
G1 X75.152 Y98.375 E0.0150
G1 X75.082 Y98.406 E0.0016
G1 X75.057 Y98.417 E0.0006
G1 X75.035 Y98.517 E0.0022
G1 X74.003 Y98.845 E0.0230
G1 X73.547 Y99.031 E0.0105
G1 X73.466 Y99.017 E0.0017
G1 X72.748 Y99.245 E0.0160
G1 X72.634 Y99.275 E0.0025
G1 X71.486 Y99.499 E0.0248
G1 X71.345 Y99.516 E0.0030
G1 X70.200 Y99.577 E0.0243
G1 X70.077 Y99.576 E0.0026
G1 X69.466 Y99.535 E0.0130
G1 X69.379 Y99.525 E0.0019
G1 X68.770 Y99.431 E0.0131
G1 X68.655 Y99.406 E0.0025
G1 X67.517 Y99.091 E0.0250
G1 X67.389 Y99.047 E0.0029
G1 X66.276 Y98.572 E0.0257
G1 X66.199 Y98.535 E0.0018
G1 X65.626 Y98.231 E0.0138
G1 X65.562 Y98.194 E0.0016
G1 X64.500 Y97.527 E0.0266
G1 X64.427 Y97.478 E0.0019
G1 X63.337 Y96.654 E0.0290
G1 X63.282 Y96.610 E0.0015
G1 X61.829 Y95.347 E0.0409
G1 X61.808 Y95.328 E0.0006
G1 X59.582 Y93.279 E0.0642
G1 X59.576 Y93.273 E0.0002
G1 X48.474 Y82.875 E0.3227
G1 X48.469 Y82.871 E0.0001
