; G-Code generated by Simplify3D(R) Version 4.1.2
; Sep 24, 2022 at 3:05:10 PM
; Settings Summary
;   processName,Process1
;   applyToModels,Fuse -1
;   profileName,PProp - LW-PLA
;   profileVersion,2022-09-24 14:28:31
;   baseProfile,Default
;   printMaterial,
;   printQuality,
;   printExtruders,
;   extruderName,Primary Extruder
;   extruderToolheadNumber,0
;   extruderDiameter,0.4
;   extruderAutoWidth,0
;   extruderWidth,0.42
;   extrusionMultiplier,0.45
;   extruderUseRetract,1
;   extruderRetractionDistance,0
;   extruderExtraRestartDistance,0.12
;   extruderRetractionZLift,0
;   extruderRetractionSpeed,1800
;   extruderUseCoasting,1
;   extruderCoastingDistance,0.2
;   extruderUseWipe,1
;   extruderWipeDistance,2
;   primaryExtruder,0
;   layerHeight,0.3
;   topSolidLayers,0
;   bottomSolidLayers,0
;   perimeterOutlines,1
;   printPerimetersInsideOut,1
;   startPointOption,2
;   startPointOriginX,0
;   startPointOriginY,-100
;   sequentialIslands,0
;   spiralVaseMode,1
;   firstLayerHeightPercentage,90
;   firstLayerWidthPercentage,100
;   firstLayerUnderspeed,0.5
;   useRaft,0
;   raftExtruder,0
;   raftTopLayers,3
;   raftBaseLayers,2
;   raftOffset,3
;   raftSeparationDistance,0.14
;   raftTopInfill,100
;   aboveRaftSpeedMultiplier,0.3
;   useSkirt,1
;   skirtExtruder,0
;   skirtLayers,1
;   skirtOutlines,3
;   skirtOffset,1.4
;   usePrimePillar,0
;   primePillarExtruder,999
;   primePillarWidth,12
;   primePillarLocation,7
;   primePillarSpeedMultiplier,1
;   useOozeShield,0
;   oozeShieldExtruder,999
;   oozeShieldOffset,2
;   oozeShieldOutlines,1
;   oozeShieldSidewallShape,1
;   oozeShieldSidewallAngle,30
;   oozeShieldSpeedMultiplier,1
;   infillExtruder,0
;   internalInfillPattern,Rectilinear
;   externalInfillPattern,Rectilinear
;   infillPercentage,0
;   outlineOverlapPercentage,15
;   infillExtrusionWidthPercentage,100
;   minInfillLength,5
;   infillLayerInterval,1
;   internalInfillAngles,45,-45
;   overlapInternalInfillAngles,0
;   externalInfillAngles,45,-45
;   generateSupport,0
;   supportExtruder,0
;   supportInfillPercentage,30
;   supportExtraInflation,0
;   supportBaseLayers,0
;   denseSupportExtruder,0
;   denseSupportLayers,0
;   denseSupportInfillPercentage,70
;   supportLayerInterval,1
;   supportHorizontalPartOffset,0.3
;   supportUpperSeparationLayers,1
;   supportLowerSeparationLayers,1
;   supportType,0
;   supportGridSpacing,4
;   maxOverhangAngle,45
;   supportAngles,0
;   temperatureName,Primary Extruder,Heated Bed
;   temperatureNumber,0,1
;   temperatureSetpointCount,1,1
;   temperatureSetpointLayers,1,1
;   temperatureSetpointTemperatures,250,55
;   temperatureStabilizeAtStartup,1,1
;   temperatureHeatedBed,0,1
;   fanLayers,1
;   fanSpeeds,100
;   blipFanToFullPower,1
;   adjustSpeedForCooling,0
;   minSpeedLayerTime,15
;   minCoolingSpeedSlowdown,80
;   increaseFanForCooling,0
;   minFanLayerTime,20
;   maxCoolingFanSpeed,100
;   increaseFanForBridging,0
;   bridgingFanSpeed,100
;   use5D,1
;   relativeEdistances,1
;   allowEaxisZeroing,1
;   independentExtruderAxes,0
;   includeM10123,0
;   stickySupport,1
;   applyToolheadOffsets,0
;   gcodeXoffset,0
;   gcodeYoffset,0
;   gcodeZoffset,0
;   overrideMachineDefinition,1
;   machineTypeOverride,0
;   strokeXoverride,200
;   strokeYoverride,200
;   strokeZoverride,200
;   originOffsetXoverride,0
;   originOffsetYoverride,0
;   originOffsetZoverride,0
;   homeXdirOverride,-1
;   homeYdirOverride,-1
;   homeZdirOverride,-1
;   flipXoverride,1
;   flipYoverride,-1
;   flipZoverride,1
;   toolheadOffsets,0,0|0,0|0,0|0,0|0,0|0,0
;   overrideFirmwareConfiguration,1
;   firmwareTypeOverride,RepRap (Marlin/Repetier/Sprinter)
;   GPXconfigOverride,r2
;   baudRateOverride,115200
;   overridePrinterModels,0
;   printerModelsOverride
;   startingGcode,G28,G92 E0.0
;   layerChangeGcode,
;   retractionGcode,
;   toolChangeGcode,
;   endingGcode,M104 S0 ; turn off extruder,M140 S0 ; turn off bed,G28 X0 ; home X axis,M84 ; disable motors,M107 ; turn off fan
;   exportFileFormat,gcode
;   celebration,0
;   celebrationSong,Take On Me
;   postProcessing,
;   defaultSpeed,2502
;   outlineUnderspeed,0.9
;   solidInfillUnderspeed,0.8
;   supportUnderspeed,0.8
;   rapidXYspeed,7800
;   rapidZspeed,1002
;   minBridgingArea,5
;   bridgingExtraInflation,0
;   bridgingExtrusionMultiplier,1
;   bridgingSpeedMultiplier,0.3
;   useFixedBridgingAngle,0
;   fixedBridgingAngle,0
;   applyBridgingToPerimeters,0
;   filamentDiameters,1.75|1.75|1.75|1.75|1.75|1.75
;   filamentPricesPerKg,1000|1000|1000|1000|1000|1000
;   filamentDensities,1.25|1.25|1.25|1.25|1.25|1.25
;   useMinPrintHeight,0
;   minPrintHeight,0.3
;   useMaxPrintHeight,0
;   maxPrintHeight,15
;   useDiaphragm,0
;   diaphragmLayerInterval,20
;   robustSlicing,1
;   mergeAllIntoSolid,0
;   onlyRetractWhenCrossingOutline,0
;   retractBetweenLayers,0
;   useRetractionMinTravel,0
;   retractionMinTravel,3
;   retractWhileWiping,0
;   onlyWipeOutlines,1
;   avoidCrossingOutline,1
;   maxMovementDetourFactor,3
;   toolChangeRetractionDistance,0
;   toolChangeExtraRestartDistance,0
;   toolChangeRetractionSpeed,360
;   externalThinWallType,0
;   internalThinWallType,2
;   thinWallAllowedOverlapPercentage,10
;   singleExtrusionMinLength,1
;   singleExtrusionMinPrintingWidthPercentage,50
;   singleExtrusionMaxPrintingWidthPercentage,200
;   singleExtrusionEndpointExtension,0.2
;   horizontalSizeCompensation,0
G90
M83
M106 S255
M140 S55
M190 S55
M104 S250 T0
M109 S250 T0
G28
G92 E0.0
; process Process1
; layer 1, Z = 0.270
T0
; feature skirt
; tool H0.270 W0.420
G1 Z0.270 F1002
G1 X132.933 Y122.389 F7800
G1 E0.1200 F1800
G1 X132.975 Y122.345 E0.0013 F1251
G1 X134.424 Y120.886 E0.0436
G1 X134.465 Y120.847 E0.0012
G1 X135.620 Y119.789 E0.0332
G1 X135.677 Y119.740 E0.0016
G1 X136.806 Y118.827 E0.0308
G1 X136.867 Y118.781 E0.0016
G1 X137.746 Y118.157 E0.0229
G1 X137.772 Y118.139 E0.0007
G1 X138.583 Y117.594 E0.0207
G1 X138.635 Y117.561 E0.0013
G1 X140.491 Y116.444 E0.0460
G1 X141.206 Y116.499 E0.0152
G1 X142.603 Y115.913 E0.0321
G1 X142.798 Y115.849 E0.0043
G1 X143.389 Y115.711 E0.0129
G1 X143.670 Y115.678 E0.0060
G1 X145.263 Y115.678 E0.0338
G1 X145.461 Y115.694 E0.0042
G1 X146.398 Y115.848 E0.0201
G1 X146.590 Y115.895 E0.0042
G1 X147.170 Y116.090 E0.0130
G1 X147.302 Y116.143 E0.0030
G1 X147.907 Y116.428 E0.0142
G1 X147.981 Y116.465 E0.0017
G1 X149.069 Y117.070 E0.0264
G1 X149.137 Y117.111 E0.0017
G1 X150.273 Y117.841 E0.0287
G1 X150.308 Y117.865 E0.0009
G1 X152.456 Y119.356 E0.0555
G1 X152.523 Y119.405 E0.0018
G1 X156.903 Y122.907 E0.1190
G1 X156.920 Y122.921 E0.0005
G1 X159.607 Y125.150 E0.0741
G1 X159.613 Y125.155 E0.0002
G1 X168.082 Y132.270 E0.2347
G1 X168.495 Y132.619 E0.0115
G1 X181.440 Y143.620 E0.3604
G1 X181.469 Y143.645 E0.0008
G1 X184.275 Y146.185 E0.0803
G1 X184.475 Y146.419 E0.0065
G1 X184.953 Y147.141 E0.0184
G1 X187.122 Y149.290 E0.0648
G1 X187.176 Y149.346 E0.0016
G1 X188.093 Y150.377 E0.0293
G1 X188.133 Y150.425 E0.0013
G1 X190.091 Y152.869 E0.0664
G1 X190.071 Y154.621 E0.0372
G1 X187.915 Y157.191 E0.0712
G1 X185.888 Y157.364 E0.0432
G1 X167.627 Y141.924 E0.5073
G1 X167.596 Y141.565 E0.0077
G1 X167.230 Y141.597 E0.0078
G1 X147.987 Y125.453 E0.5329
G1 X125.110 Y152.723 E0.7552
G1 X144.353 Y168.866 E0.5329
G1 X144.391 Y169.298 E0.0092
G1 X144.681 Y169.271 E0.0062
G1 X163.080 Y184.548 E0.5074
G1 X163.262 Y186.577 E0.0432
G1 X161.020 Y189.250 E0.0740
G1 X159.230 Y189.545 E0.0385
G1 X157.026 Y188.208 E0.0547
G1 X156.992 Y188.186 E0.0009
G1 X155.332 Y187.102 E0.0421
G1 X155.310 Y187.087 E0.0006
G1 X153.315 Y185.720 E0.0513
G1 X153.262 Y185.682 E0.0014
G1 X151.068 Y184.000 E0.0587
G1 X148.804 Y182.322 E0.0598
G1 X148.768 Y182.294 E0.0010
G1 X139.999 Y175.274 E0.2383
G1 X139.987 Y175.264 E0.0003
G1 X130.760 Y167.673 E0.2535
G1 X130.755 Y167.670 E0.0001
G1 X119.699 Y158.489 E0.3049
G1 X119.682 Y158.475 E0.0005
G1 X118.818 Y157.732 E0.0242
G1 X118.764 Y157.682 E0.0016
G1 X117.192 Y156.157 E0.0465
G1 X117.069 Y156.018 E0.0039
G1 X116.757 Y155.607 E0.0109
G1 X116.738 Y155.581 E0.0007
G1 X116.449 Y155.179 E0.0105
G1 X116.387 Y155.085 E0.0024
G1 X115.317 Y153.264 E0.0448
G1 X115.237 Y153.101 E0.0039
G1 X114.917 Y152.305 E0.0182
G1 X114.874 Y152.181 E0.0028
G1 X114.661 Y151.429 E0.0166
G1 X114.631 Y151.292 E0.0030
G1 X114.558 Y150.849 E0.0095
G1 X114.544 Y150.723 E0.0027
G1 X114.500 Y149.974 E0.0159
G1 X114.499 Y149.861 E0.0024
G1 X114.516 Y149.359 E0.0107
G1 X114.551 Y149.105 E0.0054
G1 X114.962 Y147.444 E0.0363
G1 X114.896 Y146.518 E0.0197
G1 X115.676 Y144.778 E0.0405
G1 X115.696 Y144.737 E0.0010
G1 X116.578 Y142.951 E0.0423
G1 X116.604 Y142.900 E0.0012
G1 X117.302 Y141.639 E0.0306
G1 X117.340 Y141.575 E0.0016
G1 X118.184 Y140.250 E0.0333
G1 X118.223 Y140.192 E0.0015
G1 X119.419 Y138.529 E0.0435
G1 X119.441 Y138.499 E0.0008
G1 X120.768 Y136.769 E0.0462
G1 X120.784 Y136.750 E0.0005
G1 X122.472 Y134.641 E0.0573
G1 X122.487 Y134.622 E0.0005
G1 X127.877 Y128.157 E0.1786
G1 X127.892 Y128.139 E0.0005
G1 X131.370 Y124.127 E0.1126
G1 X131.384 Y124.111 E0.0005
G1 X132.933 Y122.389 E0.0491
G1 X133.241 Y122.674 F7800
G1 E0.1200 F1800
G1 X133.276 Y122.637 E0.0011 F1251
G1 X134.718 Y121.186 E0.0434
G1 X134.753 Y121.153 E0.0010
G1 X135.899 Y120.103 E0.0330
G1 X135.946 Y120.062 E0.0013
G1 X137.065 Y119.158 E0.0305
G1 X137.115 Y119.120 E0.0013
G1 X137.987 Y118.501 E0.0227
G1 X138.009 Y118.486 E0.0005
G1 X138.813 Y117.945 E0.0206
G1 X138.856 Y117.918 E0.0011
G1 X140.592 Y116.873 E0.0430
G1 X141.398 Y116.935 E0.0172
G1 X141.408 Y116.870 E0.0014
G1 X142.750 Y116.307 E0.0309
G1 X142.911 Y116.254 E0.0036
G1 X143.461 Y116.125 E0.0120
G1 X143.694 Y116.098 E0.0050
G1 X145.246 Y116.098 E0.0329
G1 X145.410 Y116.112 E0.0035
G1 X146.313 Y116.260 E0.0194
G1 X146.472 Y116.299 E0.0035
G1 X147.025 Y116.484 E0.0124
G1 X147.135 Y116.528 E0.0025
G1 X147.722 Y116.805 E0.0138
G1 X147.783 Y116.836 E0.0014
G1 X148.859 Y117.434 E0.0261
G1 X148.915 Y117.468 E0.0014
G1 X150.043 Y118.193 E0.0284
G1 X150.072 Y118.212 E0.0008
G1 X152.211 Y119.696 E0.0552
G1 X152.266 Y119.738 E0.0015
G1 X156.639 Y123.234 E0.1188
G1 X156.653 Y123.245 E0.0004
G1 X159.339 Y125.473 E0.0740
G1 X159.344 Y125.477 E0.0001
G1 X168.219 Y132.936 E0.2460
G1 X168.223 Y132.940 E0.0001
G1 X181.165 Y143.938 E0.3603
G1 X181.189 Y143.959 E0.0007
G1 X183.973 Y146.479 E0.0797
G1 X184.140 Y146.673 E0.0054
G1 X184.626 Y147.409 E0.0187
G1 X186.822 Y149.583 E0.0656
G1 X186.866 Y149.630 E0.0014
G1 X187.775 Y150.652 E0.0290
G1 X187.809 Y150.692 E0.0011
G1 X189.669 Y153.014 E0.0631
G1 X189.653 Y154.466 E0.0308
G1 X187.706 Y156.787 E0.0643
G1 X186.026 Y156.931 E0.0358
G1 X168.030 Y141.716 E0.5000
G1 X167.978 Y141.110 E0.0129
G1 X167.367 Y141.163 E0.0130
G1 X147.935 Y124.862 E0.5381
G1 X124.518 Y152.775 E0.7730
G1 X143.950 Y169.076 E0.5381
G1 X144.009 Y169.754 E0.0144
G1 X144.547 Y169.705 E0.0114
G1 X162.677 Y184.760 E0.5000
G1 X162.828 Y186.441 E0.0358
G1 X160.798 Y188.861 E0.0670
G1 X159.315 Y189.106 E0.0319
G1 X157.247 Y187.850 E0.0513
G1 X157.219 Y187.833 E0.0007
G1 X155.564 Y186.752 E0.0419
G1 X155.545 Y186.739 E0.0005
G1 X153.557 Y185.377 E0.0511
G1 X153.513 Y185.345 E0.0011
G1 X151.321 Y183.665 E0.0586
G1 X149.057 Y181.987 E0.0598
G1 X149.027 Y181.964 E0.0008
G1 X140.263 Y174.947 E0.2382
G1 X140.252 Y174.938 E0.0003
G1 X131.023 Y167.346 E0.2535
G1 X119.968 Y158.167 E0.3049
G1 X119.955 Y158.155 E0.0004
G1 X119.097 Y157.417 E0.0240
G1 X119.052 Y157.376 E0.0013
G1 X117.496 Y155.866 E0.0460
G1 X117.394 Y155.751 E0.0033
G1 X117.093 Y155.355 E0.0105
G1 X117.077 Y155.334 E0.0006
G1 X116.795 Y154.941 E0.0103
G1 X116.745 Y154.863 E0.0020
G1 X115.687 Y153.065 E0.0443
G1 X115.621 Y152.929 E0.0032
G1 X115.310 Y152.158 E0.0176
G1 X115.276 Y152.056 E0.0023
G1 X115.068 Y151.326 E0.0161
G1 X115.043 Y151.213 E0.0025
G1 X114.974 Y150.792 E0.0090
G1 X114.963 Y150.687 E0.0022
G1 X114.920 Y149.959 E0.0155
G1 X114.919 Y149.865 E0.0020
G1 X114.935 Y149.395 E0.0100
G1 X114.964 Y149.185 E0.0045
G1 X115.358 Y147.588 E0.0349
G1 X115.392 Y147.577 E0.0007
G1 X115.322 Y146.594 E0.0209
G1 X116.058 Y144.953 E0.0381
G1 X116.074 Y144.919 E0.0008
G1 X116.952 Y143.141 E0.0421
G1 X116.974 Y143.099 E0.0010
G1 X117.666 Y141.848 E0.0303
G1 X117.698 Y141.795 E0.0013
G1 X118.535 Y140.480 E0.0331
G1 X118.567 Y140.433 E0.0012
G1 X119.758 Y138.777 E0.0433
G1 X119.777 Y138.752 E0.0007
G1 X121.100 Y137.027 E0.0461
G1 X121.113 Y137.010 E0.0004
G1 X122.798 Y134.905 E0.0572
G1 X122.811 Y134.889 E0.0004
G1 X128.198 Y128.428 E0.1785
G1 X128.210 Y128.413 E0.0004
G1 X131.686 Y124.404 E0.1126
G1 X131.698 Y124.390 E0.0004
G1 X133.241 Y122.674 E0.0490
G1 X133.550 Y122.959 F7800
G1 E0.1200 F1800
G1 X133.578 Y122.929 E0.0009 F1251
G1 X135.013 Y121.486 E0.0432
G1 X135.040 Y121.460 E0.0008
G1 X136.177 Y120.417 E0.0327
G1 X136.215 Y120.385 E0.0011
G1 X137.324 Y119.489 E0.0302
G1 X137.364 Y119.458 E0.0011
G1 X138.228 Y118.845 E0.0225
G1 X138.245 Y118.833 E0.0004
G1 X139.043 Y118.297 E0.0204
G1 X139.077 Y118.275 E0.0009
G1 X140.694 Y117.302 E0.0400
G1 X141.720 Y117.381 E0.0218
G1 X141.751 Y117.407 E0.0009
G1 X141.788 Y117.166 E0.0052
G1 X142.896 Y116.701 E0.0255
G1 X143.024 Y116.659 E0.0029
G1 X143.534 Y116.539 E0.0111
G1 X143.718 Y116.518 E0.0039
G1 X145.229 Y116.518 E0.0320
G1 X145.359 Y116.529 E0.0028
G1 X146.229 Y116.671 E0.0187
G1 X146.355 Y116.703 E0.0028
G1 X146.880 Y116.879 E0.0117
G1 X146.967 Y116.914 E0.0020
G1 X147.537 Y117.182 E0.0134
G1 X147.585 Y117.207 E0.0011
G1 X148.649 Y117.798 E0.0258
G1 X148.694 Y117.824 E0.0011
G1 X149.812 Y118.544 E0.0282
G1 X149.836 Y118.559 E0.0006
G1 X151.966 Y120.037 E0.0550
G1 X152.010 Y120.070 E0.0012
G1 X156.375 Y123.561 E0.1186
G1 X156.386 Y123.570 E0.0003
G1 X159.070 Y125.796 E0.0740
G1 X159.074 Y125.799 E0.0001
G1 X167.952 Y133.261 E0.2460
G1 X180.891 Y144.256 E0.3602
G1 X180.910 Y144.272 E0.0005
G1 X183.672 Y146.772 E0.0790
G1 X183.804 Y146.926 E0.0043
G1 X184.300 Y147.677 E0.0191
G1 X186.522 Y149.877 E0.0663
G1 X186.557 Y149.914 E0.0011
G1 X187.458 Y150.927 E0.0288
G1 X187.484 Y150.959 E0.0009
G1 X189.248 Y153.160 E0.0598
G1 X189.235 Y154.311 E0.0244
G1 X187.496 Y156.384 E0.0574
G1 X186.163 Y156.498 E0.0284
G1 X168.434 Y141.507 E0.4926
G1 X168.361 Y140.655 E0.0181
G1 X167.504 Y140.730 E0.0183
G1 X147.884 Y124.270 E0.5433
G1 X123.927 Y152.826 E0.7908
G1 X143.547 Y169.286 E0.5433
G1 X143.627 Y170.210 E0.0197
G1 X144.412 Y170.139 E0.0167
G1 X162.274 Y184.971 E0.4926
G1 X162.394 Y186.304 E0.0284
G1 X160.576 Y188.472 E0.0600
G1 X159.400 Y188.666 E0.0253
G1 X157.468 Y187.493 E0.0480
G1 X157.446 Y187.479 E0.0006
G1 X155.795 Y186.401 E0.0418
G1 X155.780 Y186.391 E0.0004
G1 X153.799 Y185.033 E0.0510
G1 X153.765 Y185.008 E0.0009
G1 X151.574 Y183.329 E0.0586
G1 X149.310 Y181.652 E0.0598
G1 X149.286 Y181.633 E0.0006
G1 X140.526 Y174.619 E0.2381
G1 X140.518 Y174.613 E0.0002
G1 X131.291 Y167.023 E0.2535
G1 X120.238 Y157.845 E0.3048
G1 X120.227 Y157.836 E0.0003
G1 X119.376 Y157.103 E0.0238
G1 X119.340 Y157.071 E0.0010
G1 X117.799 Y155.576 E0.0455
G1 X117.719 Y155.485 E0.0026
G1 X117.429 Y155.103 E0.0102
G1 X117.417 Y155.087 E0.0004
G1 X117.142 Y154.704 E0.0100
G1 X117.102 Y154.642 E0.0016
G1 X116.057 Y152.866 E0.0437
G1 X116.004 Y152.758 E0.0025
G1 X115.704 Y152.012 E0.0171
G1 X115.677 Y151.931 E0.0018
G1 X115.476 Y151.223 E0.0156
G1 X115.456 Y151.133 E0.0019
G1 X115.391 Y150.735 E0.0086
G1 X115.381 Y150.652 E0.0018
G1 X115.340 Y149.944 E0.0150
G1 X115.339 Y149.870 E0.0016
G1 X115.354 Y149.431 E0.0093
G1 X115.377 Y149.264 E0.0036
