; G-Code generated by Simplify3D(R) Version 4.1.2
; Sep 24, 2022 at 2:31:46 PM
; Settings Summary
;   processName,PProp
;   applyToModels,Fuse-5
;   profileName,PProp - LW-PLA
;   profileVersion,2022-05-27 11:45:37
;   baseProfile,Default
;   printMaterial,
;   printQuality,
;   printExtruders,
;   extruderName,Primary Extruder
;   extruderToolheadNumber,0
;   extruderDiameter,0.4
;   extruderAutoWidth,0
;   extruderWidth,0.42
;   extrusionMultiplier,0.45
;   extruderUseRetract,1
;   extruderRetractionDistance,0
;   extruderExtraRestartDistance,0.12
;   extruderRetractionZLift,0
;   extruderRetractionSpeed,1800
;   extruderUseCoasting,1
;   extruderCoastingDistance,0.2
;   extruderUseWipe,1
;   extruderWipeDistance,2
;   primaryExtruder,0
;   layerHeight,0.3
;   topSolidLayers,0
;   bottomSolidLayers,0
;   perimeterOutlines,1
;   printPerimetersInsideOut,1
;   startPointOption,2
;   startPointOriginX,0
;   startPointOriginY,-100
;   sequentialIslands,0
;   spiralVaseMode,1
;   firstLayerHeightPercentage,90
;   firstLayerWidthPercentage,100
;   firstLayerUnderspeed,0.5
;   useRaft,0
;   raftExtruder,0
;   raftTopLayers,3
;   raftBaseLayers,2
;   raftOffset,3
;   raftSeparationDistance,0.14
;   raftTopInfill,100
;   aboveRaftSpeedMultiplier,0.3
;   useSkirt,1
;   skirtExtruder,0
;   skirtLayers,1
;   skirtOutlines,3
;   skirtOffset,1.4
;   usePrimePillar,0
;   primePillarExtruder,999
;   primePillarWidth,12
;   primePillarLocation,7
;   primePillarSpeedMultiplier,1
;   useOozeShield,0
;   oozeShieldExtruder,999
;   oozeShieldOffset,2
;   oozeShieldOutlines,1
;   oozeShieldSidewallShape,1
;   oozeShieldSidewallAngle,30
;   oozeShieldSpeedMultiplier,1
;   infillExtruder,0
;   internalInfillPattern,Rectilinear
;   externalInfillPattern,Rectilinear
;   infillPercentage,0
;   outlineOverlapPercentage,15
;   infillExtrusionWidthPercentage,100
;   minInfillLength,5
;   infillLayerInterval,1
;   internalInfillAngles,45,-45
;   overlapInternalInfillAngles,0
;   externalInfillAngles,45,-45
;   generateSupport,0
;   supportExtruder,0
;   supportInfillPercentage,30
;   supportExtraInflation,0
;   supportBaseLayers,0
;   denseSupportExtruder,0
;   denseSupportLayers,0
;   denseSupportInfillPercentage,70
;   supportLayerInterval,1
;   supportHorizontalPartOffset,0.3
;   supportUpperSeparationLayers,1
;   supportLowerSeparationLayers,1
;   supportType,0
;   supportGridSpacing,4
;   maxOverhangAngle,45
;   supportAngles,0
;   temperatureName,Primary Extruder,Heated Bed
;   temperatureNumber,0,1
;   temperatureSetpointCount,1,1
;   temperatureSetpointLayers,1,1
;   temperatureSetpointTemperatures,250,55
;   temperatureStabilizeAtStartup,1,1
;   temperatureHeatedBed,0,1
;   fanLayers,1
;   fanSpeeds,100
;   blipFanToFullPower,1
;   adjustSpeedForCooling,0
;   minSpeedLayerTime,15
;   minCoolingSpeedSlowdown,80
;   increaseFanForCooling,0
;   minFanLayerTime,20
;   maxCoolingFanSpeed,100
;   increaseFanForBridging,0
;   bridgingFanSpeed,100
;   use5D,1
;   relativeEdistances,1
;   allowEaxisZeroing,1
;   independentExtruderAxes,0
;   includeM10123,0
;   stickySupport,1
;   applyToolheadOffsets,0
;   gcodeXoffset,0
;   gcodeYoffset,0
;   gcodeZoffset,0
;   overrideMachineDefinition,1
;   machineTypeOverride,0
;   strokeXoverride,200
;   strokeYoverride,200
;   strokeZoverride,200
;   originOffsetXoverride,0
;   originOffsetYoverride,0
;   originOffsetZoverride,0
;   homeXdirOverride,-1
;   homeYdirOverride,-1
;   homeZdirOverride,-1
;   flipXoverride,1
;   flipYoverride,-1
;   flipZoverride,1
;   toolheadOffsets,0,0|0,0|0,0|0,0|0,0|0,0
;   overrideFirmwareConfiguration,1
;   firmwareTypeOverride,RepRap (Marlin/Repetier/Sprinter)
;   GPXconfigOverride,r2
;   baudRateOverride,115200
;   overridePrinterModels,0
;   printerModelsOverride
;   startingGcode,G28,G92 E0.0
;   layerChangeGcode,
;   retractionGcode,
;   toolChangeGcode,
;   endingGcode,M104 S0 ; turn off extruder,M140 S0 ; turn off bed,G28 X0 ; home X axis,M84 ; disable motors,M107 ; turn off fan
;   exportFileFormat,gcode
;   celebration,0
;   celebrationSong,Take On Me
;   postProcessing,
;   defaultSpeed,2502
;   outlineUnderspeed,0.9
;   solidInfillUnderspeed,0.8
;   supportUnderspeed,0.8
;   rapidXYspeed,7800
;   rapidZspeed,1002
;   minBridgingArea,5
;   bridgingExtraInflation,0
;   bridgingExtrusionMultiplier,1
;   bridgingSpeedMultiplier,0.3
;   useFixedBridgingAngle,0
;   fixedBridgingAngle,0
;   applyBridgingToPerimeters,0
;   filamentDiameters,1.75|1.75|1.75|1.75|1.75|1.75
;   filamentPricesPerKg,1000|1000|1000|1000|1000|1000
;   filamentDensities,1.25|1.25|1.25|1.25|1.25|1.25
;   useMinPrintHeight,0
;   minPrintHeight,0.3
;   useMaxPrintHeight,0
;   maxPrintHeight,15
;   useDiaphragm,0
;   diaphragmLayerInterval,20
;   robustSlicing,1
;   mergeAllIntoSolid,0
;   onlyRetractWhenCrossingOutline,0
;   retractBetweenLayers,0
;   useRetractionMinTravel,0
;   retractionMinTravel,3
;   retractWhileWiping,0
;   onlyWipeOutlines,1
;   avoidCrossingOutline,1
;   maxMovementDetourFactor,3
;   toolChangeRetractionDistance,0
;   toolChangeExtraRestartDistance,0
;   toolChangeRetractionSpeed,360
;   externalThinWallType,0
;   internalThinWallType,2
;   thinWallAllowedOverlapPercentage,10
;   singleExtrusionMinLength,1
;   singleExtrusionMinPrintingWidthPercentage,50
;   singleExtrusionMaxPrintingWidthPercentage,200
;   singleExtrusionEndpointExtension,0.2
;   horizontalSizeCompensation,0
G90
M83
M106 S255
M140 S55
M190 S55
M104 S250 T0
M109 S250 T0
G28
G92 E0.0
; process PProp
; layer 1, Z = 0.270
T0
; feature skirt
; tool H0.270 W0.420
G1 Z0.270 F1002
G1 X18.354 Y20.805 F7800
G1 E0.1200 F1800
G1 X19.616 Y19.652 E0.0363 F1251
G1 X19.648 Y19.624 E0.0009
G1 X20.955 Y18.511 E0.0364
G1 X20.992 Y18.480 E0.0010
G1 X21.671 Y17.946 E0.0183
G1 X21.731 Y17.902 E0.0016
G1 X23.042 Y16.994 E0.0338
G1 X23.130 Y16.939 E0.0022
G1 X23.813 Y16.548 E0.0167
G1 X23.882 Y16.511 E0.0017
G1 X24.548 Y16.185 E0.0157
G1 X24.621 Y16.152 E0.0017
G1 X25.285 Y15.878 E0.0152
G1 X25.359 Y15.851 E0.0017
G1 X26.021 Y15.627 E0.0148
G1 X26.094 Y15.605 E0.0016
G1 X26.770 Y15.423 E0.0149
G1 X26.869 Y15.400 E0.0022
G1 X28.170 Y15.163 E0.0281
G1 X28.276 Y15.148 E0.0023
G1 X29.628 Y15.022 E0.0288
G1 X29.737 Y15.016 E0.0023
G1 X31.151 Y15.010 E0.0300
G1 X31.257 Y15.014 E0.0023
G1 X32.027 Y15.077 E0.0164
G1 X32.108 Y15.087 E0.0017
G1 X32.884 Y15.203 E0.0167
G1 X32.971 Y15.219 E0.0019
G1 X33.769 Y15.398 E0.0174
G1 X33.858 Y15.422 E0.0020
G1 X34.673 Y15.670 E0.0181
G1 X34.761 Y15.701 E0.0020
G1 X35.591 Y16.025 E0.0189
G1 X35.677 Y16.062 E0.0020
G1 X36.512 Y16.465 E0.0197
G1 X36.579 Y16.499 E0.0016
G1 X37.412 Y16.966 E0.0203
G1 X37.464 Y16.997 E0.0013
G1 X38.291 Y17.515 E0.0207
G1 X38.333 Y17.543 E0.0011
G1 X39.159 Y18.110 E0.0213
G1 X39.206 Y18.144 E0.0012
G1 X40.803 Y19.355 E0.0425
G1 X40.854 Y19.395 E0.0014
G1 X42.335 Y20.648 E0.0412
G1 X42.392 Y20.648 E0.0012
G1 X43.053 Y21.256 E0.0190
G1 X43.849 Y21.929 E0.0221
G1 X43.851 Y21.988 E0.0013
G1 X44.532 Y22.614 E0.0196
G1 X44.573 Y22.653 E0.0012
G1 X45.331 Y23.416 E0.0228
G1 X45.400 Y23.419 E0.0015
G1 X46.036 Y24.127 E0.0202
G1 X46.721 Y24.817 E0.0206
G1 X46.720 Y24.888 E0.0015
G1 X46.989 Y25.187 E0.0085
G1 X47.040 Y25.248 E0.0017
G1 X47.989 Y26.453 E0.0325
G1 X48.053 Y26.542 E0.0023
G1 X48.825 Y27.725 E0.0300
G1 X48.893 Y27.844 E0.0029
G1 X49.475 Y28.999 E0.0274
G1 X49.524 Y29.111 E0.0026
G1 X49.757 Y29.718 E0.0138
G1 X49.786 Y29.803 E0.0019
G1 X49.965 Y30.393 E0.0131
G1 X49.989 Y30.486 E0.0020
G1 X50.124 Y31.102 E0.0134
G1 X50.147 Y31.250 E0.0032
G1 X50.255 Y32.400 E0.0245
G1 X50.258 Y32.586 E0.0040
G1 X50.192 Y33.717 E0.0240
G1 X50.178 Y33.840 E0.0026
G1 X50.082 Y34.440 E0.0129
G1 X50.062 Y34.540 E0.0022
G1 X49.794 Y35.625 E0.0237
G1 X49.764 Y35.727 E0.0023
G1 X49.392 Y36.817 E0.0244
G1 X49.364 Y36.893 E0.0017
G1 X49.114 Y37.492 E0.0138
G1 X49.065 Y37.595 E0.0024
G1 X48.462 Y38.731 E0.0273
G1 X48.397 Y38.840 E0.0027
G1 X47.990 Y39.445 E0.0155
G1 X47.941 Y39.513 E0.0018
G1 X47.501 Y40.079 E0.0152
G1 X47.452 Y40.138 E0.0016
G1 X46.981 Y40.672 E0.0151
G1 X46.902 Y40.753 E0.0024
G1 X46.072 Y41.535 E0.0242
G1 X45.984 Y41.611 E0.0025
G1 X45.279 Y42.159 E0.0189
G1 X45.209 Y42.209 E0.0018
G1 X44.089 Y42.960 E0.0286
G1 X43.330 Y43.534 E0.0202
G1 X42.146 Y44.546 E0.0330
G1 X40.418 Y46.121 E0.0496
G1 X39.126 Y47.344 E0.0377
G1 X38.024 Y48.449 E0.0331
G1 X37.378 Y49.174 E0.0206
G1 X36.291 Y50.517 E0.0367
G1 X36.210 Y50.607 E0.0026
G1 X35.476 Y51.350 E0.0222
G1 X35.370 Y51.445 E0.0030
G1 X34.363 Y52.252 E0.0274
G1 X34.270 Y52.319 E0.0024
G1 X33.658 Y52.722 E0.0156
G1 X33.585 Y52.766 E0.0018
G1 X32.952 Y53.123 E0.0154
G1 X32.839 Y53.179 E0.0027
G1 X31.660 Y53.691 E0.0273
G1 X31.554 Y53.731 E0.0024
G1 X30.938 Y53.933 E0.0137
G1 X30.860 Y53.956 E0.0017
G1 X29.759 Y54.238 E0.0241
G1 X29.685 Y54.254 E0.0016
G1 X29.098 Y54.367 E0.0127
G1 X29.002 Y54.381 E0.0021
G1 X27.883 Y54.504 E0.0239
G1 X27.725 Y54.512 E0.0034
G1 X26.574 Y54.489 E0.0244
G1 X26.389 Y54.471 E0.0040
G1 X25.251 Y54.274 E0.0245
G1 X25.106 Y54.240 E0.0032
G1 X24.502 Y54.057 E0.0134
G1 X24.412 Y54.026 E0.0020
G1 X23.819 Y53.796 E0.0135
G1 X23.698 Y53.741 E0.0028
G1 X22.612 Y53.176 E0.0260
G1 X22.507 Y53.115 E0.0026
G1 X21.923 Y52.733 E0.0148
G1 X21.837 Y52.672 E0.0022
G1 X20.759 Y51.827 E0.0291
G1 X20.692 Y51.770 E0.0019
G1 X20.113 Y51.246 E0.0166
G1 X20.078 Y51.212 E0.0010
G1 X19.495 Y50.640 E0.0173
G1 X19.457 Y50.601 E0.0012
G1 X18.277 Y49.336 E0.0367
G1 X18.242 Y49.296 E0.0011
G1 X17.072 Y47.928 E0.0382
G1 X17.046 Y47.896 E0.0009
G1 X16.672 Y47.427 E0.0127
G1 X16.639 Y47.424 E0.0007
G1 X16.004 Y46.590 E0.0222
G1 X15.429 Y45.868 E0.0196
G1 X15.431 Y45.837 E0.0007
G1 X15.265 Y45.619 E0.0058
G1 X15.246 Y45.592 E0.0007
G1 X14.942 Y45.170 E0.0110
G1 X14.898 Y45.165 E0.0009
G1 X14.293 Y44.268 E0.0230
G1 X13.781 Y43.555 E0.0186
G1 X13.785 Y43.514 E0.0009
G1 X13.546 Y43.160 E0.0090
G1 X13.512 Y43.106 E0.0014
G1 X12.515 Y41.446 E0.0411
G1 X12.480 Y41.384 E0.0015
G1 X12.027 Y40.518 E0.0207
G1 X12.000 Y40.463 E0.0013
G1 X11.602 Y39.599 E0.0202
G1 X11.573 Y39.531 E0.0016
G1 X11.236 Y38.668 E0.0197
G1 X11.205 Y38.579 E0.0020
G1 X10.947 Y37.728 E0.0189
G1 X10.923 Y37.637 E0.0020
G1 X10.738 Y36.806 E0.0181
G1 X10.722 Y36.715 E0.0020
G1 X10.605 Y35.905 E0.0173
G1 X10.596 Y35.818 E0.0019
G1 X10.540 Y35.036 E0.0166
G1 X10.537 Y34.954 E0.0017
G1 X10.533 Y34.197 E0.0160
G1 X10.535 Y34.123 E0.0016
G1 X10.576 Y33.393 E0.0155
G1 X10.581 Y33.328 E0.0014
G1 X10.660 Y32.616 E0.0152
G1 X10.670 Y32.541 E0.0016
G1 X10.900 Y31.219 E0.0285
G1 X10.922 Y31.117 E0.0022
G1 X11.261 Y29.826 E0.0283
G1 X11.303 Y29.697 E0.0029
G1 X11.783 Y28.446 E0.0284
G1 X11.829 Y28.343 E0.0024
G1 X12.147 Y27.699 E0.0152
G1 X12.184 Y27.630 E0.0017
G1 X12.543 Y27.008 E0.0152
G1 X12.585 Y26.941 E0.0017
G1 X12.995 Y26.325 E0.0157
G1 X13.039 Y26.263 E0.0016
G1 X13.508 Y25.645 E0.0164
G1 X13.562 Y25.579 E0.0018
G1 X14.588 Y24.408 E0.0330
G1 X14.639 Y24.352 E0.0016
G1 X15.794 Y23.189 E0.0348
G1 X15.826 Y23.158 E0.0009
G1 X16.877 Y22.172 E0.0306
G1 X16.878 Y22.154 E0.0004
G1 X17.610 Y21.485 E0.0211
G1 X18.336 Y20.805 E0.0211
G1 X18.354 Y20.805 E0.0004
G1 X18.511 Y21.231 F7800
G1 E0.1200 F1800
G1 X19.896 Y19.965 E0.0398 F1251
G1 X19.923 Y19.942 E0.0007
G1 X21.224 Y18.833 E0.0363
G1 X21.255 Y18.807 E0.0009
G1 X21.925 Y18.280 E0.0181
G1 X21.975 Y18.244 E0.0013
G1 X23.273 Y17.345 E0.0335
G1 X23.347 Y17.299 E0.0018
G1 X24.015 Y16.916 E0.0163
G1 X24.073 Y16.885 E0.0014
G1 X24.727 Y16.565 E0.0154
G1 X24.787 Y16.537 E0.0014
G1 X25.438 Y16.269 E0.0149
G1 X25.500 Y16.246 E0.0014
G1 X26.149 Y16.027 E0.0145
G1 X26.210 Y16.009 E0.0013
G1 X26.871 Y15.830 E0.0145
G1 X26.953 Y15.812 E0.0018
G1 X28.237 Y15.578 E0.0277
G1 X28.324 Y15.566 E0.0019
G1 X29.658 Y15.441 E0.0284
G1 X29.748 Y15.436 E0.0019
G1 X31.144 Y15.430 E0.0296
G1 X31.232 Y15.433 E0.0019
G1 X31.986 Y15.495 E0.0160
G1 X32.053 Y15.503 E0.0014
G1 X32.815 Y15.617 E0.0163
G1 X32.886 Y15.631 E0.0015
G1 X33.669 Y15.806 E0.0170
G1 X33.743 Y15.826 E0.0016
G1 X34.543 Y16.069 E0.0177
G1 X34.616 Y16.095 E0.0016
G1 X35.430 Y16.413 E0.0185
G1 X35.502 Y16.444 E0.0017
G1 X36.324 Y16.840 E0.0194
G1 X36.379 Y16.869 E0.0013
G1 X37.202 Y17.330 E0.0200
G1 X37.246 Y17.356 E0.0011
G1 X38.064 Y17.869 E0.0205
G1 X38.099 Y17.892 E0.0009
G1 X38.917 Y18.453 E0.0211
G1 X38.956 Y18.481 E0.0010
G1 X40.545 Y19.686 E0.0423
G1 X40.587 Y19.720 E0.0011
G1 X42.182 Y21.069 E0.0443
G1 X42.229 Y21.068 E0.0010
G1 X42.776 Y21.571 E0.0158
G1 X43.434 Y22.127 E0.0183
G1 X43.435 Y22.176 E0.0010
G1 X44.245 Y22.920 E0.0233
G1 X44.279 Y22.952 E0.0010
G1 X45.148 Y23.828 E0.0262
G1 X45.205 Y23.831 E0.0012
G1 X45.731 Y24.416 E0.0167
G1 X46.298 Y24.987 E0.0171
G1 X46.296 Y25.045 E0.0012
G1 X46.672 Y25.463 E0.0119
G1 X46.714 Y25.513 E0.0014
G1 X47.653 Y26.706 E0.0322
G1 X47.706 Y26.779 E0.0019
G1 X48.466 Y27.945 E0.0295
G1 X48.523 Y28.043 E0.0024
G1 X49.095 Y29.179 E0.0270
G1 X49.136 Y29.271 E0.0021
G1 X49.362 Y29.861 E0.0134
G1 X49.387 Y29.932 E0.0016
G1 X49.561 Y30.507 E0.0128
G1 X49.581 Y30.584 E0.0017
G1 X49.711 Y31.180 E0.0129
G1 X49.730 Y31.302 E0.0026
G1 X49.835 Y32.423 E0.0239
G1 X49.838 Y32.578 E0.0033
G1 X49.773 Y33.682 E0.0235
G1 X49.762 Y33.784 E0.0022
G1 X49.669 Y34.364 E0.0125
G1 X49.652 Y34.447 E0.0018
G1 X49.388 Y35.516 E0.0233
G1 X49.364 Y35.600 E0.0019
G1 X48.997 Y36.675 E0.0241
G1 X48.973 Y36.738 E0.0014
G1 X48.730 Y37.321 E0.0134
G1 X48.690 Y37.406 E0.0020
G1 X48.096 Y38.525 E0.0269
G1 X48.042 Y38.614 E0.0022
G1 X47.646 Y39.204 E0.0151
G1 X47.605 Y39.261 E0.0015
G1 X47.174 Y39.816 E0.0149
G1 X47.133 Y39.865 E0.0014
G1 X46.672 Y40.387 E0.0148
G1 X46.607 Y40.454 E0.0020
G1 X45.791 Y41.223 E0.0238
G1 X45.718 Y41.286 E0.0020
G1 X45.027 Y41.822 E0.0186
G1 X44.969 Y41.864 E0.0015
G1 X43.845 Y42.618 E0.0287
G1 X43.066 Y43.207 E0.0207
G1 X41.868 Y44.231 E0.0334
G1 X40.132 Y45.813 E0.0498
G1 X38.833 Y47.043 E0.0380
G1 X37.718 Y48.161 E0.0335
G1 X37.058 Y48.902 E0.0211
G1 X35.971 Y50.244 E0.0366
G1 X35.904 Y50.319 E0.0021
G1 X35.186 Y51.046 E0.0217
G1 X35.098 Y51.125 E0.0025
G1 X34.108 Y51.918 E0.0269
G1 X34.031 Y51.974 E0.0020
G1 X33.433 Y52.367 E0.0152
G1 X33.373 Y52.404 E0.0015
G1 X32.755 Y52.752 E0.0150
G1 X32.661 Y52.798 E0.0022
G1 X31.501 Y53.302 E0.0268
G1 X31.413 Y53.335 E0.0020
G1 X30.814 Y53.532 E0.0134
G1 X30.749 Y53.551 E0.0014
G1 X29.661 Y53.829 E0.0238
G1 X29.600 Y53.843 E0.0013
G1 X29.027 Y53.953 E0.0124
G1 X28.948 Y53.965 E0.0017
G1 X27.851 Y54.085 E0.0234
G1 X27.720 Y54.091 E0.0028
G1 X26.598 Y54.069 E0.0238
G1 X26.445 Y54.055 E0.0033
G1 X25.335 Y53.862 E0.0239
G1 X25.215 Y53.834 E0.0026
G1 X24.631 Y53.658 E0.0129
G1 X24.557 Y53.632 E0.0017
G1 X23.982 Y53.408 E0.0131
G1 X23.882 Y53.363 E0.0023
G1 X22.815 Y52.808 E0.0255
G1 X22.728 Y52.757 E0.0021
G1 X22.160 Y52.387 E0.0144
G1 X22.089 Y52.336 E0.0019
G1 X21.024 Y51.501 E0.0287
G1 X20.969 Y51.454 E0.0015
G1 X20.398 Y50.937 E0.0163
G1 X20.369 Y50.910 E0.0009
G1 X19.792 Y50.343 E0.0171
G1 X19.761 Y50.311 E0.0010
G1 X18.587 Y49.053 E0.0365
G1 X18.558 Y49.020 E0.0009
G1 X17.394 Y47.658 E0.0380
G1 X17.372 Y47.631 E0.0007
G1 X16.888 Y47.024 E0.0165
G1 X16.861 Y47.022 E0.0006
G1 X16.336 Y46.332 E0.0184
G1 X15.860 Y45.735 E0.0162
G1 X15.862 Y45.709 E0.0005
G1 X15.601 Y45.367 E0.0091
G1 X15.585 Y45.345 E0.0006
G1 X15.175 Y44.774 E0.0149
G1 X15.138 Y44.770 E0.0008
G1 X14.638 Y44.028 E0.0190
G1 X14.214 Y43.439 E0.0154
G1 X14.218 Y43.405 E0.0007
G1 X13.898 Y42.930 E0.0121
G1 X13.869 Y42.885 E0.0011
G1 X12.879 Y41.235 E0.0408
