; G-Code generated by Simplify3D(R) Version 4.1.2
; Sep 24, 2022 at 2:31:29 PM
; Settings Summary
;   processName,PProp
;   applyToModels,Fuse-4
;   profileName,PProp - LW-PLA
;   profileVersion,2022-05-27 11:45:37
;   baseProfile,Default
;   printMaterial,
;   printQuality,
;   printExtruders,
;   extruderName,Primary Extruder
;   extruderToolheadNumber,0
;   extruderDiameter,0.4
;   extruderAutoWidth,0
;   extruderWidth,0.42
;   extrusionMultiplier,0.45
;   extruderUseRetract,1
;   extruderRetractionDistance,0
;   extruderExtraRestartDistance,0.12
;   extruderRetractionZLift,0
;   extruderRetractionSpeed,1800
;   extruderUseCoasting,1
;   extruderCoastingDistance,0.2
;   extruderUseWipe,1
;   extruderWipeDistance,2
;   primaryExtruder,0
;   layerHeight,0.3
;   topSolidLayers,0
;   bottomSolidLayers,0
;   perimeterOutlines,1
;   printPerimetersInsideOut,1
;   startPointOption,2
;   startPointOriginX,0
;   startPointOriginY,-100
;   sequentialIslands,0
;   spiralVaseMode,1
;   firstLayerHeightPercentage,90
;   firstLayerWidthPercentage,100
;   firstLayerUnderspeed,0.5
;   useRaft,0
;   raftExtruder,0
;   raftTopLayers,3
;   raftBaseLayers,2
;   raftOffset,3
;   raftSeparationDistance,0.14
;   raftTopInfill,100
;   aboveRaftSpeedMultiplier,0.3
;   useSkirt,1
;   skirtExtruder,0
;   skirtLayers,1
;   skirtOutlines,3
;   skirtOffset,1.4
;   usePrimePillar,0
;   primePillarExtruder,999
;   primePillarWidth,12
;   primePillarLocation,7
;   primePillarSpeedMultiplier,1
;   useOozeShield,0
;   oozeShieldExtruder,999
;   oozeShieldOffset,2
;   oozeShieldOutlines,1
;   oozeShieldSidewallShape,1
;   oozeShieldSidewallAngle,30
;   oozeShieldSpeedMultiplier,1
;   infillExtruder,0
;   internalInfillPattern,Rectilinear
;   externalInfillPattern,Rectilinear
;   infillPercentage,0
;   outlineOverlapPercentage,15
;   infillExtrusionWidthPercentage,100
;   minInfillLength,5
;   infillLayerInterval,1
;   internalInfillAngles,45,-45
;   overlapInternalInfillAngles,0
;   externalInfillAngles,45,-45
;   generateSupport,0
;   supportExtruder,0
;   supportInfillPercentage,30
;   supportExtraInflation,0
;   supportBaseLayers,0
;   denseSupportExtruder,0
;   denseSupportLayers,0
;   denseSupportInfillPercentage,70
;   supportLayerInterval,1
;   supportHorizontalPartOffset,0.3
;   supportUpperSeparationLayers,1
;   supportLowerSeparationLayers,1
;   supportType,0
;   supportGridSpacing,4
;   maxOverhangAngle,45
;   supportAngles,0
;   temperatureName,Primary Extruder,Heated Bed
;   temperatureNumber,0,1
;   temperatureSetpointCount,1,1
;   temperatureSetpointLayers,1,1
;   temperatureSetpointTemperatures,250,55
;   temperatureStabilizeAtStartup,1,1
;   temperatureHeatedBed,0,1
;   fanLayers,1
;   fanSpeeds,100
;   blipFanToFullPower,1
;   adjustSpeedForCooling,0
;   minSpeedLayerTime,15
;   minCoolingSpeedSlowdown,80
;   increaseFanForCooling,0
;   minFanLayerTime,20
;   maxCoolingFanSpeed,100
;   increaseFanForBridging,0
;   bridgingFanSpeed,100
;   use5D,1
;   relativeEdistances,1
;   allowEaxisZeroing,1
;   independentExtruderAxes,0
;   includeM10123,0
;   stickySupport,1
;   applyToolheadOffsets,0
;   gcodeXoffset,0
;   gcodeYoffset,0
;   gcodeZoffset,0
;   overrideMachineDefinition,1
;   machineTypeOverride,0
;   strokeXoverride,200
;   strokeYoverride,200
;   strokeZoverride,200
;   originOffsetXoverride,0
;   originOffsetYoverride,0
;   originOffsetZoverride,0
;   homeXdirOverride,-1
;   homeYdirOverride,-1
;   homeZdirOverride,-1
;   flipXoverride,1
;   flipYoverride,-1
;   flipZoverride,1
;   toolheadOffsets,0,0|0,0|0,0|0,0|0,0|0,0
;   overrideFirmwareConfiguration,1
;   firmwareTypeOverride,RepRap (Marlin/Repetier/Sprinter)
;   GPXconfigOverride,r2
;   baudRateOverride,115200
;   overridePrinterModels,0
;   printerModelsOverride
;   startingGcode,G28,G92 E0.0
;   layerChangeGcode,
;   retractionGcode,
;   toolChangeGcode,
;   endingGcode,M104 S0 ; turn off extruder,M140 S0 ; turn off bed,G28 X0 ; home X axis,M84 ; disable motors,M107 ; turn off fan
;   exportFileFormat,gcode
;   celebration,0
;   celebrationSong,Take On Me
;   postProcessing,
;   defaultSpeed,2502
;   outlineUnderspeed,0.9
;   solidInfillUnderspeed,0.8
;   supportUnderspeed,0.8
;   rapidXYspeed,7800
;   rapidZspeed,1002
;   minBridgingArea,5
;   bridgingExtraInflation,0
;   bridgingExtrusionMultiplier,1
;   bridgingSpeedMultiplier,0.3
;   useFixedBridgingAngle,0
;   fixedBridgingAngle,0
;   applyBridgingToPerimeters,0
;   filamentDiameters,1.75|1.75|1.75|1.75|1.75|1.75
;   filamentPricesPerKg,1000|1000|1000|1000|1000|1000
;   filamentDensities,1.25|1.25|1.25|1.25|1.25|1.25
;   useMinPrintHeight,0
;   minPrintHeight,0.3
;   useMaxPrintHeight,0
;   maxPrintHeight,15
;   useDiaphragm,0
;   diaphragmLayerInterval,20
;   robustSlicing,1
;   mergeAllIntoSolid,0
;   onlyRetractWhenCrossingOutline,0
;   retractBetweenLayers,0
;   useRetractionMinTravel,0
;   retractionMinTravel,3
;   retractWhileWiping,0
;   onlyWipeOutlines,1
;   avoidCrossingOutline,1
;   maxMovementDetourFactor,3
;   toolChangeRetractionDistance,0
;   toolChangeExtraRestartDistance,0
;   toolChangeRetractionSpeed,360
;   externalThinWallType,0
;   internalThinWallType,2
;   thinWallAllowedOverlapPercentage,10
;   singleExtrusionMinLength,1
;   singleExtrusionMinPrintingWidthPercentage,50
;   singleExtrusionMaxPrintingWidthPercentage,200
;   singleExtrusionEndpointExtension,0.2
;   horizontalSizeCompensation,0
G90
M83
M106 S255
M140 S55
M190 S55
M104 S250 T0
M109 S250 T0
G28
G92 E0.0
; process PProp
; layer 1, Z = 0.270
T0
; feature skirt
; tool H0.270 W0.420
G1 Z0.270 F1002
G1 X34.703 Y34.293 F7800
G1 E0.1200 F1800
G1 X35.596 Y33.377 E0.0271 F1251
G1 X35.645 Y33.329 E0.0015
G1 X36.322 Y32.707 E0.0195
G1 X36.402 Y32.640 E0.0022
G1 X37.168 Y32.050 E0.0205
G1 X37.224 Y32.009 E0.0015
G1 X38.067 Y31.433 E0.0217
G1 X38.129 Y31.393 E0.0016
G1 X38.784 Y31.000 E0.0162
G1 X38.852 Y30.962 E0.0016
G1 X40.303 Y30.213 E0.0346
G1 X40.372 Y30.180 E0.0016
G1 X41.365 Y29.744 E0.0230
G1 X41.446 Y29.711 E0.0019
G1 X42.552 Y29.318 E0.0249
G1 X42.647 Y29.288 E0.0021
G1 X43.619 Y29.029 E0.0213
G1 X43.704 Y29.009 E0.0018
G1 X45.358 Y28.691 E0.0357
G1 X45.436 Y28.679 E0.0017
G1 X46.082 Y28.598 E0.0138
G1 X46.156 Y28.591 E0.0016
G1 X47.130 Y28.528 E0.0207
G1 X47.245 Y28.526 E0.0024
G1 X48.108 Y28.552 E0.0183
G1 X48.210 Y28.559 E0.0022
G1 X49.209 Y28.673 E0.0213
G1 X49.335 Y28.694 E0.0027
G1 X50.329 Y28.913 E0.0216
G1 X50.422 Y28.938 E0.0020
G1 X51.393 Y29.234 E0.0215
G1 X51.505 Y29.274 E0.0025
G1 X52.281 Y29.596 E0.0178
G1 X52.343 Y29.623 E0.0014
G1 X53.160 Y30.016 E0.0192
G1 X53.206 Y30.040 E0.0011
G1 X54.616 Y30.794 E0.0339
G1 X54.664 Y30.821 E0.0012
G1 X55.966 Y31.594 E0.0321
G1 X56.003 Y31.617 E0.0009
G1 X57.962 Y32.878 E0.0494
G1 X57.987 Y32.895 E0.0006
G1 X58.679 Y33.364 E0.0177
G1 X58.717 Y33.360 E0.0008
G1 X59.454 Y33.890 E0.0192
G1 X60.322 Y34.479 E0.0223
G1 X60.327 Y34.518 E0.0008
G1 X60.766 Y34.834 E0.0115
G1 X60.813 Y34.830 E0.0010
G1 X61.542 Y35.393 E0.0195
G1 X62.379 Y35.995 E0.0219
G1 X62.384 Y36.043 E0.0010
G1 X62.420 Y36.072 E0.0010
G1 X63.826 Y37.245 E0.0388
G1 X63.869 Y37.283 E0.0012
G1 X64.517 Y37.877 E0.0186
G1 X64.559 Y37.917 E0.0012
G1 X65.325 Y38.691 E0.0231
G1 X65.378 Y38.747 E0.0016
G1 X66.204 Y39.693 E0.0266
G1 X66.263 Y39.766 E0.0020
G1 X66.703 Y40.355 E0.0156
G1 X66.747 Y40.418 E0.0016
G1 X67.127 Y41.002 E0.0148
G1 X67.171 Y41.075 E0.0018
G1 X67.499 Y41.665 E0.0143
G1 X67.542 Y41.747 E0.0020
G1 X67.817 Y42.345 E0.0140
G1 X67.855 Y42.437 E0.0021
G1 X68.077 Y43.042 E0.0137
G1 X68.109 Y43.141 E0.0022
G1 X68.276 Y43.754 E0.0135
G1 X68.300 Y43.857 E0.0022
G1 X68.417 Y44.498 E0.0138
G1 X68.435 Y44.644 E0.0031
G1 X68.508 Y45.849 E0.0256
G1 X68.507 Y46.019 E0.0036
G1 X68.412 Y47.239 E0.0259
G1 X68.394 Y47.371 E0.0028
G1 X68.166 Y48.577 E0.0260
G1 X68.144 Y48.673 E0.0021
G1 X67.812 Y49.885 E0.0267
G1 X67.785 Y49.972 E0.0019
G1 X67.548 Y50.641 E0.0151
G1 X67.515 Y50.725 E0.0019
G1 X67.206 Y51.426 E0.0163
G1 X67.165 Y51.511 E0.0020
G1 X66.757 Y52.272 E0.0183
G1 X66.713 Y52.347 E0.0019
G1 X66.213 Y53.139 E0.0199
G1 X66.177 Y53.193 E0.0014
G1 X65.546 Y54.083 E0.0232
G1 X65.519 Y54.120 E0.0010
G1 X64.739 Y55.139 E0.0272
G1 X64.716 Y55.168 E0.0008
G1 X63.762 Y56.337 E0.0320
G1 X63.741 Y56.363 E0.0007
G1 X58.864 Y62.022 E0.1585
G1 X58.865 Y62.036 E0.0003
G1 X58.213 Y62.778 E0.0210
G1 X57.557 Y63.539 E0.0213
G1 X57.542 Y63.540 E0.0003
G1 X55.095 Y66.323 E0.0786
G1 X55.088 Y66.331 E0.0002
G1 X53.004 Y68.656 E0.0662
G1 X52.986 Y68.677 E0.0006
G1 X51.849 Y69.889 E0.0353
G1 X51.807 Y69.931 E0.0013
G1 X50.257 Y71.432 E0.0458
G1 X50.191 Y71.491 E0.0019
G1 X49.457 Y72.106 E0.0203
G1 X49.387 Y72.161 E0.0019
G1 X48.699 Y72.657 E0.0180
G1 X48.622 Y72.708 E0.0020
G1 X47.967 Y73.109 E0.0163
G1 X47.890 Y73.152 E0.0019
G1 X47.254 Y73.481 E0.0152
G1 X47.175 Y73.518 E0.0019
G1 X46.000 Y74.022 E0.0271
G1 X45.925 Y74.051 E0.0017
G1 X43.929 Y74.758 E0.0449
G1 X43.845 Y74.784 E0.0019
G1 X42.871 Y75.052 E0.0214
G1 X42.694 Y75.087 E0.0038
G1 X42.153 Y75.152 E0.0116
G1 X41.946 Y75.160 E0.0044
G1 X41.338 Y75.130 E0.0129
G1 X41.133 Y75.103 E0.0044
G1 X40.266 Y74.911 E0.0188
G1 X40.114 Y74.868 E0.0033
G1 X38.844 Y74.410 E0.0286
G1 X38.723 Y74.359 E0.0028
G1 X37.616 Y73.821 E0.0261
G1 X37.519 Y73.768 E0.0023
G1 X36.328 Y73.051 E0.0295
G1 X36.260 Y73.006 E0.0017
G1 X35.606 Y72.551 E0.0169
G1 X35.543 Y72.504 E0.0017
G1 X34.251 Y71.475 E0.0350
G1 X34.190 Y71.423 E0.0017
G1 X32.840 Y70.196 E0.0387
G1 X32.806 Y70.163 E0.0010
G1 X32.788 Y70.145 E0.0005
G1 X32.735 Y70.146 E0.0011
G1 X32.029 Y69.399 E0.0218
G1 X31.378 Y68.758 E0.0194
G1 X31.376 Y68.708 E0.0011
G1 X30.817 Y68.116 E0.0173
G1 X30.776 Y68.116 E0.0009
G1 X30.071 Y67.328 E0.0224
G1 X29.449 Y66.670 E0.0192
G1 X29.449 Y66.631 E0.0008
G1 X29.094 Y66.235 E0.0113
G1 X29.069 Y66.206 E0.0008
G1 X27.539 Y64.381 E0.0505
G1 X27.497 Y64.329 E0.0014
G1 X26.072 Y62.425 E0.0505
G1 X26.030 Y62.366 E0.0015
G1 X25.381 Y61.383 E0.0250
G1 X25.346 Y61.328 E0.0014
G1 X24.772 Y60.349 E0.0241
G1 X24.733 Y60.277 E0.0018
G1 X24.243 Y59.297 E0.0232
G1 X24.199 Y59.199 E0.0023
G1 X23.817 Y58.231 E0.0221
G1 X23.782 Y58.128 E0.0023
G1 X23.503 Y57.183 E0.0209
G1 X23.477 Y57.077 E0.0023
G1 X23.293 Y56.157 E0.0199
G1 X23.277 Y56.054 E0.0022
G1 X23.177 Y55.162 E0.0190
G1 X23.170 Y55.065 E0.0021
G1 X23.142 Y54.204 E0.0183
G1 X23.142 Y54.118 E0.0018
G1 X23.172 Y53.288 E0.0176
G1 X23.177 Y53.216 E0.0015
G1 X23.255 Y52.408 E0.0172
G1 X23.265 Y52.332 E0.0016
G1 X23.503 Y50.842 E0.0320
G1 X23.513 Y50.783 E0.0013
G1 X23.670 Y50.039 E0.0161
G1 X23.684 Y49.982 E0.0012
G1 X24.043 Y48.605 E0.0302
G1 X24.070 Y48.516 E0.0020
G1 X24.678 Y46.745 E0.0397
G1 X24.705 Y46.675 E0.0016
G1 X24.985 Y45.996 E0.0156
G1 X25.011 Y45.939 E0.0013
G1 X25.305 Y45.318 E0.0146
G1 X25.357 Y45.221 E0.0023
G1 X25.730 Y44.588 E0.0156
G1 X25.819 Y44.458 E0.0033
G1 X26.311 Y43.827 E0.0170
G1 X26.356 Y43.772 E0.0015
G1 X30.091 Y39.511 E0.1202
G1 X30.764 Y38.742 E0.0217
G1 X31.428 Y37.985 E0.0214
G1 X33.727 Y35.364 E0.0740
G1 X33.742 Y35.347 E0.0005
G1 X34.674 Y34.323 E0.0294
G1 X34.703 Y34.293 E0.0009
G1 X34.982 Y34.608 F7800
G1 E0.1200 F1800
G1 X35.006 Y34.583 E0.0007 F1251
G1 X35.892 Y33.674 E0.0269
G1 X35.933 Y33.634 E0.0012
G1 X36.600 Y33.023 E0.0192
G1 X36.666 Y32.967 E0.0018
G1 X37.420 Y32.386 E0.0202
G1 X37.466 Y32.352 E0.0012
G1 X38.299 Y31.783 E0.0214
G1 X38.350 Y31.750 E0.0013
G1 X38.994 Y31.364 E0.0159
G1 X39.050 Y31.333 E0.0014
G1 X40.489 Y30.589 E0.0344
G1 X40.547 Y30.562 E0.0014
G1 X41.527 Y30.132 E0.0227
G1 X41.594 Y30.105 E0.0015
G1 X42.685 Y29.716 E0.0246
G1 X42.764 Y29.692 E0.0017
G1 X43.720 Y29.436 E0.0210
G1 X43.791 Y29.420 E0.0015
G1 X45.430 Y29.105 E0.0354
G1 X45.496 Y29.095 E0.0014
G1 X46.128 Y29.016 E0.0135
G1 X46.189 Y29.010 E0.0013
G1 X47.147 Y28.948 E0.0204
G1 X47.243 Y28.946 E0.0020
G1 X48.087 Y28.972 E0.0179
G1 X48.171 Y28.978 E0.0018
G1 X49.151 Y29.089 E0.0209
G1 X49.255 Y29.106 E0.0022
G1 X50.230 Y29.322 E0.0212
G1 X50.307 Y29.342 E0.0017
G1 X51.261 Y29.633 E0.0212
G1 X51.353 Y29.666 E0.0021
G1 X52.115 Y29.981 E0.0175
G1 X52.166 Y30.004 E0.0012
G1 X52.973 Y30.393 E0.0190
G1 X53.012 Y30.412 E0.0009
G1 X54.414 Y31.162 E0.0337
G1 X54.453 Y31.184 E0.0010
G1 X55.748 Y31.953 E0.0319
G1 X55.779 Y31.972 E0.0008
G1 X57.733 Y33.230 E0.0493
G1 X57.753 Y33.244 E0.0005
G1 X58.572 Y33.799 E0.0210
G1 X58.604 Y33.796 E0.0007
G1 X59.213 Y34.234 E0.0159
G1 X59.930 Y34.721 E0.0184
G1 X59.935 Y34.753 E0.0007
G1 X60.649 Y35.268 E0.0187
G1 X60.688 Y35.264 E0.0008
G1 X61.291 Y35.730 E0.0162
G1 X61.983 Y36.227 E0.0181
G1 X61.987 Y36.267 E0.0009
G1 X62.124 Y36.373 E0.0037
G1 X62.154 Y36.397 E0.0008
G1 X63.553 Y37.565 E0.0387
G1 X63.589 Y37.596 E0.0010
G1 X64.229 Y38.183 E0.0184
G1 X64.264 Y38.217 E0.0010
G1 X65.022 Y38.981 E0.0228
G1 X65.066 Y39.028 E0.0014
G1 X65.882 Y39.963 E0.0263
G1 X65.932 Y40.024 E0.0017
G1 X66.362 Y40.601 E0.0153
G1 X66.399 Y40.653 E0.0014
G1 X66.771 Y41.225 E0.0145
G1 X66.808 Y41.285 E0.0015
G1 X67.129 Y41.862 E0.0140
G1 X67.163 Y41.931 E0.0016
G1 X67.432 Y42.513 E0.0136
G1 X67.464 Y42.589 E0.0017
G1 X67.680 Y43.179 E0.0133
G1 X67.706 Y43.260 E0.0018
G1 X67.869 Y43.857 E0.0131
G1 X67.888 Y43.942 E0.0019
G1 X68.002 Y44.561 E0.0134
G1 X68.016 Y44.682 E0.0026
G1 X68.088 Y45.860 E0.0250
G1 X68.087 Y46.001 E0.0030
G1 X67.994 Y47.194 E0.0254
G1 X67.979 Y47.304 E0.0024
G1 X67.755 Y48.491 E0.0256
G1 X67.736 Y48.570 E0.0017
G1 X67.409 Y49.767 E0.0263
G1 X67.387 Y49.839 E0.0016
G1 X67.155 Y50.493 E0.0147
G1 X67.127 Y50.563 E0.0016
G1 X66.825 Y51.249 E0.0159
G1 X66.791 Y51.320 E0.0017
G1 X66.391 Y52.067 E0.0180
G1 X66.354 Y52.129 E0.0015
G1 X65.861 Y52.910 E0.0196
G1 X65.831 Y52.955 E0.0011
G1 X65.206 Y53.837 E0.0229
G1 X65.184 Y53.868 E0.0008
G1 X64.408 Y54.881 E0.0271
G1 X64.388 Y54.905 E0.0007
G1 X63.438 Y56.070 E0.0319
G1 X63.421 Y56.091 E0.0006
G1 X58.433 Y61.878 E0.1621
G1 X58.434 Y61.889 E0.0002
G1 X57.896 Y62.502 E0.0173
G1 X57.353 Y63.132 E0.0177
G1 X57.341 Y63.133 E0.0003
G1 X54.781 Y66.044 E0.0823
G1 X54.774 Y66.051 E0.0002
G1 X52.693 Y68.374 E0.0662
G1 X52.678 Y68.391 E0.0005
G1 X51.546 Y69.598 E0.0351
G1 X51.511 Y69.633 E0.0010
G1 X49.970 Y71.125 E0.0455
G1 X49.916 Y71.174 E0.0015
G1 X49.194 Y71.779 E0.0200
G1 X49.135 Y71.825 E0.0016
G1 X48.460 Y72.311 E0.0177
G1 X48.396 Y72.354 E0.0016
G1 X47.754 Y72.747 E0.0160
G1 X47.690 Y72.783 E0.0016
G1 X47.068 Y73.104 E0.0149
G1 X47.002 Y73.135 E0.0015
G1 X45.840 Y73.634 E0.0268
G1 X45.779 Y73.658 E0.0014
G1 X43.796 Y74.360 E0.0446
G1 X43.726 Y74.381 E0.0016
G1 X42.775 Y74.643 E0.0209
G1 X42.628 Y74.671 E0.0032
G1 X42.120 Y74.733 E0.0109
G1 X41.948 Y74.739 E0.0037
G1 X41.376 Y74.712 E0.0122
G1 X41.206 Y74.689 E0.0036
G1 X40.369 Y74.504 E0.0182
G1 X40.244 Y74.468 E0.0028
G1 X38.997 Y74.019 E0.0281
G1 X38.897 Y73.977 E0.0023
G1 X37.808 Y73.447 E0.0257
G1 X37.728 Y73.404 E0.0019
G1 X36.551 Y72.694 E0.0292
G1 X36.494 Y72.658 E0.0014
G1 X35.852 Y72.210 E0.0166
G1 X35.799 Y72.171 E0.0014
G1 X34.518 Y71.151 E0.0348
G1 X34.467 Y71.108 E0.0014
G1 X33.126 Y69.888 E0.0385
G1 X33.097 Y69.860 E0.0008
G1 X32.956 Y69.722 E0.0042
G1 X32.913 Y69.723 E0.0009
G1 X32.329 Y69.105 E0.0180
G1 X31.791 Y68.575 E0.0160
G1 X31.789 Y68.533 E0.0009
G1 X30.997 Y67.695 E0.0245
G1 X30.963 Y67.695 E0.0007
G1 X30.380 Y67.043 E0.0186
G1 X29.866 Y66.499 E0.0159
G1 X29.866 Y66.467 E0.0007
G1 X29.410 Y65.957 E0.0145
G1 X29.389 Y65.933 E0.0007
G1 X27.865 Y64.116 E0.0503
G1 X27.830 Y64.072 E0.0012
G1 X26.411 Y62.178 E0.0502
