; G-Code generated by Simplify3D(R) Version 4.1.2
; Sep 24, 2022 at 2:32:08 PM
; Settings Summary
;   processName,PProp
;   applyToModels,Fuse-6
;   profileName,PProp - LW-PLA
;   profileVersion,2022-05-27 11:45:37
;   baseProfile,Default
;   printMaterial,
;   printQuality,
;   printExtruders,
;   extruderName,Primary Extruder
;   extruderToolheadNumber,0
;   extruderDiameter,0.4
;   extruderAutoWidth,0
;   extruderWidth,0.42
;   extrusionMultiplier,0.45
;   extruderUseRetract,1
;   extruderRetractionDistance,0
;   extruderExtraRestartDistance,0.12
;   extruderRetractionZLift,0
;   extruderRetractionSpeed,1800
;   extruderUseCoasting,1
;   extruderCoastingDistance,0.2
;   extruderUseWipe,1
;   extruderWipeDistance,2
;   primaryExtruder,0
;   layerHeight,0.3
;   topSolidLayers,0
;   bottomSolidLayers,0
;   perimeterOutlines,1
;   printPerimetersInsideOut,1
;   startPointOption,2
;   startPointOriginX,0
;   startPointOriginY,-100
;   sequentialIslands,0
;   spiralVaseMode,1
;   firstLayerHeightPercentage,90
;   firstLayerWidthPercentage,100
;   firstLayerUnderspeed,0.5
;   useRaft,0
;   raftExtruder,0
;   raftTopLayers,3
;   raftBaseLayers,2
;   raftOffset,3
;   raftSeparationDistance,0.14
;   raftTopInfill,100
;   aboveRaftSpeedMultiplier,0.3
;   useSkirt,1
;   skirtExtruder,0
;   skirtLayers,1
;   skirtOutlines,3
;   skirtOffset,1.4
;   usePrimePillar,0
;   primePillarExtruder,999
;   primePillarWidth,12
;   primePillarLocation,7
;   primePillarSpeedMultiplier,1
;   useOozeShield,0
;   oozeShieldExtruder,999
;   oozeShieldOffset,2
;   oozeShieldOutlines,1
;   oozeShieldSidewallShape,1
;   oozeShieldSidewallAngle,30
;   oozeShieldSpeedMultiplier,1
;   infillExtruder,0
;   internalInfillPattern,Rectilinear
;   externalInfillPattern,Rectilinear
;   infillPercentage,0
;   outlineOverlapPercentage,15
;   infillExtrusionWidthPercentage,100
;   minInfillLength,5
;   infillLayerInterval,1
;   internalInfillAngles,45,-45
;   overlapInternalInfillAngles,0
;   externalInfillAngles,45,-45
;   generateSupport,0
;   supportExtruder,0
;   supportInfillPercentage,30
;   supportExtraInflation,0
;   supportBaseLayers,0
;   denseSupportExtruder,0
;   denseSupportLayers,0
;   denseSupportInfillPercentage,70
;   supportLayerInterval,1
;   supportHorizontalPartOffset,0.3
;   supportUpperSeparationLayers,1
;   supportLowerSeparationLayers,1
;   supportType,0
;   supportGridSpacing,4
;   maxOverhangAngle,45
;   supportAngles,0
;   temperatureName,Primary Extruder,Heated Bed
;   temperatureNumber,0,1
;   temperatureSetpointCount,1,1
;   temperatureSetpointLayers,1,1
;   temperatureSetpointTemperatures,250,55
;   temperatureStabilizeAtStartup,1,1
;   temperatureHeatedBed,0,1
;   fanLayers,1
;   fanSpeeds,100
;   blipFanToFullPower,1
;   adjustSpeedForCooling,0
;   minSpeedLayerTime,15
;   minCoolingSpeedSlowdown,80
;   increaseFanForCooling,0
;   minFanLayerTime,20
;   maxCoolingFanSpeed,100
;   increaseFanForBridging,0
;   bridgingFanSpeed,100
;   use5D,1
;   relativeEdistances,1
;   allowEaxisZeroing,1
;   independentExtruderAxes,0
;   includeM10123,0
;   stickySupport,1
;   applyToolheadOffsets,0
;   gcodeXoffset,0
;   gcodeYoffset,0
;   gcodeZoffset,0
;   overrideMachineDefinition,1
;   machineTypeOverride,0
;   strokeXoverride,200
;   strokeYoverride,200
;   strokeZoverride,200
;   originOffsetXoverride,0
;   originOffsetYoverride,0
;   originOffsetZoverride,0
;   homeXdirOverride,-1
;   homeYdirOverride,-1
;   homeZdirOverride,-1
;   flipXoverride,1
;   flipYoverride,-1
;   flipZoverride,1
;   toolheadOffsets,0,0|0,0|0,0|0,0|0,0|0,0
;   overrideFirmwareConfiguration,1
;   firmwareTypeOverride,RepRap (Marlin/Repetier/Sprinter)
;   GPXconfigOverride,r2
;   baudRateOverride,115200
;   overridePrinterModels,0
;   printerModelsOverride
;   startingGcode,G28,G92 E0.0
;   layerChangeGcode,
;   retractionGcode,
;   toolChangeGcode,
;   endingGcode,M104 S0 ; turn off extruder,M140 S0 ; turn off bed,G28 X0 ; home X axis,M84 ; disable motors,M107 ; turn off fan
;   exportFileFormat,gcode
;   celebration,0
;   celebrationSong,Take On Me
;   postProcessing,
;   defaultSpeed,2502
;   outlineUnderspeed,0.9
;   solidInfillUnderspeed,0.8
;   supportUnderspeed,0.8
;   rapidXYspeed,7800
;   rapidZspeed,1002
;   minBridgingArea,5
;   bridgingExtraInflation,0
;   bridgingExtrusionMultiplier,1
;   bridgingSpeedMultiplier,0.3
;   useFixedBridgingAngle,0
;   fixedBridgingAngle,0
;   applyBridgingToPerimeters,0
;   filamentDiameters,1.75|1.75|1.75|1.75|1.75|1.75
;   filamentPricesPerKg,1000|1000|1000|1000|1000|1000
;   filamentDensities,1.25|1.25|1.25|1.25|1.25|1.25
;   useMinPrintHeight,0
;   minPrintHeight,0.3
;   useMaxPrintHeight,0
;   maxPrintHeight,15
;   useDiaphragm,0
;   diaphragmLayerInterval,20
;   robustSlicing,1
;   mergeAllIntoSolid,0
;   onlyRetractWhenCrossingOutline,0
;   retractBetweenLayers,0
;   useRetractionMinTravel,0
;   retractionMinTravel,3
;   retractWhileWiping,0
;   onlyWipeOutlines,1
;   avoidCrossingOutline,1
;   maxMovementDetourFactor,3
;   toolChangeRetractionDistance,0
;   toolChangeExtraRestartDistance,0
;   toolChangeRetractionSpeed,360
;   externalThinWallType,0
;   internalThinWallType,2
;   thinWallAllowedOverlapPercentage,10
;   singleExtrusionMinLength,1
;   singleExtrusionMinPrintingWidthPercentage,50
;   singleExtrusionMaxPrintingWidthPercentage,200
;   singleExtrusionEndpointExtension,0.2
;   horizontalSizeCompensation,0
G90
M83
M106 S255
M140 S55
M190 S55
M104 S250 T0
M109 S250 T0
G28
G92 E0.0
; process PProp
; layer 1, Z = 0.270
T0
; feature skirt
; tool H0.270 W0.420
G1 Z0.270 F1002
G1 X19.573 Y19.678 F7800
G1 E0.1200 F1800
G1 X19.646 Y19.608 E0.0021 F1251
G1 X20.591 Y18.777 E0.0267
G1 X20.680 Y18.705 E0.0024
G1 X21.208 Y18.322 E0.0138
G1 X21.293 Y18.265 E0.0022
G1 X21.845 Y17.931 E0.0137
G1 X21.976 Y17.863 E0.0031
G1 X23.011 Y17.396 E0.0241
G1 X23.137 Y17.348 E0.0029
G1 X23.706 Y17.163 E0.0127
G1 X23.795 Y17.138 E0.0020
G1 X24.520 Y16.962 E0.0158
G1 X24.609 Y16.944 E0.0019
G1 X25.642 Y16.773 E0.0222
G1 X25.705 Y16.765 E0.0013
G1 X26.584 Y16.666 E0.0188
G1 X26.671 Y16.659 E0.0019
G1 X28.280 Y16.594 E0.0342
G1 X28.385 Y16.594 E0.0022
G1 X29.004 Y16.622 E0.0131
G1 X29.106 Y16.631 E0.0022
G1 X30.256 Y16.781 E0.0246
G1 X30.370 Y16.801 E0.0024
G1 X31.013 Y16.948 E0.0140
G1 X31.131 Y16.981 E0.0026
G1 X32.302 Y17.374 E0.0262
G1 X32.400 Y17.411 E0.0022
G1 X33.026 Y17.683 E0.0145
G1 X33.102 Y17.719 E0.0018
G1 X34.284 Y18.331 E0.0283
G1 X34.374 Y18.382 E0.0022
G1 X36.172 Y19.515 E0.0451
G1 X36.236 Y19.558 E0.0016
G1 X37.133 Y20.206 E0.0235
G1 X37.200 Y20.200 E0.0014
G1 X37.915 Y20.771 E0.0194
G1 X38.730 Y21.359 E0.0213
G1 X38.738 Y21.427 E0.0014
G1 X39.366 Y21.928 E0.0170
G1 X39.424 Y21.978 E0.0016
G1 X41.095 Y23.493 E0.0479
G1 X41.164 Y23.560 E0.0020
G1 X42.118 Y24.572 E0.0295
G1 X42.166 Y24.627 E0.0016
G1 X42.505 Y25.032 E0.0112
G1 X42.630 Y25.041 E0.0027
G1 X43.236 Y26.006 E0.0242
G1 X43.683 Y26.613 E0.0160
G1 X43.679 Y26.711 E0.0021
G1 X43.737 Y26.803 E0.0023
G1 X43.786 Y26.889 E0.0021
G1 X44.073 Y27.440 E0.0132
G1 X44.126 Y27.557 E0.0027
G1 X44.534 Y28.593 E0.0236
G1 X44.588 Y28.767 E0.0039
G1 X44.830 Y29.824 E0.0230
G1 X44.857 Y29.994 E0.0036
G1 X44.946 Y31.037 E0.0222
G1 X44.950 Y31.184 E0.0031
G1 X44.915 Y32.209 E0.0218
G1 X44.905 Y32.323 E0.0024
G1 X44.773 Y33.353 E0.0220
G1 X44.751 Y33.475 E0.0026
G1 X44.505 Y34.525 E0.0229
G1 X44.471 Y34.645 E0.0026
G1 X44.273 Y35.221 E0.0129
G1 X44.237 Y35.313 E0.0021
G1 X43.988 Y35.882 E0.0132
G1 X43.945 Y35.972 E0.0021
G1 X43.629 Y36.560 E0.0142
G1 X43.581 Y36.642 E0.0020
G1 X43.159 Y37.298 E0.0166
G1 X43.114 Y37.364 E0.0017
G1 X42.547 Y38.132 E0.0203
G1 X42.496 Y38.197 E0.0018
G1 X40.903 Y40.075 E0.0522
G1 X40.454 Y40.680 E0.0160
G1 X40.460 Y40.850 E0.0036
G1 X39.730 Y41.574 E0.0218
G1 X39.103 Y42.245 E0.0195
G1 X39.052 Y42.248 E0.0011
G1 X38.994 Y42.306 E0.0018
G1 X37.416 Y44.132 E0.0512
G1 X37.359 Y44.192 E0.0018
G1 X36.691 Y44.867 E0.0202
G1 X36.633 Y44.922 E0.0017
G1 X36.049 Y45.440 E0.0166
G1 X35.970 Y45.504 E0.0021
G1 X35.380 Y45.945 E0.0156
G1 X35.259 Y46.025 E0.0031
G1 X34.282 Y46.590 E0.0239
G1 X34.128 Y46.665 E0.0036
G1 X33.107 Y47.078 E0.0234
G1 X32.989 Y47.119 E0.0026
G1 X31.992 Y47.408 E0.0220
G1 X31.881 Y47.435 E0.0024
G1 X30.894 Y47.624 E0.0213
G1 X30.789 Y47.639 E0.0023
G1 X30.232 Y47.696 E0.0119
G1 X30.109 Y47.703 E0.0026
G1 X29.063 Y47.704 E0.0222
G1 X28.884 Y47.691 E0.0038
G1 X27.810 Y47.534 E0.0230
G1 X27.676 Y47.507 E0.0029
G1 X27.079 Y47.350 E0.0131
G1 X26.962 Y47.313 E0.0026
G1 X25.884 Y46.911 E0.0244
G1 X25.786 Y46.869 E0.0023
G1 X25.203 Y46.592 E0.0137
G1 X25.134 Y46.556 E0.0016
G1 X24.373 Y46.133 E0.0185
G1 X24.311 Y46.096 E0.0015
G1 X23.384 Y45.507 E0.0233
G1 X23.331 Y45.471 E0.0014
G1 X22.738 Y45.048 E0.0155
G1 X22.692 Y45.013 E0.0012
G1 X21.525 Y44.096 E0.0315
G1 X21.477 Y44.057 E0.0013
G1 X20.308 Y43.038 E0.0329
G1 X20.299 Y43.031 E0.0002
G1 X20.260 Y43.032 E0.0008
G1 X19.533 Y42.314 E0.0217
G1 X18.846 Y41.670 E0.0200
G1 X18.844 Y41.632 E0.0008
G1 X18.571 Y41.362 E0.0081
G1 X18.532 Y41.322 E0.0012
G1 X18.274 Y41.043 E0.0081
G1 X17.871 Y41.074 E0.0086
G1 X17.656 Y41.072 E0.0046
G1 X17.008 Y41.008 E0.0138
G1 X16.799 Y40.969 E0.0045
G1 X16.172 Y40.795 E0.0138
G1 X15.970 Y40.719 E0.0046
G1 X15.383 Y40.438 E0.0138
G1 X15.200 Y40.330 E0.0045
G1 X15.051 Y40.223 E0.0039
G1 X14.710 Y40.212 E0.0072
G1 X14.103 Y39.400 E0.0215
G1 X13.565 Y38.850 E0.0163
G1 X13.559 Y38.662 E0.0040
G1 X13.451 Y38.480 E0.0045
G1 X13.172 Y37.864 E0.0143
G1 X13.102 Y37.663 E0.0045
G1 X12.939 Y37.033 E0.0138
G1 X12.904 Y36.820 E0.0046
G1 X12.854 Y36.171 E0.0138
G1 X12.856 Y35.958 E0.0045
G1 X12.919 Y35.310 E0.0138
G1 X12.959 Y35.098 E0.0046
G1 X13.135 Y34.471 E0.0138
G1 X13.209 Y34.272 E0.0045
G1 X13.490 Y33.685 E0.0138
G1 X13.600 Y33.499 E0.0046
G1 X13.844 Y33.158 E0.0089
G1 X13.807 Y32.916 E0.0052
G1 X13.798 Y32.845 E0.0015
G1 X13.696 Y31.776 E0.0228
G1 X13.692 Y31.708 E0.0014
G1 X13.650 Y30.654 E0.0224
G1 X13.649 Y30.580 E0.0016
G1 X13.670 Y29.537 E0.0221
G1 X13.675 Y29.454 E0.0018
G1 X13.725 Y28.881 E0.0122
G1 X13.740 Y28.770 E0.0024
G1 X13.937 Y27.689 E0.0233
G1 X13.983 Y27.513 E0.0039
G1 X14.350 Y26.436 E0.0241
G1 X14.409 Y26.295 E0.0033
G1 X14.682 Y25.735 E0.0132
G1 X14.722 Y25.658 E0.0018
G1 X15.028 Y25.129 E0.0130
G1 X15.081 Y25.046 E0.0021
G1 X15.756 Y24.069 E0.0252
G1 X15.818 Y23.988 E0.0022
G1 X16.672 Y22.950 E0.0285
G1 X16.669 Y22.911 E0.0008
G1 X17.303 Y22.183 E0.0205
G1 X17.931 Y21.420 E0.0210
G1 X17.971 Y21.416 E0.0009
G1 X18.634 Y20.656 E0.0214
G1 X18.675 Y20.611 E0.0013
G1 X19.573 Y19.678 E0.0275
G1 X19.870 Y19.976 F7800
G1 E0.1200 F1800
G1 X19.930 Y19.918 E0.0018 F1251
G1 X20.861 Y19.099 E0.0263
G1 X20.935 Y19.039 E0.0020
G1 X21.448 Y18.667 E0.0134
G1 X21.518 Y18.620 E0.0018
G1 X22.052 Y18.297 E0.0132
G1 X22.160 Y18.240 E0.0026
G1 X23.173 Y17.784 E0.0236
G1 X23.277 Y17.744 E0.0024
G1 X23.828 Y17.565 E0.0123
G1 X23.901 Y17.544 E0.0016
G1 X24.611 Y17.372 E0.0155
G1 X24.685 Y17.357 E0.0016
G1 X25.705 Y17.189 E0.0219
G1 X25.757 Y17.181 E0.0011
G1 X26.623 Y17.084 E0.0185
G1 X26.696 Y17.078 E0.0015
G1 X28.288 Y17.014 E0.0338
G1 X28.375 Y17.014 E0.0019
G1 X28.976 Y17.041 E0.0128
G1 X29.061 Y17.049 E0.0018
G1 X30.192 Y17.196 E0.0242
G1 X30.287 Y17.213 E0.0020
G1 X30.909 Y17.355 E0.0136
G1 X31.007 Y17.382 E0.0022
G1 X32.160 Y17.769 E0.0258
G1 X32.241 Y17.800 E0.0018
G1 X32.852 Y18.065 E0.0141
G1 X32.915 Y18.095 E0.0015
G1 X34.083 Y18.700 E0.0279
G1 X34.158 Y18.742 E0.0018
G1 X35.942 Y19.866 E0.0447
G1 X35.995 Y19.902 E0.0014
G1 X37.014 Y20.638 E0.0267
G1 X37.069 Y20.634 E0.0012
G1 X37.661 Y21.106 E0.0161
G1 X38.334 Y21.592 E0.0176
G1 X38.341 Y21.648 E0.0012
G1 X39.098 Y22.252 E0.0206
G1 X39.147 Y22.294 E0.0014
G1 X40.807 Y23.798 E0.0475
G1 X40.864 Y23.854 E0.0017
G1 X41.808 Y24.855 E0.0292
G1 X41.848 Y24.901 E0.0013
G1 X42.277 Y25.415 E0.0142
G1 X42.295 Y25.438 E0.0006
G1 X42.387 Y25.444 E0.0020
G1 X42.889 Y26.242 E0.0200
G1 X43.258 Y26.744 E0.0132
G1 X43.255 Y26.825 E0.0017
G1 X43.377 Y27.019 E0.0049
G1 X43.417 Y27.090 E0.0017
G1 X43.695 Y27.624 E0.0128
G1 X43.739 Y27.721 E0.0023
G1 X44.137 Y28.732 E0.0230
G1 X44.182 Y28.876 E0.0032
G1 X44.418 Y29.903 E0.0224
G1 X44.440 Y30.044 E0.0030
G1 X44.527 Y31.061 E0.0216
G1 X44.530 Y31.182 E0.0026
G1 X44.495 Y32.185 E0.0213
G1 X44.488 Y32.279 E0.0020
G1 X44.358 Y33.289 E0.0216
G1 X44.339 Y33.390 E0.0022
G1 X44.099 Y34.420 E0.0224
G1 X44.070 Y34.518 E0.0022
G1 X43.879 Y35.076 E0.0125
G1 X43.849 Y35.153 E0.0017
G1 X43.607 Y35.706 E0.0128
G1 X43.571 Y35.781 E0.0017
G1 X43.262 Y36.354 E0.0138
G1 X43.223 Y36.422 E0.0017
G1 X42.809 Y37.066 E0.0162
G1 X42.772 Y37.120 E0.0014
G1 X42.213 Y37.877 E0.0200
G1 X42.171 Y37.931 E0.0015
G1 X40.574 Y39.814 E0.0524
G1 X40.029 Y40.548 E0.0194
G1 X40.034 Y40.681 E0.0028
G1 X39.429 Y41.282 E0.0181
G1 X38.911 Y41.835 E0.0161
G1 X38.870 Y41.837 E0.0009
G1 X38.686 Y42.019 E0.0055
G1 X37.103 Y43.851 E0.0514
G1 X37.056 Y43.902 E0.0015
G1 X36.397 Y44.567 E0.0199
G1 X36.349 Y44.613 E0.0014
G1 X35.777 Y45.120 E0.0162
G1 X35.712 Y45.173 E0.0018
G1 X35.138 Y45.601 E0.0152
G1 X35.038 Y45.667 E0.0025
G1 X34.085 Y46.219 E0.0234
G1 X33.957 Y46.281 E0.0030
G1 X32.959 Y46.685 E0.0228
G1 X32.862 Y46.718 E0.0022
G1 X31.885 Y47.002 E0.0216
G1 X31.793 Y47.024 E0.0020
G1 X30.824 Y47.210 E0.0209
G1 X30.737 Y47.222 E0.0019
G1 X30.200 Y47.278 E0.0114
G1 X30.098 Y47.283 E0.0022
G1 X29.078 Y47.284 E0.0216
G1 X28.930 Y47.273 E0.0032
G1 X27.883 Y47.120 E0.0225
G1 X27.772 Y47.098 E0.0024
G1 X27.196 Y46.947 E0.0126
G1 X27.099 Y46.916 E0.0022
G1 X26.039 Y46.520 E0.0240
G1 X25.958 Y46.486 E0.0019
G1 X25.389 Y46.215 E0.0134
G1 X25.332 Y46.186 E0.0014
G1 X24.583 Y45.769 E0.0182
G1 X24.531 Y45.738 E0.0013
G1 X23.615 Y45.155 E0.0230
G1 X23.571 Y45.126 E0.0011
G1 X22.986 Y44.709 E0.0152
G1 X22.947 Y44.680 E0.0010
G1 X21.788 Y43.769 E0.0313
G1 X21.749 Y43.737 E0.0011
G1 X20.587 Y42.724 E0.0327
G1 X20.559 Y42.699 E0.0008
G1 X20.457 Y42.604 E0.0030
G1 X20.425 Y42.605 E0.0007
G1 X19.825 Y42.011 E0.0179
G1 X19.256 Y41.478 E0.0165
G1 X19.254 Y41.447 E0.0007
G1 X18.870 Y41.067 E0.0115
G1 X18.838 Y41.034 E0.0010
G1 X18.445 Y40.608 E0.0123
G1 X17.857 Y40.654 E0.0125
G1 X17.679 Y40.652 E0.0038
G1 X17.067 Y40.592 E0.0130
G1 X16.894 Y40.560 E0.0037
G1 X16.302 Y40.395 E0.0130
G1 X16.135 Y40.333 E0.0038
G1 X15.581 Y40.067 E0.0130
G1 X15.429 Y39.978 E0.0037
G1 X15.191 Y39.808 E0.0062
G1 X14.926 Y39.799 E0.0056
G1 X14.423 Y39.126 E0.0178
G1 X13.979 Y38.673 E0.0134
G1 X13.975 Y38.526 E0.0031
G1 X13.936 Y38.474 E0.0014
G1 X13.824 Y38.285 E0.0047
G1 X13.562 Y37.707 E0.0135
G1 X13.504 Y37.541 E0.0037
G1 X13.350 Y36.946 E0.0130
G1 X13.321 Y36.770 E0.0038
G1 X13.274 Y36.157 E0.0130
G1 X13.276 Y35.981 E0.0037
G1 X13.336 Y35.369 E0.0130
G1 X13.368 Y35.193 E0.0038
G1 X13.534 Y34.602 E0.0130
G1 X13.596 Y34.437 E0.0037
G1 X13.861 Y33.882 E0.0130
G1 X13.952 Y33.729 E0.0038
G1 X14.286 Y33.264 E0.0121
G1 X14.223 Y32.858 E0.0087
G1 X14.216 Y32.799 E0.0013
G1 X14.115 Y31.742 E0.0225
G1 X14.111 Y31.686 E0.0012
G1 X14.070 Y30.643 E0.0221
G1 X14.069 Y30.583 E0.0013
G1 X14.090 Y29.553 E0.0218
G1 X14.094 Y29.484 E0.0015
G1 X14.143 Y28.928 E0.0118
G1 X14.155 Y28.836 E0.0020
G1 X14.347 Y27.780 E0.0228
G1 X14.385 Y27.634 E0.0032
G1 X14.743 Y26.584 E0.0235
G1 X14.792 Y26.467 E0.0027
G1 X15.056 Y25.926 E0.0128
G1 X15.090 Y25.862 E0.0015
G1 X15.388 Y25.347 E0.0126
G1 X15.431 Y25.278 E0.0017
G1 X16.097 Y24.316 E0.0248
G1 X16.148 Y24.248 E0.0018
G1 X17.102 Y23.088 E0.0319
