; G-Code generated by Simplify3D(R) Version 4.1.2
; Sep 24, 2022 at 2:38:29 PM
; Settings Summary
;   processName,PProp
;   applyToModels,HStab-L
;   profileName,PProp - LW-PLA
;   profileVersion,2022-05-27 11:45:37
;   baseProfile,Default
;   printMaterial,
;   printQuality,
;   printExtruders,
;   extruderName,Primary Extruder
;   extruderToolheadNumber,0
;   extruderDiameter,0.4
;   extruderAutoWidth,0
;   extruderWidth,0.42
;   extrusionMultiplier,0.45
;   extruderUseRetract,1
;   extruderRetractionDistance,0
;   extruderExtraRestartDistance,0.12
;   extruderRetractionZLift,0
;   extruderRetractionSpeed,1800
;   extruderUseCoasting,1
;   extruderCoastingDistance,0.2
;   extruderUseWipe,1
;   extruderWipeDistance,2
;   primaryExtruder,0
;   layerHeight,0.3
;   topSolidLayers,0
;   bottomSolidLayers,0
;   perimeterOutlines,1
;   printPerimetersInsideOut,1
;   startPointOption,2
;   startPointOriginX,0
;   startPointOriginY,-100
;   sequentialIslands,0
;   spiralVaseMode,1
;   firstLayerHeightPercentage,90
;   firstLayerWidthPercentage,100
;   firstLayerUnderspeed,0.5
;   useRaft,0
;   raftExtruder,0
;   raftTopLayers,3
;   raftBaseLayers,2
;   raftOffset,3
;   raftSeparationDistance,0.14
;   raftTopInfill,100
;   aboveRaftSpeedMultiplier,0.3
;   useSkirt,1
;   skirtExtruder,0
;   skirtLayers,1
;   skirtOutlines,3
;   skirtOffset,1.4
;   usePrimePillar,0
;   primePillarExtruder,999
;   primePillarWidth,12
;   primePillarLocation,7
;   primePillarSpeedMultiplier,1
;   useOozeShield,0
;   oozeShieldExtruder,999
;   oozeShieldOffset,2
;   oozeShieldOutlines,1
;   oozeShieldSidewallShape,1
;   oozeShieldSidewallAngle,30
;   oozeShieldSpeedMultiplier,1
;   infillExtruder,0
;   internalInfillPattern,Rectilinear
;   externalInfillPattern,Rectilinear
;   infillPercentage,0
;   outlineOverlapPercentage,15
;   infillExtrusionWidthPercentage,100
;   minInfillLength,5
;   infillLayerInterval,1
;   internalInfillAngles,45,-45
;   overlapInternalInfillAngles,0
;   externalInfillAngles,45,-45
;   generateSupport,0
;   supportExtruder,0
;   supportInfillPercentage,30
;   supportExtraInflation,0
;   supportBaseLayers,0
;   denseSupportExtruder,0
;   denseSupportLayers,0
;   denseSupportInfillPercentage,70
;   supportLayerInterval,1
;   supportHorizontalPartOffset,0.3
;   supportUpperSeparationLayers,1
;   supportLowerSeparationLayers,1
;   supportType,0
;   supportGridSpacing,4
;   maxOverhangAngle,45
;   supportAngles,0
;   temperatureName,Primary Extruder,Heated Bed
;   temperatureNumber,0,1
;   temperatureSetpointCount,1,1
;   temperatureSetpointLayers,1,1
;   temperatureSetpointTemperatures,250,55
;   temperatureStabilizeAtStartup,1,1
;   temperatureHeatedBed,0,1
;   fanLayers,1
;   fanSpeeds,100
;   blipFanToFullPower,1
;   adjustSpeedForCooling,0
;   minSpeedLayerTime,15
;   minCoolingSpeedSlowdown,80
;   increaseFanForCooling,0
;   minFanLayerTime,20
;   maxCoolingFanSpeed,100
;   increaseFanForBridging,0
;   bridgingFanSpeed,100
;   use5D,1
;   relativeEdistances,1
;   allowEaxisZeroing,1
;   independentExtruderAxes,0
;   includeM10123,0
;   stickySupport,1
;   applyToolheadOffsets,0
;   gcodeXoffset,0
;   gcodeYoffset,0
;   gcodeZoffset,0
;   overrideMachineDefinition,1
;   machineTypeOverride,0
;   strokeXoverride,200
;   strokeYoverride,200
;   strokeZoverride,200
;   originOffsetXoverride,0
;   originOffsetYoverride,0
;   originOffsetZoverride,0
;   homeXdirOverride,-1
;   homeYdirOverride,-1
;   homeZdirOverride,-1
;   flipXoverride,1
;   flipYoverride,-1
;   flipZoverride,1
;   toolheadOffsets,0,0|0,0|0,0|0,0|0,0|0,0
;   overrideFirmwareConfiguration,1
;   firmwareTypeOverride,RepRap (Marlin/Repetier/Sprinter)
;   GPXconfigOverride,r2
;   baudRateOverride,115200
;   overridePrinterModels,0
;   printerModelsOverride
;   startingGcode,G28,G92 E0.0
;   layerChangeGcode,
;   retractionGcode,
;   toolChangeGcode,
;   endingGcode,M104 S0 ; turn off extruder,M140 S0 ; turn off bed,G28 X0 ; home X axis,M84 ; disable motors,M107 ; turn off fan
;   exportFileFormat,gcode
;   celebration,0
;   celebrationSong,Take On Me
;   postProcessing,
;   defaultSpeed,2502
;   outlineUnderspeed,0.9
;   solidInfillUnderspeed,0.8
;   supportUnderspeed,0.8
;   rapidXYspeed,7800
;   rapidZspeed,1002
;   minBridgingArea,5
;   bridgingExtraInflation,0
;   bridgingExtrusionMultiplier,1
;   bridgingSpeedMultiplier,0.3
;   useFixedBridgingAngle,0
;   fixedBridgingAngle,0
;   applyBridgingToPerimeters,0
;   filamentDiameters,1.75|1.75|1.75|1.75|1.75|1.75
;   filamentPricesPerKg,1000|1000|1000|1000|1000|1000
;   filamentDensities,1.25|1.25|1.25|1.25|1.25|1.25
;   useMinPrintHeight,0
;   minPrintHeight,0.3
;   useMaxPrintHeight,0
;   maxPrintHeight,15
;   useDiaphragm,0
;   diaphragmLayerInterval,20
;   robustSlicing,1
;   mergeAllIntoSolid,0
;   onlyRetractWhenCrossingOutline,0
;   retractBetweenLayers,0
;   useRetractionMinTravel,0
;   retractionMinTravel,3
;   retractWhileWiping,0
;   onlyWipeOutlines,1
;   avoidCrossingOutline,1
;   maxMovementDetourFactor,3
;   toolChangeRetractionDistance,0
;   toolChangeExtraRestartDistance,0
;   toolChangeRetractionSpeed,360
;   externalThinWallType,0
;   internalThinWallType,2
;   thinWallAllowedOverlapPercentage,10
;   singleExtrusionMinLength,1
;   singleExtrusionMinPrintingWidthPercentage,50
;   singleExtrusionMaxPrintingWidthPercentage,200
;   singleExtrusionEndpointExtension,0.2
;   horizontalSizeCompensation,0
G90
M83
M106 S255
M140 S55
M190 S55
M104 S250 T0
M109 S250 T0
G28
G92 E0.0
; process PProp
; layer 1, Z = 0.270
T0
; feature skirt
; tool H0.270 W0.420
G1 Z0.270 F1002
G1 X20.497 Y19.487 F7800
G1 E0.1200 F1800
G1 X20.828 Y19.207 E0.0092 F1251
G1 X21.563 Y18.781 E0.0180
G1 X22.123 Y18.615 E0.0124
G1 X22.905 Y18.575 E0.0166
G1 X23.309 Y18.622 E0.0086
G1 X24.556 Y18.981 E0.0275
G1 X24.769 Y19.065 E0.0049
G1 X25.407 Y19.387 E0.0152
G1 X25.499 Y19.438 E0.0022
G1 X26.899 Y20.303 E0.0349
G1 X26.977 Y20.356 E0.0020
G1 X27.685 Y20.872 E0.0186
G1 X27.726 Y20.903 E0.0011
G1 X29.442 Y22.269 E0.0465
G1 X29.500 Y22.318 E0.0016
G1 X32.278 Y24.825 E0.0794
G1 X32.323 Y24.868 E0.0013
G1 X35.380 Y27.922 E0.0917
G1 X35.414 Y27.957 E0.0010
G1 X38.622 Y31.428 E0.1003
G1 X38.650 Y31.460 E0.0009
G1 X41.872 Y35.197 E0.1047
G1 X41.892 Y35.221 E0.0007
G1 X42.388 Y35.826 E0.0166
G1 X42.411 Y35.828 E0.0005
G1 X43.034 Y36.615 E0.0213
G1 X43.654 Y37.372 E0.0208
G1 X43.652 Y37.394 E0.0005
G1 X48.372 Y43.351 E0.1612
G1 X48.380 Y43.362 E0.0003
G1 X54.900 Y51.779 E0.2259
G1 X54.684 Y53.748 E0.0420
G1 X48.316 Y59.044 E0.1757
G1 X46.345 Y58.899 E0.0419
G1 X41.294 Y53.263 E0.1606
G1 X41.287 Y53.255 E0.0002
G1 X37.095 Y48.501 E0.1345
G1 X37.086 Y48.491 E0.0003
G1 X32.443 Y43.103 E0.1509
G1 X32.415 Y43.069 E0.0009
G1 X29.287 Y39.167 E0.1061
G1 X29.261 Y39.133 E0.0009
G1 X26.503 Y35.440 E0.0978
G1 X26.475 Y35.401 E0.0010
G1 X23.999 Y31.797 E0.0928
G1 X23.970 Y31.752 E0.0011
G1 X22.487 Y29.376 E0.0594
G1 X22.457 Y29.326 E0.0012
G1 X21.392 Y27.423 E0.0463
G1 X21.366 Y27.374 E0.0012
G1 X20.548 Y25.744 E0.0387
G1 X20.501 Y25.638 E0.0025
G1 X19.902 Y24.093 E0.0351
G1 X19.868 Y23.993 E0.0022
G1 X19.668 Y23.307 E0.0152
G1 X19.624 Y23.082 E0.0049
G1 X19.499 Y21.793 E0.0275
G1 X19.526 Y21.392 E0.0085
G1 X19.698 Y20.655 E0.0161
G1 X19.951 Y20.145 E0.0121
G1 X20.497 Y19.487 E0.0181
G1 X20.796 Y19.784 F7800
G1 E0.1200 F1800
G1 X21.071 Y19.551 E0.0076 F1251
G1 X21.730 Y19.169 E0.0162
G1 X22.195 Y19.032 E0.0103
G1 X22.891 Y18.997 E0.0148
G1 X23.226 Y19.035 E0.0071
G1 X24.421 Y19.379 E0.0264
G1 X24.598 Y19.449 E0.0040
G1 X25.210 Y19.758 E0.0146
G1 X25.286 Y19.800 E0.0019
G1 X26.671 Y20.656 E0.0345
G1 X26.736 Y20.700 E0.0017
G1 X27.434 Y21.209 E0.0183
G1 X27.468 Y21.235 E0.0009
G1 X29.176 Y22.593 E0.0463
G1 X29.224 Y22.634 E0.0013
G1 X31.993 Y25.133 E0.0791
G1 X32.030 Y25.169 E0.0011
G1 X35.080 Y28.216 E0.0915
G1 X35.108 Y28.245 E0.0009
G1 X38.311 Y31.710 E0.1001
G1 X38.335 Y31.737 E0.0007
G1 X41.553 Y35.469 E0.1046
G1 X41.569 Y35.489 E0.0005
G1 X42.173 Y36.226 E0.0202
G1 X42.191 Y36.228 E0.0004
G1 X42.707 Y36.878 E0.0176
G1 X43.219 Y37.504 E0.0172
G1 X43.217 Y37.523 E0.0004
G1 X48.042 Y43.611 E0.1648
G1 X48.049 Y43.620 E0.0002
G1 X54.464 Y51.902 E0.2223
G1 X54.285 Y53.533 E0.0348
G1 X48.178 Y58.612 E0.1685
G1 X46.544 Y58.492 E0.0348
G1 X41.607 Y52.983 E0.1570
G1 X41.602 Y52.977 E0.0002
G1 X37.411 Y48.225 E0.1344
G1 X37.404 Y48.216 E0.0002
G1 X32.763 Y42.832 E0.1508
G1 X32.740 Y42.804 E0.0008
G1 X29.617 Y38.907 E0.1060
G1 X29.596 Y38.879 E0.0007
G1 X26.842 Y35.192 E0.0976
G1 X26.819 Y35.160 E0.0009
G1 X24.348 Y31.563 E0.0926
G1 X24.324 Y31.525 E0.0009
G1 X22.846 Y29.158 E0.0592
G1 X22.821 Y29.116 E0.0010
G1 X21.761 Y27.222 E0.0460
G1 X21.740 Y27.182 E0.0010
G1 X20.928 Y25.565 E0.0384
G1 X20.889 Y25.477 E0.0020
G1 X20.297 Y23.950 E0.0347
G1 X20.269 Y23.867 E0.0019
G1 X20.076 Y23.208 E0.0146
G1 X20.041 Y23.022 E0.0040
G1 X19.920 Y21.786 E0.0263
G1 X19.942 Y21.454 E0.0071
G1 X20.096 Y20.798 E0.0143
G1 X20.306 Y20.376 E0.0100
G1 X20.796 Y19.784 E0.0163
G1 X21.096 Y20.080 F7800
G1 E0.1200 F1800
G1 X21.314 Y19.896 E0.0061 F1251
G1 X21.897 Y19.558 E0.0143
G1 X22.266 Y19.449 E0.0082
G1 X22.878 Y19.418 E0.0130
G1 X23.143 Y19.448 E0.0057
G1 X24.286 Y19.778 E0.0252
G1 X24.426 Y19.833 E0.0032
G1 X25.013 Y20.129 E0.0139
G1 X25.073 Y20.163 E0.0015
G1 X26.444 Y21.009 E0.0342
G1 X26.495 Y21.044 E0.0013
G1 X27.183 Y21.546 E0.0181
G1 X27.210 Y21.566 E0.0007
G1 X28.909 Y22.918 E0.0461
G1 X28.947 Y22.950 E0.0011
G1 X31.707 Y25.442 E0.0789
G1 X31.737 Y25.470 E0.0009
G1 X34.780 Y28.511 E0.0913
G1 X34.803 Y28.534 E0.0007
G1 X38.000 Y31.993 E0.0999
G1 X38.019 Y32.014 E0.0006
G1 X41.233 Y35.741 E0.1044
G1 X41.246 Y35.757 E0.0004
G1 X41.957 Y36.626 E0.0238
G1 X41.972 Y36.627 E0.0003
G1 X42.379 Y37.141 E0.0139
G1 X42.785 Y37.636 E0.0136
G1 X42.783 Y37.651 E0.0003
G1 X47.712 Y43.871 E0.1684
G1 X47.718 Y43.878 E0.0002
G1 X54.028 Y52.025 E0.2186
G1 X53.886 Y53.319 E0.0276
G1 X48.040 Y58.181 E0.1613
G1 X46.744 Y58.086 E0.0276
G1 X41.921 Y52.703 E0.1533
G1 X41.916 Y52.699 E0.0001
G1 X37.727 Y47.948 E0.1344
G1 X37.721 Y47.941 E0.0002
G1 X33.084 Y42.560 E0.1507
G1 X33.065 Y42.538 E0.0006
G1 X29.947 Y38.647 E0.1058
G1 X29.930 Y38.625 E0.0006
G1 X27.181 Y34.944 E0.0975
G1 X27.163 Y34.918 E0.0007
G1 X24.697 Y31.329 E0.0924
G1 X24.677 Y31.299 E0.0008
G1 X23.205 Y28.940 E0.0590
G1 X23.185 Y28.906 E0.0008
G1 X22.130 Y27.021 E0.0458
G1 X22.113 Y26.989 E0.0008
G1 X21.308 Y25.385 E0.0381
G1 X21.277 Y25.315 E0.0016
G1 X20.692 Y23.806 E0.0343
G1 X20.669 Y23.741 E0.0015
G1 X20.485 Y23.110 E0.0139
G1 X20.457 Y22.962 E0.0032
G1 X20.342 Y21.780 E0.0252
G1 X20.359 Y21.517 E0.0056
G1 X20.494 Y20.941 E0.0125
G1 X20.660 Y20.606 E0.0079
G1 X21.096 Y20.080 E0.0145
; feature outer perimeter
G1 X22.382 Y21.380 F7800
G1 E0.1200 F1800
G1 X22.600 Y21.254 E0.0053 F1126
G1 X22.801 Y21.244 E0.0043
G1 X23.013 Y21.306 E0.0047
G1 X23.245 Y21.352 E0.0050
G1 X23.687 Y21.498 E0.0099
G1 X24.155 Y21.735 E0.0111
G1 X24.791 Y22.114 E0.0157
G1 X25.453 Y22.536 E0.0167
G1 X26.094 Y23.004 E0.0168
G1 X27.753 Y24.324 E0.0450
G1 X28.450 Y24.927 E0.0195
G1 X29.494 Y25.874 E0.0299
G1 X30.469 Y26.776 E0.0282
G1 X31.257 Y27.540 E0.0233
G1 X33.480 Y29.784 E0.0670
G1 X34.324 Y30.675 E0.0260
G1 X36.652 Y33.216 E0.0731
G1 X37.514 Y34.194 E0.0277
G1 X39.846 Y36.920 E0.0761
G1 X40.824 Y38.115 E0.0328
G1 X35.532 Y42.516 E0.1460
G1 X35.818 Y42.850 E0.0093
G1 X41.101 Y38.457 E0.1458
G1 X43.063 Y40.905 E0.0666
G1 X46.282 Y44.998 E0.1105
G1 X48.247 Y47.510 E0.0677
G1 X52.067 Y52.465 E0.1327
G1 X47.531 Y56.237 E0.1252
G1 X43.279 Y51.492 E0.1352
G1 X39.096 Y46.748 E0.1342
G1 X36.547 Y43.820 E0.0824
G1 X34.474 Y41.386 E0.0678
G1 X32.220 Y38.597 E0.0761
G1 X31.378 Y37.523 E0.0290
G1 X29.342 Y34.819 E0.0718
G1 X28.652 Y33.872 E0.0249
G1 X26.818 Y31.232 E0.0682
G1 X26.210 Y30.318 E0.0233
G1 X24.760 Y27.995 E0.0581
G1 X24.294 Y27.199 E0.0196
G1 X23.729 Y26.152 E0.0252
G1 X23.260 Y25.253 E0.0215
G1 X22.957 Y24.613 E0.0150
G1 X22.662 Y23.884 E0.0167
G1 X22.405 Y23.190 E0.0157
G1 X22.258 Y22.687 E0.0111
G1 X22.195 Y22.225 E0.0099
G1 X22.191 Y21.989 E0.0050
G1 X22.169 Y21.769 E0.0047
G1 X22.212 Y21.586 E0.0040
G1 X22.255 Y21.534 E0.0014
G1 X22.382 Y21.380 F1126
G1 X22.600 Y21.254 F1126
G1 X22.801 Y21.244
G1 X23.013 Y21.306
G1 X23.245 Y21.352
G1 X23.687 Y21.498
G1 X24.155 Y21.735
G1 X24.241 Y21.786
; layer 2, Z = 0.570
; tool H0.300 W0.420
G1 X24.194 Y21.762 F7800
G1 X24.800 Y22.124 Z0.272 E0.0084 F2252
G1 X25.459 Y22.543 Z0.274 E0.0093
G1 X26.142 Y23.044 Z0.277 E0.0102
G1 X27.758 Y24.331 Z0.282 E0.0254
G1 X28.449 Y24.928 Z0.285 E0.0113
G1 X29.504 Y25.885 Z0.289 E0.0179
G1 X30.474 Y26.782 Z0.293 E0.0167
G1 X31.255 Y27.539 Z0.296 E0.0139
G1 X33.485 Y29.790 Z0.305 E0.0416
G1 X34.321 Y30.673 Z0.308 E0.0161
G1 X36.657 Y33.221 Z0.318 E0.0472
G1 X37.511 Y34.191 Z0.321 E0.0178
G1 X39.850 Y36.925 Z0.331 E0.0511
G1 X40.824 Y38.115 Z0.336 E0.0221
G1 X35.532 Y42.516 Z0.355 E0.1041
G1 X35.816 Y42.847 Z0.356 E0.0066
G1 X41.101 Y38.457 Z0.376 E0.1095
G1 X43.065 Y40.907 Z0.384 E0.0511
G1 X46.295 Y45.013 Z0.399 E0.0881
G1 X48.289 Y47.564 Z0.408 E0.0558
G1 X52.067 Y52.465 Z0.426 E0.1107
G1 X47.531 Y56.237 Z0.442 E0.1094
G1 X43.281 Y51.494 Z0.460 E0.1226
G1 X39.086 Y46.737 Z0.478 E0.1265
G1 X36.556 Y43.831 Z0.489 E0.0785
G1 X34.479 Y41.391 Z0.498 E0.0664
G1 X32.217 Y38.593 Z0.508 E0.0760
G1 X31.384 Y37.530 Z0.512 E0.0287
G1 X29.340 Y34.815 Z0.521 E0.0736
G1 X28.624 Y33.833 Z0.525 E0.0265
G1 X26.818 Y31.230 Z0.533 E0.0701
G1 X26.258 Y30.388 Z0.536 E0.0225
G1 X24.858 Y28.151 Z0.544 E0.0595
G1 X24.332 Y27.262 Z0.547 E0.0234
G1 X23.330 Y25.383 Z0.553 E0.0487
G1 X22.962 Y24.619 Z0.555 E0.0195
G1 X22.670 Y23.896 Z0.557 E0.0180
G1 X22.389 Y23.137 Z0.559 E0.0187
G1 X22.264 Y22.695 Z0.561 E0.0107
G1 X22.201 Y22.231 Z0.562 E0.0109
G1 X22.175 Y21.779 Z0.563 E0.0106
G1 X22.222 Y21.581 Z0.564 E0.0047
G1 X22.387 Y21.389 Z0.565 E0.0059
G1 X22.606 Y21.262 Z0.565 E0.0059
G1 X22.809 Y21.251 Z0.566 E0.0048
G1 X23.249 Y21.359 Z0.567 E0.0106
G1 X23.692 Y21.506 Z0.568 E0.0110
G1 X24.194 Y21.762 Z0.570 E0.0133
; layer 3, Z = 0.870
G1 X24.236 Y21.786 Z0.570 E0.0011 F2252
G1 X25.466 Y22.550 Z0.574 E0.0341
G1 X26.194 Y23.086 Z0.577 E0.0213
G1 X27.764 Y24.337 Z0.582 E0.0473
G1 X28.212 Y24.725 Z0.584 E0.0140
G1 X28.448 Y24.929 Z0.585 E0.0074
G1 X29.516 Y25.897 Z0.589 E0.0340
G1 X30.479 Y26.789 Z0.593 E0.0309
G1 X31.253 Y27.538 Z0.596 E0.0254
G1 X33.490 Y29.796 Z0.605 E0.0749
G1 X34.319 Y30.671 Z0.608 E0.0284
G1 X36.661 Y33.227 Z0.618 E0.0817
G1 X37.508 Y34.188 Z0.621 E0.0302
G1 X39.854 Y36.930 Z0.631 E0.0851
G1 X40.824 Y38.115 Z0.636 E0.0361
G1 X35.532 Y42.516 Z0.655 E0.1622
G1 X35.819 Y42.850 Z0.656 E0.0104
G1 X41.101 Y38.457 Z0.676 E0.1619
G1 X43.067 Y40.910 Z0.684 E0.0741
G1 X46.308 Y45.030 Z0.699 E0.1236
G1 X48.333 Y47.620 Z0.708 E0.0775
G1 X52.067 Y52.465 Z0.726 E0.1442
G1 X47.531 Y56.237 Z0.742 E0.1391
G1 X43.282 Y51.496 Z0.760 E0.1501
G1 X39.074 Y46.724 Z0.778 E0.1500
G1 X36.568 Y43.844 Z0.789 E0.0900
G1 X34.483 Y41.396 Z0.798 E0.0758
G1 X32.214 Y38.589 Z0.808 E0.0851
G1 X31.390 Y37.537 Z0.811 E0.0315
G1 X29.338 Y34.812 Z0.821 E0.0804
G1 X28.629 Y33.839 Z0.824 E0.0284
G1 X26.817 Y31.227 Z0.833 E0.0749
G1 X26.279 Y30.419 Z0.836 E0.0229
G1 X24.901 Y28.218 Z0.843 E0.0612
G1 X24.350 Y27.290 Z0.846 E0.0254
G1 X23.362 Y25.441 Z0.852 E0.0494
G1 X22.968 Y24.626 Z0.855 E0.0213
G1 X22.678 Y23.907 Z0.857 E0.0183
G1 X22.394 Y23.140 Z0.859 E0.0193
G1 X22.271 Y22.703 Z0.861 E0.0107
G1 X22.208 Y22.241 Z0.862 E0.0110
