; G-Code generated by Simplify3D(R) Version 4.1.2
; Sep 24, 2022 at 2:38:41 PM
; Settings Summary
;   processName,PProp
;   applyToModels,HStab-R
;   profileName,PProp - LW-PLA
;   profileVersion,2022-05-27 11:45:37
;   baseProfile,Default
;   printMaterial,
;   printQuality,
;   printExtruders,
;   extruderName,Primary Extruder
;   extruderToolheadNumber,0
;   extruderDiameter,0.4
;   extruderAutoWidth,0
;   extruderWidth,0.42
;   extrusionMultiplier,0.45
;   extruderUseRetract,1
;   extruderRetractionDistance,0
;   extruderExtraRestartDistance,0.12
;   extruderRetractionZLift,0
;   extruderRetractionSpeed,1800
;   extruderUseCoasting,1
;   extruderCoastingDistance,0.2
;   extruderUseWipe,1
;   extruderWipeDistance,2
;   primaryExtruder,0
;   layerHeight,0.3
;   topSolidLayers,0
;   bottomSolidLayers,0
;   perimeterOutlines,1
;   printPerimetersInsideOut,1
;   startPointOption,2
;   startPointOriginX,0
;   startPointOriginY,-100
;   sequentialIslands,0
;   spiralVaseMode,1
;   firstLayerHeightPercentage,90
;   firstLayerWidthPercentage,100
;   firstLayerUnderspeed,0.5
;   useRaft,0
;   raftExtruder,0
;   raftTopLayers,3
;   raftBaseLayers,2
;   raftOffset,3
;   raftSeparationDistance,0.14
;   raftTopInfill,100
;   aboveRaftSpeedMultiplier,0.3
;   useSkirt,1
;   skirtExtruder,0
;   skirtLayers,1
;   skirtOutlines,3
;   skirtOffset,1.4
;   usePrimePillar,0
;   primePillarExtruder,999
;   primePillarWidth,12
;   primePillarLocation,7
;   primePillarSpeedMultiplier,1
;   useOozeShield,0
;   oozeShieldExtruder,999
;   oozeShieldOffset,2
;   oozeShieldOutlines,1
;   oozeShieldSidewallShape,1
;   oozeShieldSidewallAngle,30
;   oozeShieldSpeedMultiplier,1
;   infillExtruder,0
;   internalInfillPattern,Rectilinear
;   externalInfillPattern,Rectilinear
;   infillPercentage,0
;   outlineOverlapPercentage,15
;   infillExtrusionWidthPercentage,100
;   minInfillLength,5
;   infillLayerInterval,1
;   internalInfillAngles,45,-45
;   overlapInternalInfillAngles,0
;   externalInfillAngles,45,-45
;   generateSupport,0
;   supportExtruder,0
;   supportInfillPercentage,30
;   supportExtraInflation,0
;   supportBaseLayers,0
;   denseSupportExtruder,0
;   denseSupportLayers,0
;   denseSupportInfillPercentage,70
;   supportLayerInterval,1
;   supportHorizontalPartOffset,0.3
;   supportUpperSeparationLayers,1
;   supportLowerSeparationLayers,1
;   supportType,0
;   supportGridSpacing,4
;   maxOverhangAngle,45
;   supportAngles,0
;   temperatureName,Primary Extruder,Heated Bed
;   temperatureNumber,0,1
;   temperatureSetpointCount,1,1
;   temperatureSetpointLayers,1,1
;   temperatureSetpointTemperatures,250,55
;   temperatureStabilizeAtStartup,1,1
;   temperatureHeatedBed,0,1
;   fanLayers,1
;   fanSpeeds,100
;   blipFanToFullPower,1
;   adjustSpeedForCooling,0
;   minSpeedLayerTime,15
;   minCoolingSpeedSlowdown,80
;   increaseFanForCooling,0
;   minFanLayerTime,20
;   maxCoolingFanSpeed,100
;   increaseFanForBridging,0
;   bridgingFanSpeed,100
;   use5D,1
;   relativeEdistances,1
;   allowEaxisZeroing,1
;   independentExtruderAxes,0
;   includeM10123,0
;   stickySupport,1
;   applyToolheadOffsets,0
;   gcodeXoffset,0
;   gcodeYoffset,0
;   gcodeZoffset,0
;   overrideMachineDefinition,1
;   machineTypeOverride,0
;   strokeXoverride,200
;   strokeYoverride,200
;   strokeZoverride,200
;   originOffsetXoverride,0
;   originOffsetYoverride,0
;   originOffsetZoverride,0
;   homeXdirOverride,-1
;   homeYdirOverride,-1
;   homeZdirOverride,-1
;   flipXoverride,1
;   flipYoverride,-1
;   flipZoverride,1
;   toolheadOffsets,0,0|0,0|0,0|0,0|0,0|0,0
;   overrideFirmwareConfiguration,1
;   firmwareTypeOverride,RepRap (Marlin/Repetier/Sprinter)
;   GPXconfigOverride,r2
;   baudRateOverride,115200
;   overridePrinterModels,0
;   printerModelsOverride
;   startingGcode,G28,G92 E0.0
;   layerChangeGcode,
;   retractionGcode,
;   toolChangeGcode,
;   endingGcode,M104 S0 ; turn off extruder,M140 S0 ; turn off bed,G28 X0 ; home X axis,M84 ; disable motors,M107 ; turn off fan
;   exportFileFormat,gcode
;   celebration,0
;   celebrationSong,Take On Me
;   postProcessing,
;   defaultSpeed,2502
;   outlineUnderspeed,0.9
;   solidInfillUnderspeed,0.8
;   supportUnderspeed,0.8
;   rapidXYspeed,7800
;   rapidZspeed,1002
;   minBridgingArea,5
;   bridgingExtraInflation,0
;   bridgingExtrusionMultiplier,1
;   bridgingSpeedMultiplier,0.3
;   useFixedBridgingAngle,0
;   fixedBridgingAngle,0
;   applyBridgingToPerimeters,0
;   filamentDiameters,1.75|1.75|1.75|1.75|1.75|1.75
;   filamentPricesPerKg,1000|1000|1000|1000|1000|1000
;   filamentDensities,1.25|1.25|1.25|1.25|1.25|1.25
;   useMinPrintHeight,0
;   minPrintHeight,0.3
;   useMaxPrintHeight,0
;   maxPrintHeight,15
;   useDiaphragm,0
;   diaphragmLayerInterval,20
;   robustSlicing,1
;   mergeAllIntoSolid,0
;   onlyRetractWhenCrossingOutline,0
;   retractBetweenLayers,0
;   useRetractionMinTravel,0
;   retractionMinTravel,3
;   retractWhileWiping,0
;   onlyWipeOutlines,1
;   avoidCrossingOutline,1
;   maxMovementDetourFactor,3
;   toolChangeRetractionDistance,0
;   toolChangeExtraRestartDistance,0
;   toolChangeRetractionSpeed,360
;   externalThinWallType,0
;   internalThinWallType,2
;   thinWallAllowedOverlapPercentage,10
;   singleExtrusionMinLength,1
;   singleExtrusionMinPrintingWidthPercentage,50
;   singleExtrusionMaxPrintingWidthPercentage,200
;   singleExtrusionEndpointExtension,0.2
;   horizontalSizeCompensation,0
G90
M83
M106 S255
M140 S55
M190 S55
M104 S250 T0
M109 S250 T0
G28
G92 E0.0
; process PProp
; layer 1, Z = 0.270
T0
; feature skirt
; tool H0.270 W0.420
G1 Z0.270 F1002
G1 X20.076 Y19.306 F7800
G1 E0.1200 F1800
G1 X20.734 Y18.800 E0.0176 F1251
G1 X21.268 Y18.563 E0.0124
G1 X22.014 Y18.428 E0.0161
G1 X22.372 Y18.415 E0.0076
G1 X23.084 Y18.495 E0.0152
G1 X23.185 Y18.511 E0.0022
G1 X23.823 Y18.637 E0.0138
G1 X23.984 Y18.680 E0.0035
G1 X24.547 Y18.873 E0.0126
G1 X24.636 Y18.908 E0.0020
G1 X25.441 Y19.256 E0.0186
G1 X25.474 Y19.271 E0.0008
G1 X26.243 Y19.631 E0.0180
G1 X26.308 Y19.663 E0.0015
G1 X26.995 Y20.036 E0.0166
G1 X27.043 Y20.064 E0.0012
G1 X28.997 Y21.240 E0.0484
G1 X29.062 Y21.282 E0.0016
G1 X32.140 Y23.410 E0.0794
G1 X32.191 Y23.447 E0.0013
G1 X35.654 Y26.111 E0.0927
G1 X35.681 Y26.132 E0.0007
G1 X36.613 Y26.890 E0.0255
G1 X36.628 Y26.903 E0.0004
G1 X39.334 Y29.180 E0.0750
G1 X39.358 Y29.202 E0.0007
G1 X41.711 Y31.292 E0.0668
G1 X41.727 Y31.306 E0.0004
G1 X43.987 Y33.383 E0.0651
G1 X44.006 Y33.402 E0.0006
G1 X46.760 Y36.048 E0.0810
G1 X46.768 Y36.056 E0.0002
G1 X50.497 Y39.706 E0.1107
G1 X50.504 Y39.712 E0.0002
G1 X58.055 Y47.215 E0.2258
G1 X58.096 Y49.195 E0.0420
G1 X52.465 Y55.270 E0.1757
G1 X50.488 Y55.379 E0.0420
G1 X42.909 Y48.833 E0.2125
G1 X42.902 Y48.827 E0.0002
G1 X38.522 Y44.986 E0.1236
G1 X38.513 Y44.978 E0.0002
G1 X36.754 Y43.405 E0.0501
G1 X36.741 Y43.406 E0.0003
G1 X36.004 Y42.735 E0.0211
G1 X35.260 Y42.070 E0.0212
G1 X35.260 Y42.057 E0.0003
G1 X34.691 Y41.540 E0.0163
G1 X34.670 Y41.521 E0.0006
G1 X31.899 Y38.877 E0.0813
G1 X31.873 Y38.851 E0.0008
G1 X28.512 Y35.451 E0.1014
G1 X28.494 Y35.432 E0.0006
G1 X27.718 Y34.612 E0.0239
G1 X27.696 Y34.588 E0.0007
G1 X24.849 Y31.417 E0.0904
G1 X24.809 Y31.370 E0.0013
G1 X22.443 Y28.451 E0.0797
G1 X22.389 Y28.379 E0.0019
G1 X20.644 Y25.870 E0.0648
G1 X20.571 Y25.752 E0.0029
G1 X19.715 Y24.165 E0.0383
G1 X19.672 Y24.077 E0.0021
G1 X19.450 Y23.574 E0.0117
G1 X19.394 Y23.417 E0.0035
G1 X19.239 Y22.878 E0.0119
G1 X19.210 Y22.752 E0.0027
G1 X19.063 Y21.908 E0.0182
G1 X19.053 Y21.548 E0.0076
G1 X19.141 Y20.821 E0.0155
G1 X19.345 Y20.275 E0.0124
G1 X19.805 Y19.594 E0.0174
G1 X20.076 Y19.306 E0.0084
G1 X20.358 Y19.618 F7800
G1 E0.1200 F1800
G1 X20.950 Y19.164 E0.0158 F1251
G1 X21.393 Y18.968 E0.0103
G1 X22.059 Y18.846 E0.0144
G1 X22.355 Y18.836 E0.0063
G1 X23.028 Y18.911 E0.0144
G1 X23.112 Y18.924 E0.0018
G1 X23.728 Y19.046 E0.0133
G1 X23.861 Y19.082 E0.0029
G1 X24.403 Y19.268 E0.0122
G1 X24.477 Y19.296 E0.0017
G1 X25.272 Y19.640 E0.0184
G1 X25.299 Y19.653 E0.0006
G1 X26.059 Y20.008 E0.0178
G1 X26.113 Y20.035 E0.0013
G1 X26.791 Y20.403 E0.0164
G1 X26.831 Y20.426 E0.0010
G1 X28.775 Y21.597 E0.0482
G1 X28.828 Y21.631 E0.0013
G1 X31.897 Y23.752 E0.0791
G1 X31.939 Y23.783 E0.0011
G1 X35.396 Y26.442 E0.0925
G1 X35.418 Y26.459 E0.0006
G1 X36.347 Y27.215 E0.0254
G1 X36.359 Y27.226 E0.0004
G1 X39.061 Y29.500 E0.0749
G1 X39.081 Y29.518 E0.0006
G1 X41.431 Y31.605 E0.0667
G1 X41.444 Y31.616 E0.0004
G1 X43.701 Y33.691 E0.0650
G1 X43.717 Y33.706 E0.0005
G1 X46.468 Y36.350 E0.0809
G1 X46.475 Y36.356 E0.0002
G1 X50.203 Y40.005 E0.1107
G1 X50.209 Y40.011 E0.0002
G1 X57.639 Y47.393 E0.2222
G1 X57.672 Y49.033 E0.0348
G1 X52.272 Y54.860 E0.1685
G1 X50.634 Y54.950 E0.0348
G1 X43.184 Y48.516 E0.2088
G1 X43.179 Y48.511 E0.0002
G1 X38.799 Y44.670 E0.1236
G1 X38.792 Y44.664 E0.0002
G1 X36.906 Y42.978 E0.0537
G1 X36.896 Y42.979 E0.0002
G1 X36.286 Y42.423 E0.0175
G1 X35.671 Y41.874 E0.0175
G1 X35.671 Y41.864 E0.0002
G1 X34.976 Y41.231 E0.0199
G1 X34.958 Y41.215 E0.0005
G1 X32.191 Y38.575 E0.0811
G1 X32.169 Y38.554 E0.0006
G1 X28.813 Y35.157 E0.1013
G1 X28.798 Y35.142 E0.0005
G1 X28.025 Y34.326 E0.0238
G1 X28.007 Y34.306 E0.0006
G1 X25.165 Y31.140 E0.0902
G1 X25.132 Y31.101 E0.0011
G1 X22.774 Y28.192 E0.0794
G1 X22.729 Y28.133 E0.0016
G1 X20.995 Y25.640 E0.0644
G1 X20.935 Y25.542 E0.0024
G1 X20.089 Y23.973 E0.0378
G1 X20.053 Y23.900 E0.0017
G1 X19.840 Y23.418 E0.0112
G1 X19.793 Y23.287 E0.0029
G1 X19.646 Y22.773 E0.0113
G1 X19.622 Y22.669 E0.0023
G1 X19.482 Y21.866 E0.0173
G1 X19.474 Y21.568 E0.0063
G1 X19.552 Y20.921 E0.0138
G1 X19.721 Y20.469 E0.0102
G1 X20.134 Y19.857 E0.0157
G1 X20.358 Y19.618 E0.0070
G1 X20.641 Y19.931 F7800
G1 E0.1200 F1800
G1 X21.166 Y19.527 E0.0140 F1251
G1 X21.517 Y19.372 E0.0081
G1 X22.104 Y19.265 E0.0127
G1 X22.339 Y19.257 E0.0050
G1 X22.973 Y19.328 E0.0135
G1 X23.040 Y19.338 E0.0014
G1 X23.632 Y19.455 E0.0128
G1 X23.738 Y19.483 E0.0023
G1 X24.259 Y19.662 E0.0117
G1 X24.317 Y19.685 E0.0013
G1 X25.102 Y20.025 E0.0181
G1 X25.123 Y20.034 E0.0005
G1 X25.876 Y20.386 E0.0176
G1 X25.918 Y20.408 E0.0010
G1 X26.586 Y20.770 E0.0161
G1 X26.618 Y20.788 E0.0008
G1 X28.553 Y21.953 E0.0479
G1 X28.595 Y21.981 E0.0011
G1 X31.654 Y24.095 E0.0789
G1 X31.687 Y24.119 E0.0009
G1 X35.138 Y26.773 E0.0924
G1 X35.155 Y26.787 E0.0005
G1 X36.080 Y27.540 E0.0253
G1 X36.090 Y27.548 E0.0003
G1 X38.788 Y29.819 E0.0748
G1 X38.805 Y29.833 E0.0005
G1 X41.151 Y31.918 E0.0666
G1 X41.161 Y31.927 E0.0003
G1 X43.415 Y33.999 E0.0649
G1 X43.428 Y34.011 E0.0004
G1 X46.176 Y36.652 E0.0809
G1 X46.182 Y36.657 E0.0002
G1 X49.909 Y40.305 E0.1106
G1 X49.913 Y40.309 E0.0001
G1 X57.222 Y47.572 E0.2186
G1 X57.249 Y48.872 E0.0276
G1 X52.079 Y54.450 E0.1613
G1 X50.780 Y54.522 E0.0276
G1 X43.459 Y48.199 E0.2052
G1 X43.455 Y48.195 E0.0001
G1 X39.077 Y44.355 E0.1235
G1 X39.071 Y44.350 E0.0002
G1 X37.059 Y42.551 E0.0573
G1 X37.051 Y42.552 E0.0002
G1 X36.567 Y42.111 E0.0139
G1 X36.083 Y41.678 E0.0138
G1 X36.082 Y41.670 E0.0002
G1 X35.260 Y40.922 E0.0236
G1 X35.246 Y40.909 E0.0004
G1 X32.483 Y38.273 E0.0810
G1 X32.466 Y38.257 E0.0005
G1 X29.113 Y34.863 E0.1012
G1 X29.101 Y34.851 E0.0004
G1 X28.332 Y34.039 E0.0237
G1 X28.317 Y34.023 E0.0005
G1 X25.481 Y30.864 E0.0901
G1 X25.455 Y30.833 E0.0009
G1 X23.105 Y27.934 E0.0792
G1 X23.070 Y27.887 E0.0013
G1 X21.347 Y25.410 E0.0640
G1 X21.299 Y25.332 E0.0019
G1 X20.462 Y23.781 E0.0374
G1 X20.434 Y23.723 E0.0014
G1 X20.231 Y23.261 E0.0107
G1 X20.193 Y23.158 E0.0023
G1 X20.053 Y22.668 E0.0108
G1 X20.034 Y22.585 E0.0018
G1 X19.901 Y21.824 E0.0164
G1 X19.895 Y21.587 E0.0050
G1 X19.963 Y21.021 E0.0121
G1 X20.097 Y20.662 E0.0081
G1 X20.463 Y20.120 E0.0139
G1 X20.641 Y19.931 E0.0055
; feature outer perimeter
G1 X21.880 Y21.274 F7800
G1 E0.1200 F1800
G1 X22.082 Y21.119 E0.0054 F1126
G1 X22.280 Y21.083 E0.0043
G1 X22.498 Y21.117 E0.0047
G1 X22.733 Y21.133 E0.0050
G1 X23.212 Y21.227 E0.0104
G1 X23.631 Y21.371 E0.0094
G1 X24.365 Y21.689 E0.0170
G1 X25.077 Y22.022 E0.0167
G1 X25.699 Y22.359 E0.0150
G1 X27.588 Y23.497 E0.0468
G1 X28.357 Y24.005 E0.0195
G1 X29.515 Y24.809 E0.0299
G1 X30.599 Y25.577 E0.0282
G1 X31.479 Y26.234 E0.0233
G1 X34.016 Y28.207 E0.0682
G1 X34.924 Y28.946 E0.0248
G1 X37.606 Y31.203 E0.0744
G1 X39.936 Y33.273 E0.0661
G1 X41.207 Y34.425 E0.0364
G1 X42.174 Y35.330 E0.0281
G1 X44.912 Y37.961 E0.0806
G1 X48.634 Y41.603 E0.1105
G1 X50.907 Y43.841 E0.0677
G1 X55.334 Y48.261 E0.1327
G1 X51.324 Y52.587 E0.1252
G1 X48.206 Y49.911 E0.0872
G1 X44.652 Y46.824 E0.0999
G1 X40.280 Y42.990 E0.1234
G1 X37.959 Y40.914 E0.0661
G1 X42.629 Y35.876 E0.1458
G1 X42.311 Y35.571 E0.0093
G1 X37.632 Y40.620 E0.1460
G1 X36.494 Y39.584 E0.0326
G1 X33.749 Y36.966 E0.0805
G1 X32.963 Y36.195 E0.0234
G1 X32.010 Y35.229 E0.0288
G1 X30.416 Y33.593 E0.0485
G1 X29.662 Y32.797 E0.0233
G1 X27.463 Y30.367 E0.0695
G1 X26.853 Y29.668 E0.0197
G1 X25.023 Y27.434 E0.0613
G1 X24.543 Y26.817 E0.0166
G1 X24.021 Y26.098 E0.0188
G1 X23.202 Y24.924 E0.0304
G1 X22.874 Y24.418 E0.0128
G1 X22.553 Y23.855 E0.0138
G1 X22.084 Y22.953 E0.0216
G1 X21.924 Y22.591 E0.0084
G1 X21.817 Y22.219 E0.0082
G1 X21.719 Y21.658 E0.0121
G1 X21.741 Y21.480 E0.0038
G1 X21.768 Y21.440 E0.0010
G1 X21.880 Y21.274 F1126
G1 X22.082 Y21.119 F1126
G1 X22.280 Y21.083
G1 X22.498 Y21.117
G1 X22.733 Y21.133
G1 X23.212 Y21.227
G1 X23.631 Y21.371
G1 X23.774 Y21.433
; layer 2, Z = 0.570
; tool H0.300 W0.420
G1 X23.633 Y21.376 F7800
G1 X24.377 Y21.698 Z0.272 E0.0096 F2252
G1 X25.084 Y22.028 Z0.274 E0.0093
G1 X25.700 Y22.362 Z0.276 E0.0084
G1 X27.595 Y23.503 Z0.283 E0.0272
G1 X28.356 Y24.006 Z0.285 E0.0113
G1 X29.527 Y24.820 Z0.289 E0.0179
G1 X30.604 Y25.583 Z0.293 E0.0167
G1 X31.477 Y26.233 Z0.296 E0.0139
G1 X34.046 Y28.231 Z0.305 E0.0428
G1 X34.922 Y28.944 Z0.308 E0.0150
G1 X37.636 Y31.230 Z0.318 E0.0485
G1 X39.947 Y33.283 Z0.327 E0.0434
G1 X41.212 Y34.429 Z0.332 E0.0243
G1 X42.170 Y35.327 Z0.335 E0.0188
G1 X44.914 Y37.963 Z0.346 E0.0562
G1 X48.648 Y41.617 Z0.361 E0.0802
G1 X50.956 Y43.889 Z0.370 E0.0509
G1 X55.334 Y48.261 Z0.387 E0.1014
G1 X51.324 Y52.587 Z0.404 E0.1006
G1 X48.199 Y49.906 Z0.415 E0.0721
G1 X44.651 Y46.823 Z0.429 E0.0847
G1 X40.283 Y42.992 Z0.445 E0.1084
G1 X37.959 Y40.914 Z0.454 E0.0592
G1 X42.629 Y35.876 Z0.473 E0.1358
G1 X42.313 Y35.573 Z0.474 E0.0087
G1 X37.632 Y40.620 Z0.494 E0.1416
G1 X36.497 Y39.587 Z0.498 E0.0318
G1 X33.750 Y36.966 Z0.508 E0.0803
G1 X32.967 Y36.198 Z0.512 E0.0233
G1 X32.013 Y35.230 Z0.515 E0.0291
G1 X30.418 Y33.594 Z0.522 E0.0495
G1 X29.668 Y32.802 Z0.525 E0.0238
G1 X27.466 Y30.369 Z0.534 E0.0727
G1 X26.858 Y29.672 Z0.537 E0.0206
G1 X25.027 Y27.437 Z0.545 E0.0653
G1 X24.548 Y26.822 Z0.547 E0.0177
G1 X24.027 Y26.103 Z0.549 E0.0202
G1 X23.207 Y24.927 Z0.553 E0.0329
G1 X22.881 Y24.424 Z0.555 E0.0138
G1 X22.560 Y23.861 Z0.557 E0.0149
G1 X22.090 Y22.958 Z0.560 E0.0236
G1 X21.931 Y22.597 Z0.561 E0.0092
G1 X21.825 Y22.225 Z0.562 E0.0090
G1 X21.727 Y21.663 Z0.564 E0.0133
G1 X21.748 Y21.487 Z0.564 E0.0041
G1 X21.887 Y21.281 Z0.565 E0.0058
G1 X22.089 Y21.126 Z0.566 E0.0060
G1 X22.292 Y21.088 Z0.566 E0.0048
G1 X22.323 Y21.091 Z0.566 E0.0007
G1 X22.738 Y21.139 Z0.567 E0.0098
G1 X23.230 Y21.237 Z0.569 E0.0118
G1 X23.633 Y21.376 Z0.570 E0.0101
; layer 3, Z = 0.870
G1 X24.389 Y21.704 Z0.572 E0.0194 F2252
G1 X25.091 Y22.033 Z0.574 E0.0183
G1 X25.701 Y22.364 Z0.576 E0.0163
G1 X27.601 Y23.509 Z0.583 E0.0523
G1 X28.013 Y23.781 Z0.584 E0.0116
G1 X28.356 Y24.008 Z0.585 E0.0097
G1 X29.540 Y24.830 Z0.589 E0.0340
G1 X30.610 Y25.589 Z0.593 E0.0309
