; G-Code generated by Simplify3D(R) Version 4.1.2
; Sep 24, 2022 at 2:38:54 PM
; Settings Summary
;   processName,PProp
;   applyToModels,Rudder
;   profileName,PProp - LW-PLA
;   profileVersion,2022-05-27 11:45:37
;   baseProfile,Default
;   printMaterial,
;   printQuality,
;   printExtruders,
;   extruderName,Primary Extruder
;   extruderToolheadNumber,0
;   extruderDiameter,0.4
;   extruderAutoWidth,0
;   extruderWidth,0.42
;   extrusionMultiplier,0.45
;   extruderUseRetract,1
;   extruderRetractionDistance,0
;   extruderExtraRestartDistance,0.12
;   extruderRetractionZLift,0
;   extruderRetractionSpeed,1800
;   extruderUseCoasting,1
;   extruderCoastingDistance,0.2
;   extruderUseWipe,1
;   extruderWipeDistance,2
;   primaryExtruder,0
;   layerHeight,0.3
;   topSolidLayers,0
;   bottomSolidLayers,0
;   perimeterOutlines,1
;   printPerimetersInsideOut,1
;   startPointOption,2
;   startPointOriginX,0
;   startPointOriginY,-100
;   sequentialIslands,0
;   spiralVaseMode,1
;   firstLayerHeightPercentage,90
;   firstLayerWidthPercentage,100
;   firstLayerUnderspeed,0.5
;   useRaft,0
;   raftExtruder,0
;   raftTopLayers,3
;   raftBaseLayers,2
;   raftOffset,3
;   raftSeparationDistance,0.14
;   raftTopInfill,100
;   aboveRaftSpeedMultiplier,0.3
;   useSkirt,1
;   skirtExtruder,0
;   skirtLayers,1
;   skirtOutlines,3
;   skirtOffset,1.4
;   usePrimePillar,0
;   primePillarExtruder,999
;   primePillarWidth,12
;   primePillarLocation,7
;   primePillarSpeedMultiplier,1
;   useOozeShield,0
;   oozeShieldExtruder,999
;   oozeShieldOffset,2
;   oozeShieldOutlines,1
;   oozeShieldSidewallShape,1
;   oozeShieldSidewallAngle,30
;   oozeShieldSpeedMultiplier,1
;   infillExtruder,0
;   internalInfillPattern,Rectilinear
;   externalInfillPattern,Rectilinear
;   infillPercentage,0
;   outlineOverlapPercentage,15
;   infillExtrusionWidthPercentage,100
;   minInfillLength,5
;   infillLayerInterval,1
;   internalInfillAngles,45,-45
;   overlapInternalInfillAngles,0
;   externalInfillAngles,45,-45
;   generateSupport,0
;   supportExtruder,0
;   supportInfillPercentage,30
;   supportExtraInflation,0
;   supportBaseLayers,0
;   denseSupportExtruder,0
;   denseSupportLayers,0
;   denseSupportInfillPercentage,70
;   supportLayerInterval,1
;   supportHorizontalPartOffset,0.3
;   supportUpperSeparationLayers,1
;   supportLowerSeparationLayers,1
;   supportType,0
;   supportGridSpacing,4
;   maxOverhangAngle,45
;   supportAngles,0
;   temperatureName,Primary Extruder,Heated Bed
;   temperatureNumber,0,1
;   temperatureSetpointCount,1,1
;   temperatureSetpointLayers,1,1
;   temperatureSetpointTemperatures,250,55
;   temperatureStabilizeAtStartup,1,1
;   temperatureHeatedBed,0,1
;   fanLayers,1
;   fanSpeeds,100
;   blipFanToFullPower,1
;   adjustSpeedForCooling,0
;   minSpeedLayerTime,15
;   minCoolingSpeedSlowdown,80
;   increaseFanForCooling,0
;   minFanLayerTime,20
;   maxCoolingFanSpeed,100
;   increaseFanForBridging,0
;   bridgingFanSpeed,100
;   use5D,1
;   relativeEdistances,1
;   allowEaxisZeroing,1
;   independentExtruderAxes,0
;   includeM10123,0
;   stickySupport,1
;   applyToolheadOffsets,0
;   gcodeXoffset,0
;   gcodeYoffset,0
;   gcodeZoffset,0
;   overrideMachineDefinition,1
;   machineTypeOverride,0
;   strokeXoverride,200
;   strokeYoverride,200
;   strokeZoverride,200
;   originOffsetXoverride,0
;   originOffsetYoverride,0
;   originOffsetZoverride,0
;   homeXdirOverride,-1
;   homeYdirOverride,-1
;   homeZdirOverride,-1
;   flipXoverride,1
;   flipYoverride,-1
;   flipZoverride,1
;   toolheadOffsets,0,0|0,0|0,0|0,0|0,0|0,0
;   overrideFirmwareConfiguration,1
;   firmwareTypeOverride,RepRap (Marlin/Repetier/Sprinter)
;   GPXconfigOverride,r2
;   baudRateOverride,115200
;   overridePrinterModels,0
;   printerModelsOverride
;   startingGcode,G28,G92 E0.0
;   layerChangeGcode,
;   retractionGcode,
;   toolChangeGcode,
;   endingGcode,M104 S0 ; turn off extruder,M140 S0 ; turn off bed,G28 X0 ; home X axis,M84 ; disable motors,M107 ; turn off fan
;   exportFileFormat,gcode
;   celebration,0
;   celebrationSong,Take On Me
;   postProcessing,
;   defaultSpeed,2502
;   outlineUnderspeed,0.9
;   solidInfillUnderspeed,0.8
;   supportUnderspeed,0.8
;   rapidXYspeed,7800
;   rapidZspeed,1002
;   minBridgingArea,5
;   bridgingExtraInflation,0
;   bridgingExtrusionMultiplier,1
;   bridgingSpeedMultiplier,0.3
;   useFixedBridgingAngle,0
;   fixedBridgingAngle,0
;   applyBridgingToPerimeters,0
;   filamentDiameters,1.75|1.75|1.75|1.75|1.75|1.75
;   filamentPricesPerKg,1000|1000|1000|1000|1000|1000
;   filamentDensities,1.25|1.25|1.25|1.25|1.25|1.25
;   useMinPrintHeight,0
;   minPrintHeight,0.3
;   useMaxPrintHeight,0
;   maxPrintHeight,15
;   useDiaphragm,0
;   diaphragmLayerInterval,20
;   robustSlicing,1
;   mergeAllIntoSolid,0
;   onlyRetractWhenCrossingOutline,0
;   retractBetweenLayers,0
;   useRetractionMinTravel,0
;   retractionMinTravel,3
;   retractWhileWiping,0
;   onlyWipeOutlines,1
;   avoidCrossingOutline,1
;   maxMovementDetourFactor,3
;   toolChangeRetractionDistance,0
;   toolChangeExtraRestartDistance,0
;   toolChangeRetractionSpeed,360
;   externalThinWallType,0
;   internalThinWallType,2
;   thinWallAllowedOverlapPercentage,10
;   singleExtrusionMinLength,1
;   singleExtrusionMinPrintingWidthPercentage,50
;   singleExtrusionMaxPrintingWidthPercentage,200
;   singleExtrusionEndpointExtension,0.2
;   horizontalSizeCompensation,0
G90
M83
M106 S255
M140 S55
M190 S55
M104 S250 T0
M109 S250 T0
G28
G92 E0.0
; process PProp
; layer 1, Z = 0.270
T0
; feature skirt
; tool H0.270 W0.420
G1 Z0.270 F1002
G1 X20.022 Y18.051 F7800
G1 E0.1200 F1800
G1 X20.535 Y17.681 E0.0134 F1251
G1 X23.588 Y16.502 E0.0694
G1 X25.055 Y15.880 E0.0338
G1 X26.471 Y16.122 E0.0305
G1 X35.242 Y24.124 E0.2519
G1 X35.249 Y24.130 E0.0002
G1 X38.486 Y27.128 E0.0936
G1 X38.495 Y27.136 E0.0003
G1 X42.930 Y31.324 E0.1294
G1 X42.938 Y31.332 E0.0002
G1 X47.082 Y35.317 E0.1220
G1 X47.091 Y35.326 E0.0003
G1 X50.995 Y39.155 E0.1160
G1 X51.010 Y39.169 E0.0004
G1 X54.431 Y42.637 E0.1034
G1 X54.447 Y42.653 E0.0005
G1 X56.545 Y44.859 E0.0646
G1 X56.557 Y44.872 E0.0004
G1 X60.704 Y49.361 E0.1297
G1 X60.709 Y49.367 E0.0002
G1 X61.823 Y50.587 E0.0351
G1 X61.898 Y50.678 E0.0025
G1 X63.320 Y52.576 E0.0503
G1 X60.860 Y55.549 E0.0819
G1 X58.728 Y54.507 E0.0503
G1 X58.621 Y54.448 E0.0026
G1 X53.553 Y51.312 E0.1265
G1 X53.540 Y51.304 E0.0003
G1 X49.885 Y48.979 E0.0919
G1 X49.867 Y48.968 E0.0004
G1 X47.785 Y47.594 E0.0529
G1 X47.769 Y47.583 E0.0004
G1 X42.941 Y44.285 E0.1240
G1 X42.929 Y44.277 E0.0003
G1 X38.843 Y41.412 E0.1059
G1 X38.831 Y41.403 E0.0003
G1 X32.241 Y36.663 E0.1722
G1 X20.070 Y45.105 E0.3142
G1 X19.799 Y45.246 E0.0065
G1 X18.963 Y45.559 E0.0189
G1 X18.585 Y45.635 E0.0082
G1 X17.652 Y45.676 E0.0198
G1 X17.269 Y45.632 E0.0082
G1 X16.370 Y45.382 E0.0198
G1 X16.019 Y45.222 E0.0082
G1 X15.268 Y44.724 E0.0191
G1 X15.026 Y44.513 E0.0068
G1 X14.576 Y44.003 E0.0144
G1 X14.458 Y43.830 E0.0044
G1 X14.147 Y43.655 E0.0076
G1 X13.966 Y42.894 E0.0166
G1 X13.696 Y42.367 E0.0126
G1 X13.283 Y42.144 E0.0099
G1 X18.479 Y26.437 E0.3510
G1 X18.335 Y26.329 E0.0038
G1 X17.832 Y25.024 E0.0297
G1 X18.837 Y19.726 E0.1144
G1 X19.103 Y19.162 E0.0132
G1 X19.579 Y18.589 E0.0158
G1 X20.022 Y18.051 E0.0148
G1 X20.312 Y18.360 F7800
G1 E0.1200 F1800
G1 X20.737 Y18.053 E0.0111 F1251
G1 X23.745 Y16.892 E0.0684
G1 X25.106 Y16.314 E0.0314
G1 X26.279 Y16.515 E0.0253
G1 X34.959 Y24.434 E0.2493
G1 X34.964 Y24.439 E0.0002
G1 X38.200 Y27.435 E0.0936
G1 X38.208 Y27.442 E0.0002
G1 X42.641 Y31.629 E0.1294
G1 X42.647 Y31.635 E0.0002
G1 X46.790 Y35.619 E0.1219
G1 X46.798 Y35.626 E0.0002
G1 X50.700 Y39.454 E0.1160
G1 X50.712 Y39.466 E0.0004
G1 X54.131 Y42.931 E0.1033
G1 X54.144 Y42.944 E0.0004
G1 X56.239 Y45.147 E0.0645
G1 X56.250 Y45.158 E0.0003
G1 X60.395 Y49.645 E0.1296
G1 X60.399 Y49.650 E0.0001
G1 X61.505 Y50.863 E0.0348
G1 X61.568 Y50.938 E0.0021
G1 X62.785 Y52.563 E0.0431
G1 X60.747 Y55.027 E0.0678
G1 X58.922 Y54.135 E0.0431
G1 X58.833 Y54.086 E0.0021
G1 X53.775 Y50.955 E0.1262
G1 X53.765 Y50.949 E0.0003
G1 X50.112 Y48.626 E0.0918
G1 X50.097 Y48.616 E0.0004
G1 X48.018 Y47.244 E0.0529
G1 X48.004 Y47.235 E0.0003
G1 X43.179 Y43.939 E0.1240
G1 X43.169 Y43.932 E0.0003
G1 X39.085 Y41.069 E0.1058
G1 X39.075 Y41.062 E0.0003
G1 X32.245 Y36.149 E0.1785
G1 X19.853 Y44.745 E0.3200
G1 X19.628 Y44.862 E0.0054
G1 X18.847 Y45.154 E0.0177
G1 X18.534 Y45.217 E0.0068
G1 X17.667 Y45.254 E0.0184
G1 X17.350 Y45.218 E0.0068
G1 X16.515 Y44.986 E0.0184
G1 X16.224 Y44.853 E0.0068
G1 X15.523 Y44.389 E0.0178
G1 X15.323 Y44.214 E0.0056
G1 X14.908 Y43.745 E0.0133
G1 X14.764 Y43.534 E0.0054
G1 X14.754 Y43.515 E0.0005
G1 X14.513 Y43.379 E0.0059
G1 X14.362 Y42.748 E0.0138
G1 X14.053 Y42.142 E0.0144
G1 X14.073 Y42.093 E0.0011
G1 X13.793 Y41.942 E0.0068
G1 X18.973 Y26.283 E0.3499
G1 X18.684 Y26.066 E0.0077
G1 X18.267 Y24.985 E0.0246
G1 X19.240 Y19.857 E0.1107
G1 X19.460 Y19.390 E0.0110
G1 X19.902 Y18.858 E0.0147
G1 X20.312 Y18.360 E0.0137
G1 X20.602 Y18.669 F7800
G1 E0.1200 F1800
G1 X20.939 Y18.425 E0.0088 F1251
G1 X23.903 Y17.281 E0.0674
G1 X25.157 Y16.749 E0.0289
G1 X26.087 Y16.908 E0.0200
G1 X34.675 Y24.744 E0.2466
G1 X34.679 Y24.748 E0.0001
G1 X37.914 Y27.743 E0.0935
G1 X37.920 Y27.748 E0.0002
G1 X42.352 Y31.934 E0.1293
G1 X42.357 Y31.939 E0.0002
G1 X46.499 Y35.921 E0.1219
G1 X46.504 Y35.927 E0.0002
G1 X50.405 Y39.753 E0.1159
G1 X50.414 Y39.762 E0.0003
G1 X53.830 Y43.224 E0.1032
G1 X53.841 Y43.235 E0.0003
G1 X55.934 Y45.435 E0.0644
G1 X55.942 Y45.444 E0.0003
G1 X60.089 Y49.933 E0.1297
G1 X61.188 Y51.138 E0.0346
G1 X61.238 Y51.198 E0.0016
G1 X62.251 Y52.550 E0.0358
G1 X60.635 Y54.504 E0.0538
G1 X59.116 Y53.762 E0.0359
G1 X59.045 Y53.723 E0.0017
G1 X53.997 Y50.599 E0.1260
G1 X53.989 Y50.593 E0.0002
G1 X50.338 Y48.272 E0.0918
G1 X50.327 Y48.265 E0.0003
G1 X48.251 Y46.895 E0.0528
G1 X48.240 Y46.888 E0.0003
G1 X43.417 Y43.593 E0.1239
G1 X43.409 Y43.587 E0.0002
G1 X39.328 Y40.726 E0.1058
G1 X39.320 Y40.720 E0.0002
G1 X32.250 Y35.635 E0.1848
G1 X19.635 Y44.385 E0.3257
G1 X19.457 Y44.478 E0.0043
G1 X18.731 Y44.749 E0.0164
G1 X18.483 Y44.799 E0.0054
G1 X17.682 Y44.833 E0.0170
G1 X17.431 Y44.805 E0.0054
G1 X16.659 Y44.590 E0.0170
G1 X16.428 Y44.485 E0.0054
G1 X15.778 Y44.054 E0.0165
G1 X15.619 Y43.915 E0.0045
G1 X15.240 Y43.486 E0.0121
G1 X15.126 Y43.319 E0.0043
G1 X15.071 Y43.211 E0.0026
G1 X14.879 Y43.103 E0.0047
G1 X14.759 Y42.602 E0.0109
G1 X14.515 Y42.124 E0.0114
G1 X14.603 Y41.911 E0.0049
G1 X14.602 Y41.901 E0.0002
G1 X14.302 Y41.739 E0.0072
G1 X19.466 Y26.129 E0.3488
G1 X19.033 Y25.803 E0.0115
G1 X18.702 Y24.945 E0.0195
G1 X19.643 Y19.988 E0.1071
G1 X19.817 Y19.617 E0.0087
G1 X20.226 Y19.125 E0.0136
G1 X20.602 Y18.669 E0.0125
; feature outer perimeter
G1 X21.982 Y19.973 F7800
G1 E0.1200 F1800
G1 X24.586 Y18.968 E0.0592 F1126
G1 X25.309 Y18.662 E0.0167
G1 X33.446 Y26.086 E0.2337
G1 X36.673 Y29.074 E0.0933
G1 X41.099 Y33.254 E0.1292
G1 X45.234 Y37.230 E0.1217
G1 X49.125 Y41.047 E0.1156
G1 X51.156 Y43.087 E0.0611
G1 X52.528 Y44.496 E0.0417
G1 X54.611 Y46.685 E0.0641
G1 X56.493 Y48.707 E0.0586
G1 X58.746 Y51.162 E0.0707
G1 X59.240 Y51.703 E0.0155
G1 X54.961 Y49.054 E0.1068
G1 X51.322 Y46.741 E0.0915
G1 X49.259 Y45.380 E0.0524
G1 X46.874 Y43.767 E0.0611
G1 X44.449 Y42.093 E0.0625
G1 X40.377 Y39.239 E0.1055
G1 X34.861 Y35.292 E0.1439
G1 X32.173 Y33.337 E0.0705
G1 X31.966 Y33.617 E0.0074
G1 X18.697 Y42.820 E0.3426
G1 X18.396 Y42.951 E0.0070
G1 X18.250 Y42.988 E0.0032
G1 X17.919 Y43.020 E0.0071
G1 X17.769 Y43.011 E0.0032
G1 X17.444 Y42.939 E0.0071
G1 X17.305 Y42.884 E0.0032
G1 X17.018 Y42.715 E0.0071
G1 X16.902 Y42.619 E0.0032
G1 X16.682 Y42.370 E0.0071
G1 X16.601 Y42.242 E0.0032
G1 X16.574 Y42.181 E0.0014
G1 X16.931 Y42.066 E0.0080
G1 X17.030 Y42.214 E0.0038
G1 X17.167 Y42.357 E0.0042
G1 X17.326 Y42.474 E0.0042
G1 X17.502 Y42.563 E0.0042
G1 X17.691 Y42.621 E0.0042
G1 X17.886 Y42.646 E0.0042
G1 X18.084 Y42.638 E0.0042
G1 X18.277 Y42.597 E0.0042
G1 X18.460 Y42.523 E0.0042
G1 X18.628 Y42.420 E0.0042
G1 X18.777 Y42.289 E0.0042
G1 X18.901 Y42.136 E0.0042
G1 X18.997 Y41.964 E0.0042
G1 X19.063 Y41.778 E0.0042
G1 X19.097 Y41.583 E0.0042
G1 X19.097 Y41.386 E0.0042
G1 X19.064 Y41.191 E0.0042
G1 X18.998 Y41.005 E0.0042
G1 X18.902 Y40.832 E0.0042
G1 X18.778 Y40.678 E0.0042
G1 X18.630 Y40.548 E0.0042
G1 X18.462 Y40.444 E0.0042
G1 X18.279 Y40.370 E0.0042
G1 X18.086 Y40.329 E0.0042
G1 X17.888 Y40.320 E0.0042
G1 X17.692 Y40.345 E0.0042
G1 X17.504 Y40.403 E0.0042
G1 X17.327 Y40.491 E0.0042
G1 X17.168 Y40.609 E0.0042
G1 X17.032 Y40.751 E0.0042
G1 X16.921 Y40.915 E0.0042
G1 X16.840 Y41.095 E0.0042
G1 X16.788 Y41.293 E0.0044
G1 X16.785 Y41.535 E0.0051
G1 X16.805 Y41.655 E0.0026
G1 X16.433 Y41.775 E0.0083
G1 X16.408 Y41.670 E0.0023
G1 X16.399 Y41.466 E0.0043
G1 X16.409 Y41.311 E0.0033
G1 X16.505 Y40.875 E0.0095
G1 X21.483 Y25.827 E0.3363
G1 X21.699 Y25.535 E0.0077
G1 X20.603 Y24.707 E0.0291
G1 X20.722 Y24.153 E0.0120
G1 X21.358 Y20.713 E0.0742
G1 X39.991 Y35.920 E0.5103
G1 X40.417 Y35.406 E0.0142
G1 X22.136 Y20.102 E0.5058
G1 X21.982 Y19.973 F1126
G1 X23.848 Y19.253 F1126
G1 X21.971 Y25.740 F7800
G1 E0.1200 F1800
G1 X21.710 Y26.092 E0.0093 F1126
G1 X20.873 Y28.496 E0.0540
G1 X23.340 Y27.506 E0.0564
G1 X23.555 Y27.669 E0.0057
G1 X20.753 Y28.863 E0.0646
G1 X19.954 Y31.353 E0.0555
G1 X25.520 Y29.144 E0.1271
G1 X25.830 Y29.366 E0.0081
G1 X19.769 Y31.730 E0.1380
G1 X19.011 Y33.930 E0.0494
G1 X24.225 Y32.195 E0.1166
G1 X23.974 Y32.538 E0.0090
G1 X18.925 Y34.176 E0.1126
G1 X18.113 Y36.594 E0.0541
G1 X21.856 Y35.399 E0.0834
G1 X21.679 Y35.638 E0.0063
G1 X18.006 Y36.846 E0.0820
G1 X17.217 Y39.205 E0.0528
G1 X19.733 Y38.261 E0.0570
G1 X19.618 Y38.417 E0.0041
G1 X17.240 Y39.315 E0.0539
G1 X16.979 Y40.176 E0.0191
G1 X17.638 Y39.971 E0.0146
G1 X17.787 Y39.949 E0.0032
G1 X18.114 Y39.952 E0.0069
G1 X18.428 Y40.022 E0.0068
G1 X18.726 Y40.158 E0.0069
G1 X18.851 Y40.241 E0.0032
G1 X19.096 Y40.466 E0.0071
G1 X19.189 Y40.583 E0.0032
G1 X19.350 Y40.868 E0.0069
G1 X19.449 Y41.180 E0.0069
G1 X19.472 Y41.334 E0.0033
G1 X19.478 Y41.485 E0.0032
G1 X19.391 Y42.025 E0.0116
G1 X20.789 Y41.056 E0.0361
G1 X21.167 Y38.177 E0.0616
G1 X21.383 Y37.879 E0.0078
G1 X21.082 Y40.880 E0.0640
G1 X23.218 Y39.368 E0.0555
G1 X23.589 Y34.886 E0.0954
G1 X23.722 Y34.712 E0.0046
G1 X23.515 Y39.144 E0.0941
G1 X25.223 Y37.923 E0.0445
G1 X25.826 Y31.615 E0.1345
G1 X25.528 Y31.501 E0.0068
G1 X19.254 Y39.969 E0.2236
G1 X19.098 Y39.851 E0.0041
G1 X26.501 Y29.859 E0.2638
G1 X26.659 Y29.978 E0.0042
G1 X26.122 Y30.725 E0.0195
G1 X25.563 Y37.726 E0.1490
G1 X27.155 Y36.546 E0.0420
G1 X27.815 Y30.827 E0.1222
G1 X27.942 Y30.922 E0.0034
G1 X27.366 Y36.394 E0.1167
G1 X29.394 Y34.933 E0.0530
G1 X29.886 Y32.361 E0.0556
G1 X30.074 Y32.502 E0.0050
G1 X29.666 Y34.748 E0.0484
G1 X31.572 Y33.386 E0.0497
G1 X31.808 Y33.068 E0.0084
G1 X27.552 Y29.914 E0.1124
G1 X29.577 Y27.466 E0.0674
G1 X29.238 Y27.185 E0.0093
G1 X27.199 Y29.651 E0.0679
G1 X22.131 Y25.860 E0.1343
G1 X21.971 Y25.740 F1126
G1 X21.710 Y26.092 F1126
G1 X21.196 Y27.567
; layer 2, Z = 0.570
; tool H0.300 W0.420
G1 Z0.570 F1002
G1 X21.483 Y25.827 F7800
G1 E0.1200 F1800
G1 X21.698 Y25.538 E0.0085 F2252
G1 X20.674 Y24.765 E0.0302
G1 X20.795 Y24.202 E0.0136
G1 X21.430 Y20.772 E0.0822
G1 X40.050 Y35.969 E0.5666
G1 X40.475 Y35.454 E0.0157
G1 X22.053 Y20.032 E0.5663
G1 X24.772 Y18.978 E0.0687
G1 X25.379 Y18.721 E0.0156
G1 X28.812 Y21.837 E0.1093
G1 X33.757 Y26.368 E0.1581
G1 X36.739 Y29.131 E0.0958
