; G-Code generated by Simplify3D(R) Version 4.1.2
; Sep 24, 2022 at 2:39:06 PM
; Settings Summary
;   processName,PProp
;   applyToModels,VStab
;   profileName,PProp - LW-PLA
;   profileVersion,2022-05-27 11:45:37
;   baseProfile,Default
;   printMaterial,
;   printQuality,
;   printExtruders,
;   extruderName,Primary Extruder
;   extruderToolheadNumber,0
;   extruderDiameter,0.4
;   extruderAutoWidth,0
;   extruderWidth,0.42
;   extrusionMultiplier,0.45
;   extruderUseRetract,1
;   extruderRetractionDistance,0
;   extruderExtraRestartDistance,0.12
;   extruderRetractionZLift,0
;   extruderRetractionSpeed,1800
;   extruderUseCoasting,1
;   extruderCoastingDistance,0.2
;   extruderUseWipe,1
;   extruderWipeDistance,2
;   primaryExtruder,0
;   layerHeight,0.3
;   topSolidLayers,0
;   bottomSolidLayers,0
;   perimeterOutlines,1
;   printPerimetersInsideOut,1
;   startPointOption,2
;   startPointOriginX,0
;   startPointOriginY,-100
;   sequentialIslands,0
;   spiralVaseMode,1
;   firstLayerHeightPercentage,90
;   firstLayerWidthPercentage,100
;   firstLayerUnderspeed,0.5
;   useRaft,0
;   raftExtruder,0
;   raftTopLayers,3
;   raftBaseLayers,2
;   raftOffset,3
;   raftSeparationDistance,0.14
;   raftTopInfill,100
;   aboveRaftSpeedMultiplier,0.3
;   useSkirt,1
;   skirtExtruder,0
;   skirtLayers,1
;   skirtOutlines,3
;   skirtOffset,1.4
;   usePrimePillar,0
;   primePillarExtruder,999
;   primePillarWidth,12
;   primePillarLocation,7
;   primePillarSpeedMultiplier,1
;   useOozeShield,0
;   oozeShieldExtruder,999
;   oozeShieldOffset,2
;   oozeShieldOutlines,1
;   oozeShieldSidewallShape,1
;   oozeShieldSidewallAngle,30
;   oozeShieldSpeedMultiplier,1
;   infillExtruder,0
;   internalInfillPattern,Rectilinear
;   externalInfillPattern,Rectilinear
;   infillPercentage,0
;   outlineOverlapPercentage,15
;   infillExtrusionWidthPercentage,100
;   minInfillLength,5
;   infillLayerInterval,1
;   internalInfillAngles,45,-45
;   overlapInternalInfillAngles,0
;   externalInfillAngles,45,-45
;   generateSupport,0
;   supportExtruder,0
;   supportInfillPercentage,30
;   supportExtraInflation,0
;   supportBaseLayers,0
;   denseSupportExtruder,0
;   denseSupportLayers,0
;   denseSupportInfillPercentage,70
;   supportLayerInterval,1
;   supportHorizontalPartOffset,0.3
;   supportUpperSeparationLayers,1
;   supportLowerSeparationLayers,1
;   supportType,0
;   supportGridSpacing,4
;   maxOverhangAngle,45
;   supportAngles,0
;   temperatureName,Primary Extruder,Heated Bed
;   temperatureNumber,0,1
;   temperatureSetpointCount,1,1
;   temperatureSetpointLayers,1,1
;   temperatureSetpointTemperatures,250,55
;   temperatureStabilizeAtStartup,1,1
;   temperatureHeatedBed,0,1
;   fanLayers,1
;   fanSpeeds,100
;   blipFanToFullPower,1
;   adjustSpeedForCooling,0
;   minSpeedLayerTime,15
;   minCoolingSpeedSlowdown,80
;   increaseFanForCooling,0
;   minFanLayerTime,20
;   maxCoolingFanSpeed,100
;   increaseFanForBridging,0
;   bridgingFanSpeed,100
;   use5D,1
;   relativeEdistances,1
;   allowEaxisZeroing,1
;   independentExtruderAxes,0
;   includeM10123,0
;   stickySupport,1
;   applyToolheadOffsets,0
;   gcodeXoffset,0
;   gcodeYoffset,0
;   gcodeZoffset,0
;   overrideMachineDefinition,1
;   machineTypeOverride,0
;   strokeXoverride,200
;   strokeYoverride,200
;   strokeZoverride,200
;   originOffsetXoverride,0
;   originOffsetYoverride,0
;   originOffsetZoverride,0
;   homeXdirOverride,-1
;   homeYdirOverride,-1
;   homeZdirOverride,-1
;   flipXoverride,1
;   flipYoverride,-1
;   flipZoverride,1
;   toolheadOffsets,0,0|0,0|0,0|0,0|0,0|0,0
;   overrideFirmwareConfiguration,1
;   firmwareTypeOverride,RepRap (Marlin/Repetier/Sprinter)
;   GPXconfigOverride,r2
;   baudRateOverride,115200
;   overridePrinterModels,0
;   printerModelsOverride
;   startingGcode,G28,G92 E0.0
;   layerChangeGcode,
;   retractionGcode,
;   toolChangeGcode,
;   endingGcode,M104 S0 ; turn off extruder,M140 S0 ; turn off bed,G28 X0 ; home X axis,M84 ; disable motors,M107 ; turn off fan
;   exportFileFormat,gcode
;   celebration,0
;   celebrationSong,Take On Me
;   postProcessing,
;   defaultSpeed,2502
;   outlineUnderspeed,0.9
;   solidInfillUnderspeed,0.8
;   supportUnderspeed,0.8
;   rapidXYspeed,7800
;   rapidZspeed,1002
;   minBridgingArea,5
;   bridgingExtraInflation,0
;   bridgingExtrusionMultiplier,1
;   bridgingSpeedMultiplier,0.3
;   useFixedBridgingAngle,0
;   fixedBridgingAngle,0
;   applyBridgingToPerimeters,0
;   filamentDiameters,1.75|1.75|1.75|1.75|1.75|1.75
;   filamentPricesPerKg,1000|1000|1000|1000|1000|1000
;   filamentDensities,1.25|1.25|1.25|1.25|1.25|1.25
;   useMinPrintHeight,0
;   minPrintHeight,0.3
;   useMaxPrintHeight,0
;   maxPrintHeight,15
;   useDiaphragm,0
;   diaphragmLayerInterval,20
;   robustSlicing,1
;   mergeAllIntoSolid,0
;   onlyRetractWhenCrossingOutline,0
;   retractBetweenLayers,0
;   useRetractionMinTravel,0
;   retractionMinTravel,3
;   retractWhileWiping,0
;   onlyWipeOutlines,1
;   avoidCrossingOutline,1
;   maxMovementDetourFactor,3
;   toolChangeRetractionDistance,0
;   toolChangeExtraRestartDistance,0
;   toolChangeRetractionSpeed,360
;   externalThinWallType,0
;   internalThinWallType,2
;   thinWallAllowedOverlapPercentage,10
;   singleExtrusionMinLength,1
;   singleExtrusionMinPrintingWidthPercentage,50
;   singleExtrusionMaxPrintingWidthPercentage,200
;   singleExtrusionEndpointExtension,0.2
;   horizontalSizeCompensation,0
G90
M83
M106 S255
M140 S55
M190 S55
M104 S250 T0
M109 S250 T0
G28
G92 E0.0
; process PProp
; layer 1, Z = 0.270
T0
; feature skirt
; tool H0.270 W0.420
G1 Z0.270 F1002
G1 X19.589 Y18.200 F7800
G1 E0.1200 F1800
G1 X20.039 Y17.828 E0.0124 F1251
G1 X20.338 Y17.646 E0.0074
G1 X21.105 Y17.318 E0.0177
G1 X21.592 Y17.218 E0.0105
G1 X22.151 Y17.218 E0.0119
G1 X22.320 Y17.229 E0.0036
G1 X22.980 Y17.321 E0.0141
G1 X23.167 Y17.362 E0.0041
G1 X24.214 Y17.678 E0.0232
G1 X24.409 Y17.756 E0.0044
G1 X25.352 Y18.228 E0.0224
G1 X25.425 Y18.268 E0.0018
G1 X26.513 Y18.908 E0.0268
G1 X26.552 Y18.931 E0.0010
G1 X27.025 Y19.234 E0.0119
G1 X27.082 Y19.273 E0.0015
G1 X28.187 Y20.069 E0.0289
G1 X28.226 Y20.099 E0.0011
G1 X30.092 Y21.562 E0.0503
G1 X30.136 Y21.599 E0.0012
G1 X31.425 Y22.712 E0.0361
G1 X31.449 Y22.733 E0.0007
G1 X33.585 Y24.676 E0.0613
G1 X33.619 Y24.708 E0.0010
G1 X35.896 Y26.942 E0.0677
G1 X35.911 Y26.957 E0.0005
G1 X37.376 Y28.446 E0.0443
G1 X37.398 Y28.469 E0.0007
G1 X39.790 Y31.032 E0.0744
G1 X39.802 Y31.045 E0.0004
G1 X41.315 Y32.715 E0.0478
G1 X41.334 Y32.736 E0.0006
G1 X43.742 Y35.520 E0.0781
G1 X43.753 Y35.533 E0.0004
G1 X45.249 Y37.312 E0.0493
G1 X45.264 Y37.329 E0.0005
G1 X46.738 Y39.150 E0.0497
G1 X46.750 Y39.166 E0.0004
G1 X52.249 Y46.182 E0.1891
G1 X52.255 Y46.190 E0.0002
G1 X55.547 Y50.458 E0.1144
G1 X55.553 Y50.465 E0.0002
G1 X61.193 Y57.889 E0.1978
G1 X60.965 Y59.848 E0.0418
G1 X53.073 Y66.360 E0.2171
G1 X51.105 Y66.211 E0.0419
G1 X43.624 Y57.836 E0.2382
G1 X43.616 Y57.828 E0.0002
G1 X38.173 Y51.622 E0.1751
G1 X38.165 Y51.613 E0.0003
G1 X35.976 Y49.066 E0.0713
G1 X35.960 Y49.065 E0.0003
G1 X35.328 Y48.314 E0.0208
G1 X34.671 Y47.550 E0.0214
G1 X34.673 Y47.533 E0.0003
G1 X33.944 Y46.666 E0.0240
G1 X33.927 Y46.646 E0.0006
G1 X31.605 Y43.759 E0.0786
G1 X31.594 Y43.745 E0.0004
G1 X30.177 Y41.931 E0.0488
G1 X30.160 Y41.909 E0.0006
G1 X28.024 Y39.043 E0.0758
G1 X28.013 Y39.028 E0.0004
G1 X26.735 Y37.256 E0.0463
G1 X26.718 Y37.232 E0.0006
G1 X25.194 Y35.008 E0.0572
G1 X25.182 Y34.989 E0.0005
G1 X23.761 Y32.832 E0.0548
G1 X23.735 Y32.791 E0.0010
G1 X21.754 Y29.503 E0.0814
G1 X21.721 Y29.445 E0.0014
G1 X20.458 Y27.064 E0.0572
G1 X20.432 Y27.011 E0.0013
G1 X19.667 Y25.383 E0.0381
G1 X19.626 Y25.284 E0.0023
G1 X19.004 Y23.590 E0.0383
G1 X18.975 Y23.498 E0.0020
G1 X18.691 Y22.485 E0.0223
G1 X18.654 Y22.298 E0.0040
G1 X18.553 Y21.444 E0.0182
G1 X18.545 Y21.324 E0.0025
G1 X18.534 Y20.807 E0.0110
G1 X18.544 Y20.628 E0.0038
G1 X18.659 Y19.722 E0.0194
G1 X18.863 Y19.182 E0.0122
G1 X19.354 Y18.459 E0.0185
G1 X19.589 Y18.200 E0.0074
G1 X19.880 Y18.505 F7800
G1 E0.1200 F1800
G1 X20.284 Y18.171 E0.0111 F1251
G1 X20.531 Y18.020 E0.0062
G1 X21.231 Y17.721 E0.0162
G1 X21.635 Y17.638 E0.0087
G1 X22.137 Y17.638 E0.0107
G1 X22.277 Y17.647 E0.0030
G1 X22.906 Y17.735 E0.0135
G1 X23.061 Y17.768 E0.0034
G1 X24.076 Y18.075 E0.0225
G1 X24.237 Y18.139 E0.0037
G1 X25.158 Y18.601 E0.0219
G1 X25.218 Y18.633 E0.0015
G1 X26.297 Y19.268 E0.0266
G1 X26.329 Y19.287 E0.0008
G1 X26.794 Y19.585 E0.0117
G1 X26.841 Y19.617 E0.0012
G1 X27.938 Y20.407 E0.0287
G1 X27.971 Y20.432 E0.0009
G1 X29.829 Y21.889 E0.0501
G1 X29.866 Y21.920 E0.0010
G1 X31.149 Y23.028 E0.0360
G1 X31.168 Y23.045 E0.0006
G1 X33.300 Y24.984 E0.0611
G1 X33.328 Y25.011 E0.0008
G1 X35.600 Y27.240 E0.0675
G1 X35.613 Y27.253 E0.0004
G1 X37.074 Y28.738 E0.0442
G1 X37.093 Y28.757 E0.0006
G1 X39.482 Y31.317 E0.0743
G1 X39.492 Y31.328 E0.0003
G1 X41.002 Y32.995 E0.0477
G1 X41.018 Y33.012 E0.0005
G1 X43.424 Y35.794 E0.0780
G1 X43.433 Y35.805 E0.0003
G1 X44.926 Y37.581 E0.0492
G1 X44.939 Y37.595 E0.0004
G1 X46.411 Y39.414 E0.0496
G1 X46.421 Y39.426 E0.0003
G1 X51.918 Y46.441 E0.1891
G1 X51.923 Y46.447 E0.0002
G1 X55.214 Y50.714 E0.1143
G1 X55.219 Y50.720 E0.0002
G1 X60.756 Y58.009 E0.1942
G1 X60.567 Y59.632 E0.0347
G1 X52.936 Y65.929 E0.2099
G1 X51.305 Y65.805 E0.0347
G1 X43.938 Y57.557 E0.2346
G1 X43.931 Y57.550 E0.0002
G1 X38.489 Y51.346 E0.1751
G1 X38.483 Y51.338 E0.0002
G1 X36.183 Y48.664 E0.0748
G1 X36.170 Y48.663 E0.0003
G1 X35.649 Y48.042 E0.0172
G1 X35.105 Y47.410 E0.0177
G1 X35.106 Y47.396 E0.0003
G1 X34.267 Y46.398 E0.0277
G1 X34.253 Y46.381 E0.0005
G1 X31.933 Y43.497 E0.0785
G1 X31.924 Y43.485 E0.0003
G1 X30.509 Y41.674 E0.0488
G1 X30.495 Y41.656 E0.0005
G1 X28.362 Y38.793 E0.0757
G1 X28.352 Y38.780 E0.0003
G1 X27.077 Y37.012 E0.0462
G1 X27.063 Y36.992 E0.0005
G1 X25.542 Y34.772 E0.0571
G1 X25.532 Y34.757 E0.0004
G1 X24.114 Y32.605 E0.0547
G1 X24.093 Y32.570 E0.0009
G1 X22.117 Y29.291 E0.0812
G1 X22.089 Y29.243 E0.0012
G1 X20.832 Y26.871 E0.0569
G1 X20.810 Y26.827 E0.0010
G1 X20.051 Y25.213 E0.0378
G1 X20.017 Y25.131 E0.0019
G1 X19.401 Y23.453 E0.0379
G1 X19.377 Y23.377 E0.0017
G1 X19.100 Y22.387 E0.0218
G1 X19.069 Y22.232 E0.0034
G1 X18.971 Y21.405 E0.0177
G1 X18.964 Y21.306 E0.0021
G1 X18.955 Y20.814 E0.0104
G1 X18.963 Y20.666 E0.0032
G1 X19.070 Y19.824 E0.0180
G1 X19.239 Y19.377 E0.0101
G1 X19.684 Y18.719 E0.0169
G1 X19.880 Y18.505 E0.0062
G1 X20.170 Y18.809 F7800
G1 E0.1200 F1800
G1 X20.528 Y18.514 E0.0098 F1251
G1 X20.724 Y18.395 E0.0049
G1 X21.357 Y18.124 E0.0146
G1 X21.677 Y18.058 E0.0069
G1 X22.123 Y18.058 E0.0094
G1 X22.233 Y18.065 E0.0024
G1 X22.832 Y18.148 E0.0128
G1 X22.955 Y18.175 E0.0027
G1 X23.937 Y18.472 E0.0218
G1 X24.065 Y18.523 E0.0029
G1 X24.963 Y18.973 E0.0213
G1 X25.011 Y18.999 E0.0012
G1 X26.081 Y19.628 E0.0263
G1 X26.106 Y19.643 E0.0006
G1 X26.563 Y19.935 E0.0115
G1 X26.600 Y19.961 E0.0010
G1 X27.689 Y20.746 E0.0285
G1 X27.715 Y20.765 E0.0007
G1 X29.566 Y22.217 E0.0499
G1 X29.595 Y22.241 E0.0008
G1 X30.872 Y23.344 E0.0358
G1 X30.888 Y23.358 E0.0004
G1 X33.014 Y25.292 E0.0610
G1 X33.036 Y25.313 E0.0006
G1 X35.305 Y27.539 E0.0674
G1 X35.315 Y27.549 E0.0003
G1 X36.773 Y29.031 E0.0441
G1 X36.787 Y29.046 E0.0004
G1 X39.174 Y31.602 E0.0742
G1 X39.182 Y31.611 E0.0003
G1 X40.689 Y33.275 E0.0476
G1 X40.702 Y33.289 E0.0004
G1 X43.105 Y36.067 E0.0779
G1 X43.112 Y36.076 E0.0002
G1 X44.604 Y37.849 E0.0492
G1 X44.613 Y37.861 E0.0003
G1 X46.083 Y39.677 E0.0496
G1 X46.091 Y39.686 E0.0003
G1 X51.587 Y46.699 E0.1890
G1 X51.591 Y46.704 E0.0001
G1 X54.881 Y50.970 E0.1143
G1 X54.885 Y50.975 E0.0001
G1 X60.319 Y58.128 E0.1906
G1 X60.170 Y59.415 E0.0275
G1 X52.799 Y65.497 E0.2027
G1 X51.506 Y65.399 E0.0275
G1 X44.251 Y57.278 E0.2310
G1 X44.247 Y57.273 E0.0002
G1 X38.805 Y51.069 E0.1751
G1 X38.800 Y51.063 E0.0002
G1 X36.391 Y48.261 E0.0784
G1 X36.380 Y48.260 E0.0002
G1 X35.969 Y47.770 E0.0136
G1 X35.538 Y47.270 E0.0140
G1 X35.539 Y47.259 E0.0002
G1 X34.590 Y46.129 E0.0313
G1 X34.579 Y46.116 E0.0004
G1 X32.261 Y43.234 E0.0785
G1 X32.254 Y43.226 E0.0002
G1 X30.842 Y41.418 E0.0487
G1 X30.831 Y41.403 E0.0004
G1 X28.700 Y38.544 E0.0757
G1 X28.692 Y38.533 E0.0003
G1 X27.419 Y36.769 E0.0462
G1 X27.408 Y36.753 E0.0004
G1 X25.889 Y34.536 E0.0570
G1 X25.881 Y34.524 E0.0003
G1 X24.467 Y32.377 E0.0545
G1 X24.450 Y32.350 E0.0007
G1 X22.479 Y29.079 E0.0810
G1 X22.458 Y29.041 E0.0009
G1 X21.205 Y26.679 E0.0567
G1 X21.188 Y26.644 E0.0008
G1 X20.435 Y25.043 E0.0375
G1 X20.408 Y24.978 E0.0015
G1 X19.799 Y23.316 E0.0376
G1 X19.779 Y23.256 E0.0013
G1 X19.508 Y22.290 E0.0213
G1 X19.484 Y22.167 E0.0027
G1 X19.389 Y21.366 E0.0171
G1 X19.384 Y21.287 E0.0017
G1 X19.375 Y20.821 E0.0099
G1 X19.381 Y20.703 E0.0025
G1 X19.480 Y19.927 E0.0166
G1 X19.614 Y19.572 E0.0080
G1 X20.015 Y18.980 E0.0152
G1 X20.170 Y18.809 E0.0049
; feature outer perimeter
G1 X21.434 Y20.126 F7800
G1 E0.1200 F1800
G1 X21.581 Y20.005 E0.0040 F1126
G1 X21.742 Y19.920 E0.0039
G1 X21.874 Y19.878 E0.0029
G1 X22.053 Y19.878 E0.0038
G1 X22.507 Y19.941 E0.0097
G1 X23.033 Y20.084 E0.0116
G1 X23.323 Y20.187 E0.0065
G1 X24.118 Y20.585 E0.0189
G1 X25.142 Y21.187 E0.0252
G1 X25.559 Y21.454 E0.0105
G1 X26.609 Y22.211 E0.0275
G1 X27.269 Y22.716 E0.0176
G1 X28.423 Y23.634 E0.0313
G1 X29.673 Y24.713 E0.0350
G1 X30.447 Y25.407 E0.0221
G1 X31.775 Y26.625 E0.0382
G1 X34.024 Y28.832 E0.0668
G1 X35.466 Y30.298 E0.0436
G1 X37.838 Y32.839 E0.0738
G1 X39.333 Y34.489 E0.0472
G1 X40.003 Y35.251 E0.0215
G1 X41.724 Y37.253 E0.0560
G1 X43.205 Y39.014 E0.0488
G1 X44.664 Y40.816 E0.0492
G1 X46.426 Y43.035 E0.0601
G1 X50.152 Y47.818 E0.1286
G1 X53.438 Y52.080 E0.1142
G1 X58.356 Y58.552 E0.1725
G1 X52.296 Y63.552 E0.1667
G1 X48.209 Y58.991 E0.1299
G1 X45.612 Y56.069 E0.0829
G1 X40.177 Y49.873 E0.1749
G1 X37.499 Y46.758 E0.0872
G1 X44.617 Y40.885 E0.1958
G1 X44.341 Y40.542 E0.0094
G1 X37.214 Y46.423 E0.1960
G1 X35.990 Y44.967 E0.0403
G1 X33.684 Y42.100 E0.0781
G1 X32.283 Y40.306 E0.0483
G1 X30.163 Y37.462 E0.0753
G1 X28.903 Y35.714 E0.0457
G1 X27.396 Y33.515 E0.0566
G1 X25.998 Y31.393 E0.0539
G1 X25.054 Y29.858 E0.0382
G1 X24.052 Y28.163 E0.0418
G1 X23.383 Y26.943 E0.0295
G1 X22.825 Y25.849 E0.0261
G1 X22.330 Y24.818 E0.0243
G1 X22.101 Y24.308 E0.0119
G1 X21.918 Y23.847 E0.0105
G1 X21.521 Y22.727 E0.0252
G1 X21.281 Y21.871 E0.0189
G1 X21.235 Y21.565 E0.0066
G1 X21.203 Y21.204 E0.0077
G1 X21.196 Y20.854 E0.0074
G1 X21.218 Y20.569 E0.0061
G1 X21.253 Y20.390 E0.0039
G1 X21.311 Y20.284 E0.0026
G1 X21.319 Y20.269 F1126
G1 X21.434 Y20.126
G1 X21.581 Y20.005 F1126
G1 X21.742 Y19.920
G1 X21.874 Y19.878
G1 X22.053 Y19.878
G1 X22.507 Y19.941
G1 X23.033 Y20.084
G1 X23.321 Y20.186
; layer 2, Z = 0.570
; tool H0.300 W0.420
G1 X23.427 Y20.312 F7800
G1 X23.778 Y20.477 Z0.271 E0.0046 F2252
G1 X24.472 Y20.849 Z0.273 E0.0094
G1 X25.223 Y21.297 Z0.275 E0.0105
G1 X25.658 Y21.576 Z0.276 E0.0062
G1 X26.762 Y22.372 Z0.279 E0.0165
G1 X28.520 Y23.753 Z0.284 E0.0276
G1 X29.091 Y24.238 Z0.285 E0.0093
G1 X30.474 Y25.462 Z0.290 E0.0232
G1 X31.867 Y26.739 Z0.294 E0.0240
G1 X34.040 Y28.868 Z0.301 E0.0395
G1 X35.553 Y30.406 Z0.305 E0.0284
G1 X37.846 Y32.860 Z0.313 E0.0452
G1 X39.415 Y34.591 Z0.318 E0.0319
G1 X40.110 Y35.382 Z0.320 E0.0145
G1 X41.726 Y37.261 Z0.326 E0.0347
G1 X43.281 Y39.110 Z0.331 E0.0343
G1 X44.816 Y41.006 Z0.337 E0.0351
G1 X46.478 Y43.099 Z0.343 E0.0391
G1 X50.224 Y47.907 Z0.356 E0.0925
G1 X53.508 Y52.167 Z0.368 E0.0842
G1 X58.400 Y58.607 Z0.386 E0.1323
G1 X52.342 Y63.606 Z0.404 E0.1339
