; G-Code generated by Simplify3D(R) Version 4.1.2
; Sep 24, 2022 at 2:36:30 PM
; Settings Summary
;   processName,PProp
;   applyToModels,Wing-R1
;   profileName,PProp - LW-PLA
;   profileVersion,2022-05-27 11:45:37
;   baseProfile,Default
;   printMaterial,
;   printQuality,
;   printExtruders,
;   extruderName,Primary Extruder
;   extruderToolheadNumber,0
;   extruderDiameter,0.4
;   extruderAutoWidth,0
;   extruderWidth,0.42
;   extrusionMultiplier,0.45
;   extruderUseRetract,1
;   extruderRetractionDistance,0
;   extruderExtraRestartDistance,0.12
;   extruderRetractionZLift,0
;   extruderRetractionSpeed,1800
;   extruderUseCoasting,1
;   extruderCoastingDistance,0.2
;   extruderUseWipe,1
;   extruderWipeDistance,2
;   primaryExtruder,0
;   layerHeight,0.3
;   topSolidLayers,0
;   bottomSolidLayers,0
;   perimeterOutlines,1
;   printPerimetersInsideOut,1
;   startPointOption,2
;   startPointOriginX,0
;   startPointOriginY,-100
;   sequentialIslands,0
;   spiralVaseMode,1
;   firstLayerHeightPercentage,90
;   firstLayerWidthPercentage,100
;   firstLayerUnderspeed,0.5
;   useRaft,0
;   raftExtruder,0
;   raftTopLayers,3
;   raftBaseLayers,2
;   raftOffset,3
;   raftSeparationDistance,0.14
;   raftTopInfill,100
;   aboveRaftSpeedMultiplier,0.3
;   useSkirt,1
;   skirtExtruder,0
;   skirtLayers,1
;   skirtOutlines,3
;   skirtOffset,1.4
;   usePrimePillar,0
;   primePillarExtruder,999
;   primePillarWidth,12
;   primePillarLocation,7
;   primePillarSpeedMultiplier,1
;   useOozeShield,0
;   oozeShieldExtruder,999
;   oozeShieldOffset,2
;   oozeShieldOutlines,1
;   oozeShieldSidewallShape,1
;   oozeShieldSidewallAngle,30
;   oozeShieldSpeedMultiplier,1
;   infillExtruder,0
;   internalInfillPattern,Rectilinear
;   externalInfillPattern,Rectilinear
;   infillPercentage,0
;   outlineOverlapPercentage,15
;   infillExtrusionWidthPercentage,100
;   minInfillLength,5
;   infillLayerInterval,1
;   internalInfillAngles,45,-45
;   overlapInternalInfillAngles,0
;   externalInfillAngles,45,-45
;   generateSupport,0
;   supportExtruder,0
;   supportInfillPercentage,30
;   supportExtraInflation,0
;   supportBaseLayers,0
;   denseSupportExtruder,0
;   denseSupportLayers,0
;   denseSupportInfillPercentage,70
;   supportLayerInterval,1
;   supportHorizontalPartOffset,0.3
;   supportUpperSeparationLayers,1
;   supportLowerSeparationLayers,1
;   supportType,0
;   supportGridSpacing,4
;   maxOverhangAngle,45
;   supportAngles,0
;   temperatureName,Primary Extruder,Heated Bed
;   temperatureNumber,0,1
;   temperatureSetpointCount,1,1
;   temperatureSetpointLayers,1,1
;   temperatureSetpointTemperatures,250,55
;   temperatureStabilizeAtStartup,1,1
;   temperatureHeatedBed,0,1
;   fanLayers,1
;   fanSpeeds,100
;   blipFanToFullPower,1
;   adjustSpeedForCooling,0
;   minSpeedLayerTime,15
;   minCoolingSpeedSlowdown,80
;   increaseFanForCooling,0
;   minFanLayerTime,20
;   maxCoolingFanSpeed,100
;   increaseFanForBridging,0
;   bridgingFanSpeed,100
;   use5D,1
;   relativeEdistances,1
;   allowEaxisZeroing,1
;   independentExtruderAxes,0
;   includeM10123,0
;   stickySupport,1
;   applyToolheadOffsets,0
;   gcodeXoffset,0
;   gcodeYoffset,0
;   gcodeZoffset,0
;   overrideMachineDefinition,1
;   machineTypeOverride,0
;   strokeXoverride,200
;   strokeYoverride,200
;   strokeZoverride,200
;   originOffsetXoverride,0
;   originOffsetYoverride,0
;   originOffsetZoverride,0
;   homeXdirOverride,-1
;   homeYdirOverride,-1
;   homeZdirOverride,-1
;   flipXoverride,1
;   flipYoverride,-1
;   flipZoverride,1
;   toolheadOffsets,0,0|0,0|0,0|0,0|0,0|0,0
;   overrideFirmwareConfiguration,1
;   firmwareTypeOverride,RepRap (Marlin/Repetier/Sprinter)
;   GPXconfigOverride,r2
;   baudRateOverride,115200
;   overridePrinterModels,0
;   printerModelsOverride
;   startingGcode,G28,G92 E0.0
;   layerChangeGcode,
;   retractionGcode,
;   toolChangeGcode,
;   endingGcode,M104 S0 ; turn off extruder,M140 S0 ; turn off bed,G28 X0 ; home X axis,M84 ; disable motors,M107 ; turn off fan
;   exportFileFormat,gcode
;   celebration,0
;   celebrationSong,Take On Me
;   postProcessing,
;   defaultSpeed,2502
;   outlineUnderspeed,0.9
;   solidInfillUnderspeed,0.8
;   supportUnderspeed,0.8
;   rapidXYspeed,7800
;   rapidZspeed,1002
;   minBridgingArea,5
;   bridgingExtraInflation,0
;   bridgingExtrusionMultiplier,1
;   bridgingSpeedMultiplier,0.3
;   useFixedBridgingAngle,0
;   fixedBridgingAngle,0
;   applyBridgingToPerimeters,0
;   filamentDiameters,1.75|1.75|1.75|1.75|1.75|1.75
;   filamentPricesPerKg,1000|1000|1000|1000|1000|1000
;   filamentDensities,1.25|1.25|1.25|1.25|1.25|1.25
;   useMinPrintHeight,0
;   minPrintHeight,0.3
;   useMaxPrintHeight,0
;   maxPrintHeight,15
;   useDiaphragm,0
;   diaphragmLayerInterval,20
;   robustSlicing,1
;   mergeAllIntoSolid,0
;   onlyRetractWhenCrossingOutline,0
;   retractBetweenLayers,0
;   useRetractionMinTravel,0
;   retractionMinTravel,3
;   retractWhileWiping,0
;   onlyWipeOutlines,1
;   avoidCrossingOutline,1
;   maxMovementDetourFactor,3
;   toolChangeRetractionDistance,0
;   toolChangeExtraRestartDistance,0
;   toolChangeRetractionSpeed,360
;   externalThinWallType,0
;   internalThinWallType,2
;   thinWallAllowedOverlapPercentage,10
;   singleExtrusionMinLength,1
;   singleExtrusionMinPrintingWidthPercentage,50
;   singleExtrusionMaxPrintingWidthPercentage,200
;   singleExtrusionEndpointExtension,0.2
;   horizontalSizeCompensation,0
G90
M83
M106 S255
M140 S55
M190 S55
M104 S250 T0
M109 S250 T0
G28
G92 E0.0
; process PProp
; layer 1, Z = 0.270
T0
; feature skirt
; tool H0.270 W0.420
G1 Z0.270 F1002
G1 X13.672 Y12.901 F7800
G1 E0.1200 F1800
G1 X14.363 Y12.160 E0.0215 F1251
G1 X14.584 Y11.972 E0.0062
G1 X15.439 Y11.407 E0.0217
G1 X15.659 Y11.291 E0.0053
G1 X16.640 Y10.897 E0.0224
G1 X16.841 Y10.836 E0.0045
G1 X17.927 Y10.604 E0.0236
G1 X18.104 Y10.579 E0.0038
G1 X19.273 Y10.504 E0.0249
G1 X19.409 Y10.502 E0.0029
G1 X20.639 Y10.559 E0.0261
G1 X20.755 Y10.570 E0.0025
G1 X22.146 Y10.768 E0.0298
G1 X22.226 Y10.782 E0.0017
G1 X23.378 Y11.024 E0.0250
G1 X23.456 Y11.043 E0.0017
G1 X24.751 Y11.405 E0.0285
G1 X24.828 Y11.429 E0.0017
G1 X26.200 Y11.912 E0.0309
G1 X26.263 Y11.936 E0.0014
G1 X26.603 Y12.077 E0.0078
G1 X26.645 Y12.068 E0.0009
G1 X27.334 Y12.379 E0.0160
G1 X28.396 Y12.819 E0.0244
G1 X28.406 Y12.864 E0.0010
G1 X29.551 Y13.382 E0.0267
G1 X29.591 Y13.401 E0.0009
G1 X31.635 Y14.414 E0.0484
G1 X31.659 Y14.427 E0.0006
G1 X33.918 Y15.611 E0.0541
G1 X33.942 Y15.623 E0.0006
G1 X36.334 Y16.945 E0.0580
G1 X36.359 Y16.959 E0.0006
G1 X38.800 Y18.382 E0.0599
G1 X38.829 Y18.399 E0.0007
G1 X41.227 Y19.887 E0.0599
G1 X41.256 Y19.905 E0.0007
G1 X43.657 Y21.489 E0.0610
G1 X43.684 Y21.507 E0.0007
G1 X45.866 Y23.032 E0.0565
G1 X46.131 Y23.217 E0.0069
G1 X46.155 Y23.234 E0.0006
G1 X48.695 Y25.101 E0.0669
G1 X48.716 Y25.117 E0.0005
G1 X51.394 Y27.173 E0.0716
G1 X51.412 Y27.187 E0.0005
G1 X54.208 Y29.417 E0.0759
G1 X54.224 Y29.430 E0.0004
G1 X57.113 Y31.817 E0.0795
G1 X57.129 Y31.830 E0.0004
G1 X59.498 Y33.854 E0.0661
G1 X59.518 Y33.853 E0.0004
G1 X60.196 Y34.451 E0.0192
G1 X60.971 Y35.113 E0.0216
G1 X60.973 Y35.134 E0.0005
G1 X63.111 Y37.018 E0.0605
G1 X63.124 Y37.029 E0.0004
G1 X66.172 Y39.792 E0.0873
G1 X66.184 Y39.803 E0.0003
G1 X69.266 Y42.672 E0.0893
G1 X69.277 Y42.682 E0.0003
G1 X72.384 Y45.646 E0.0911
G1 X72.394 Y45.656 E0.0003
G1 X74.629 Y47.839 E0.0663
G1 X74.645 Y47.838 E0.0003
G1 X75.377 Y48.569 E0.0219
G1 X76.019 Y49.196 E0.0190
G1 X76.019 Y49.210 E0.0003
G1 X78.665 Y51.850 E0.0793
G1 X78.675 Y51.860 E0.0003
G1 X81.813 Y55.064 E0.0951
G1 X81.822 Y55.073 E0.0003
G1 X84.952 Y58.340 E0.0960
G1 X84.961 Y58.350 E0.0003
G1 X88.077 Y61.674 E0.0967
G1 X88.090 Y61.689 E0.0004
G1 X91.937 Y65.927 E0.1214
G1 X91.949 Y65.927 E0.0002
G1 X92.612 Y66.670 E0.0211
G1 X93.243 Y67.366 E0.0199
G1 X93.243 Y67.378 E0.0003
G1 X94.229 Y68.484 E0.0314
G1 X94.240 Y68.497 E0.0004
G1 X97.237 Y71.952 E0.0970
G1 X97.249 Y71.966 E0.0004
G1 X100.183 Y75.452 E0.0967
G1 X100.192 Y75.463 E0.0003
G1 X103.063 Y78.957 E0.0959
G1 X103.070 Y78.966 E0.0002
G1 X105.791 Y82.339 E0.0919
G1 X105.798 Y82.339 E0.0001
G1 X106.456 Y83.164 E0.0224
G1 X107.013 Y83.854 E0.0188
G1 X107.013 Y83.861 E0.0001
G1 X111.343 Y89.286 E0.1473
G1 X111.349 Y89.293 E0.0002
G1 X118.223 Y98.043 E0.2361
G1 X118.244 Y98.044 E0.0005
G1 X118.917 Y98.927 E0.0235
G1 X119.422 Y99.570 E0.0174
G1 X119.422 Y99.589 E0.0004
G1 X123.750 Y105.271 E0.1515
G1 X123.756 Y105.278 E0.0002
G1 X128.818 Y112.018 E0.1788
G1 X128.824 Y112.018 E0.0001
G1 X129.526 Y112.961 E0.0250
G1 X129.987 Y113.579 E0.0164
G1 X135.470 Y120.941 E0.1948
G1 X135.481 Y120.957 E0.0004
G1 X137.029 Y123.102 E0.0561
G1 X137.039 Y123.117 E0.0004
G1 X139.717 Y126.950 E0.0992
G1 X139.733 Y126.973 E0.0006
G1 X141.855 Y130.166 E0.0813
G1 X141.871 Y130.192 E0.0006
G1 X143.484 Y132.755 E0.0642
G1 X143.501 Y132.783 E0.0007
G1 X145.159 Y135.582 E0.0690
G1 X145.211 Y135.679 E0.0023
G1 X145.568 Y136.428 E0.0176
G1 X145.676 Y136.784 E0.0079
G1 X145.924 Y138.527 E0.0373
G1 X143.969 Y140.275 E0.0556
G1 X142.255 Y139.832 E0.0376
G1 X141.839 Y139.635 E0.0098
G1 X141.164 Y139.146 E0.0177
G1 X141.077 Y139.077 E0.0024
G1 X139.626 Y137.808 E0.0409
G1 X139.607 Y137.791 E0.0005
G1 X130.502 Y129.487 E0.2614
G1 X121.503 Y121.212 E0.2594
G1 X109.509 Y110.227 E0.3451
G1 X108.751 Y109.531 E0.0218
G1 X108.075 Y108.909 E0.0195
G1 X99.821 Y101.318 E0.2379
G1 X99.815 Y101.314 E0.0002
G1 X94.890 Y96.734 E0.1427
G1 X94.200 Y96.090 E0.0200
G1 X93.466 Y95.404 E0.0213
G1 X83.718 Y86.298 E0.2830
G1 X78.691 Y81.663 E0.1451
G1 X70.168 Y73.829 E0.2456
G1 X70.163 Y73.829 E0.0001
G1 X69.425 Y73.145 E0.0213
G1 X68.690 Y72.470 E0.0212
G1 X68.690 Y72.464 E0.0001
G1 X61.097 Y65.429 E0.2196
G1 X60.479 Y64.856 E0.0179
G1 X59.670 Y64.106 E0.0234
G1 X46.075 Y51.496 E0.3934
G1 X46.070 Y51.496 E0.0001
G1 X45.343 Y50.816 E0.0211
G1 X44.648 Y50.172 E0.0201
G1 X44.648 Y50.166 E0.0001
G1 X35.092 Y41.233 E0.2775
G1 X31.350 Y37.797 E0.1078
G1 X26.184 Y33.123 E0.1478
G1 X26.167 Y33.107 E0.0005
G1 X23.823 Y30.902 E0.0683
G1 X23.803 Y30.883 E0.0006
G1 X19.565 Y26.715 E0.1261
G1 X19.543 Y26.692 E0.0007
G1 X18.579 Y25.694 E0.0294
G1 X18.557 Y25.671 E0.0007
G1 X17.931 Y24.987 E0.0197
G1 X17.893 Y24.986 E0.0008
G1 X17.221 Y24.213 E0.0217
G1 X16.627 Y23.565 E0.0187
G1 X16.627 Y23.529 E0.0008
G1 X15.865 Y22.651 E0.0247
G1 X15.841 Y22.623 E0.0008
G1 X15.084 Y21.696 E0.0254
G1 X15.062 Y21.669 E0.0007
G1 X14.401 Y20.811 E0.0230
G1 X14.359 Y20.753 E0.0015
G1 X13.791 Y19.918 E0.0214
G1 X13.728 Y19.814 E0.0026
G1 X13.265 Y18.965 E0.0205
G1 X13.192 Y18.804 E0.0037
G1 X12.861 Y17.908 E0.0203
G1 X12.803 Y17.692 E0.0047
G1 X12.638 Y16.741 E0.0205
G1 X12.620 Y16.501 E0.0051
G1 X12.643 Y15.538 E0.0205
G1 X12.679 Y15.273 E0.0057
G1 X12.913 Y14.327 E0.0207
G1 X13.019 Y14.047 E0.0063
G1 X13.485 Y13.165 E0.0212
G1 X13.672 Y12.901 E0.0069
G1 X13.999 Y13.167 F7800
G1 E0.1200 F1800
G1 X14.653 Y12.464 E0.0204 F1251
G1 X14.837 Y12.309 E0.0051
G1 X15.653 Y11.769 E0.0208
G1 X15.835 Y11.673 E0.0044
G1 X16.780 Y11.294 E0.0216
G1 X16.946 Y11.243 E0.0037
G1 X18.000 Y11.018 E0.0229
G1 X18.147 Y10.997 E0.0031
G1 X19.289 Y10.923 E0.0243
G1 X19.401 Y10.922 E0.0024
G1 X20.610 Y10.978 E0.0257
G1 X20.706 Y10.987 E0.0021
G1 X22.080 Y11.182 E0.0295
G1 X22.147 Y11.194 E0.0014
G1 X23.285 Y11.434 E0.0247
G1 X23.349 Y11.449 E0.0014
G1 X24.632 Y11.808 E0.0282
G1 X24.695 Y11.828 E0.0014
G1 X26.056 Y12.306 E0.0306
G1 X26.108 Y12.326 E0.0012
G1 X26.561 Y12.514 E0.0104
G1 X26.596 Y12.507 E0.0008
G1 X27.167 Y12.765 E0.0133
G1 X28.033 Y13.124 E0.0199
G1 X28.041 Y13.160 E0.0008
G1 X29.375 Y13.763 E0.0310
G1 X29.407 Y13.779 E0.0008
G1 X31.446 Y14.789 E0.0483
G1 X31.466 Y14.800 E0.0005
G1 X33.721 Y15.981 E0.0540
G1 X33.741 Y15.992 E0.0005
G1 X36.129 Y17.311 E0.0579
G1 X36.150 Y17.323 E0.0005
G1 X38.586 Y18.743 E0.0598
G1 X38.610 Y18.758 E0.0006
G1 X41.003 Y20.243 E0.0598
G1 X41.027 Y20.258 E0.0006
G1 X43.423 Y21.838 E0.0609
G1 X43.445 Y21.853 E0.0006
G1 X45.446 Y23.251 E0.0518
G1 X45.889 Y23.560 E0.0115
G1 X45.909 Y23.574 E0.0005
G1 X48.445 Y25.438 E0.0668
G1 X48.462 Y25.451 E0.0004
G1 X51.137 Y27.505 E0.0716
G1 X51.152 Y27.517 E0.0004
G1 X53.944 Y29.744 E0.0758
G1 X53.958 Y29.755 E0.0004
G1 X56.844 Y32.140 E0.0794
G1 X56.857 Y32.150 E0.0004
G1 X59.353 Y34.283 E0.0696
G1 X59.369 Y34.282 E0.0003
G1 X59.921 Y34.768 E0.0156
G1 X60.563 Y35.316 E0.0179
G1 X60.564 Y35.334 E0.0004
G1 X62.832 Y37.332 E0.0641
G1 X62.843 Y37.342 E0.0003
G1 X65.889 Y40.103 E0.0872
G1 X65.899 Y40.112 E0.0003
G1 X68.978 Y42.978 E0.0893
G1 X68.988 Y42.987 E0.0003
G1 X72.093 Y45.950 E0.0911
G1 X72.101 Y45.958 E0.0002
G1 X74.462 Y48.263 E0.0700
G1 X74.475 Y48.262 E0.0003
G1 X75.082 Y48.868 E0.0182
G1 X75.604 Y49.378 E0.0155
G1 X75.604 Y49.389 E0.0002
G1 X78.368 Y52.146 E0.0828
G1 X78.376 Y52.155 E0.0002
G1 X81.512 Y55.357 E0.0951
G1 X81.520 Y55.365 E0.0002
G1 X84.648 Y58.630 E0.0959
G1 X84.656 Y58.638 E0.0002
G1 X87.769 Y61.960 E0.0966
G1 X87.780 Y61.972 E0.0003
G1 X91.750 Y66.346 E0.1253
G1 X91.760 Y66.346 E0.0002
G1 X92.300 Y66.952 E0.0172
G1 X92.823 Y67.528 E0.0165
G1 X92.823 Y67.538 E0.0002
G1 X93.915 Y68.762 E0.0348
G1 X93.924 Y68.773 E0.0003
G1 X96.919 Y72.226 E0.0970
G1 X96.929 Y72.237 E0.0003
G1 X99.861 Y75.721 E0.0966
G1 X99.868 Y75.731 E0.0003
G1 X102.738 Y79.223 E0.0959
G1 X102.744 Y79.230 E0.0002
G1 X105.584 Y82.752 E0.0960
G1 X105.590 Y82.752 E0.0001
G1 X106.128 Y83.426 E0.0183
G1 X106.588 Y83.997 E0.0155
G1 X106.588 Y84.003 E0.0001
G1 X111.015 Y89.547 E0.1505
G1 X111.020 Y89.553 E0.0002
G1 X118.013 Y98.456 E0.2402
G1 X118.031 Y98.456 E0.0004
G1 X118.585 Y99.184 E0.0194
G1 X118.998 Y99.710 E0.0142
G1 X118.997 Y99.725 E0.0003
G1 X123.416 Y105.525 E0.1547
G1 X123.420 Y105.531 E0.0001
G1 X128.602 Y112.430 E0.1831
G1 X128.607 Y112.430 E0.0001
G1 X129.190 Y113.213 E0.0207
G1 X129.562 Y113.712 E0.0132
G1 X135.132 Y121.191 E0.1978
G1 X135.142 Y121.204 E0.0003
G1 X136.687 Y123.346 E0.0560
G1 X136.696 Y123.359 E0.0003
G1 X139.371 Y127.188 E0.0991
G1 X139.384 Y127.208 E0.0005
G1 X141.503 Y130.397 E0.0812
G1 X141.517 Y130.418 E0.0005
G1 X143.127 Y132.976 E0.0641
G1 X143.141 Y133.000 E0.0006
G1 X144.793 Y135.788 E0.0688
G1 X144.836 Y135.869 E0.0019
G1 X145.175 Y136.580 E0.0167
G1 X145.264 Y136.875 E0.0066
G1 X145.476 Y138.364 E0.0319
G1 X143.857 Y139.812 E0.0461
G1 X142.398 Y139.435 E0.0320
G1 X142.054 Y139.272 E0.0081
G1 X141.418 Y138.812 E0.0166
G1 X141.346 Y138.754 E0.0020
G1 X139.904 Y137.494 E0.0406
G1 X139.888 Y137.479 E0.0005
G1 X130.786 Y129.177 E0.2614
G1 X121.788 Y120.903 E0.2594
G1 X109.664 Y109.799 E0.3488
G1 X109.035 Y109.222 E0.0181
G1 X108.486 Y108.716 E0.0159
G1 X100.105 Y101.009 E0.2416
G1 X100.101 Y101.005 E0.0001
G1 X95.048 Y96.307 E0.1464
G1 X94.487 Y95.783 E0.0163
G1 X93.878 Y95.214 E0.0177
G1 X84.005 Y85.991 E0.2867
G1 X78.976 Y81.354 E0.1451
G1 X70.320 Y73.402 E0.2494
G1 X69.710 Y72.837 E0.0176
G1 X69.102 Y72.274 E0.0176
G1 X61.258 Y65.005 E0.2269
G1 X60.764 Y64.548 E0.0143
G1 X60.085 Y63.917 E0.0197
G1 X46.228 Y51.069 E0.4009
G1 X45.630 Y50.510 E0.0174
G1 X45.060 Y49.977 E0.0166
G1 X35.377 Y40.925 E0.2812
G1 X31.633 Y37.487 E0.1078
G1 X26.468 Y32.813 E0.1478
G1 X26.453 Y32.800 E0.0004
G1 X24.112 Y30.598 E0.0682
G1 X24.096 Y30.582 E0.0005
G1 X19.862 Y26.418 E0.1260
G1 X19.843 Y26.399 E0.0006
G1 X18.883 Y25.404 E0.0293
G1 X18.865 Y25.385 E0.0006
G1 X18.118 Y24.569 E0.0235
G1 X18.087 Y24.569 E0.0007
G1 X17.534 Y23.933 E0.0179
G1 X17.047 Y23.401 E0.0153
G1 X17.047 Y23.371 E0.0006
