; G-Code generated by Simplify3D(R) Version 4.1.2
; Sep 24, 2022 at 2:36:12 PM
; Settings Summary
;   processName,PProp
;   applyToModels,Wing-L4
;   profileName,PProp - LW-PLA
;   profileVersion,2022-05-27 11:45:37
;   baseProfile,Default
;   printMaterial,
;   printQuality,
;   printExtruders,
;   extruderName,Primary Extruder
;   extruderToolheadNumber,0
;   extruderDiameter,0.4
;   extruderAutoWidth,0
;   extruderWidth,0.42
;   extrusionMultiplier,0.45
;   extruderUseRetract,1
;   extruderRetractionDistance,0
;   extruderExtraRestartDistance,0.12
;   extruderRetractionZLift,0
;   extruderRetractionSpeed,1800
;   extruderUseCoasting,1
;   extruderCoastingDistance,0.2
;   extruderUseWipe,1
;   extruderWipeDistance,2
;   primaryExtruder,0
;   layerHeight,0.3
;   topSolidLayers,0
;   bottomSolidLayers,0
;   perimeterOutlines,1
;   printPerimetersInsideOut,1
;   startPointOption,2
;   startPointOriginX,0
;   startPointOriginY,-100
;   sequentialIslands,0
;   spiralVaseMode,1
;   firstLayerHeightPercentage,90
;   firstLayerWidthPercentage,100
;   firstLayerUnderspeed,0.5
;   useRaft,0
;   raftExtruder,0
;   raftTopLayers,3
;   raftBaseLayers,2
;   raftOffset,3
;   raftSeparationDistance,0.14
;   raftTopInfill,100
;   aboveRaftSpeedMultiplier,0.3
;   useSkirt,1
;   skirtExtruder,0
;   skirtLayers,1
;   skirtOutlines,3
;   skirtOffset,1.4
;   usePrimePillar,0
;   primePillarExtruder,999
;   primePillarWidth,12
;   primePillarLocation,7
;   primePillarSpeedMultiplier,1
;   useOozeShield,0
;   oozeShieldExtruder,999
;   oozeShieldOffset,2
;   oozeShieldOutlines,1
;   oozeShieldSidewallShape,1
;   oozeShieldSidewallAngle,30
;   oozeShieldSpeedMultiplier,1
;   infillExtruder,0
;   internalInfillPattern,Rectilinear
;   externalInfillPattern,Rectilinear
;   infillPercentage,0
;   outlineOverlapPercentage,15
;   infillExtrusionWidthPercentage,100
;   minInfillLength,5
;   infillLayerInterval,1
;   internalInfillAngles,45,-45
;   overlapInternalInfillAngles,0
;   externalInfillAngles,45,-45
;   generateSupport,0
;   supportExtruder,0
;   supportInfillPercentage,30
;   supportExtraInflation,0
;   supportBaseLayers,0
;   denseSupportExtruder,0
;   denseSupportLayers,0
;   denseSupportInfillPercentage,70
;   supportLayerInterval,1
;   supportHorizontalPartOffset,0.3
;   supportUpperSeparationLayers,1
;   supportLowerSeparationLayers,1
;   supportType,0
;   supportGridSpacing,4
;   maxOverhangAngle,45
;   supportAngles,0
;   temperatureName,Primary Extruder,Heated Bed
;   temperatureNumber,0,1
;   temperatureSetpointCount,1,1
;   temperatureSetpointLayers,1,1
;   temperatureSetpointTemperatures,250,55
;   temperatureStabilizeAtStartup,1,1
;   temperatureHeatedBed,0,1
;   fanLayers,1
;   fanSpeeds,100
;   blipFanToFullPower,1
;   adjustSpeedForCooling,0
;   minSpeedLayerTime,15
;   minCoolingSpeedSlowdown,80
;   increaseFanForCooling,0
;   minFanLayerTime,20
;   maxCoolingFanSpeed,100
;   increaseFanForBridging,0
;   bridgingFanSpeed,100
;   use5D,1
;   relativeEdistances,1
;   allowEaxisZeroing,1
;   independentExtruderAxes,0
;   includeM10123,0
;   stickySupport,1
;   applyToolheadOffsets,0
;   gcodeXoffset,0
;   gcodeYoffset,0
;   gcodeZoffset,0
;   overrideMachineDefinition,1
;   machineTypeOverride,0
;   strokeXoverride,200
;   strokeYoverride,200
;   strokeZoverride,200
;   originOffsetXoverride,0
;   originOffsetYoverride,0
;   originOffsetZoverride,0
;   homeXdirOverride,-1
;   homeYdirOverride,-1
;   homeZdirOverride,-1
;   flipXoverride,1
;   flipYoverride,-1
;   flipZoverride,1
;   toolheadOffsets,0,0|0,0|0,0|0,0|0,0|0,0
;   overrideFirmwareConfiguration,1
;   firmwareTypeOverride,RepRap (Marlin/Repetier/Sprinter)
;   GPXconfigOverride,r2
;   baudRateOverride,115200
;   overridePrinterModels,0
;   printerModelsOverride
;   startingGcode,G28,G92 E0.0
;   layerChangeGcode,
;   retractionGcode,
;   toolChangeGcode,
;   endingGcode,M104 S0 ; turn off extruder,M140 S0 ; turn off bed,G28 X0 ; home X axis,M84 ; disable motors,M107 ; turn off fan
;   exportFileFormat,gcode
;   celebration,0
;   celebrationSong,Take On Me
;   postProcessing,
;   defaultSpeed,2502
;   outlineUnderspeed,0.9
;   solidInfillUnderspeed,0.8
;   supportUnderspeed,0.8
;   rapidXYspeed,7800
;   rapidZspeed,1002
;   minBridgingArea,5
;   bridgingExtraInflation,0
;   bridgingExtrusionMultiplier,1
;   bridgingSpeedMultiplier,0.3
;   useFixedBridgingAngle,0
;   fixedBridgingAngle,0
;   applyBridgingToPerimeters,0
;   filamentDiameters,1.75|1.75|1.75|1.75|1.75|1.75
;   filamentPricesPerKg,1000|1000|1000|1000|1000|1000
;   filamentDensities,1.25|1.25|1.25|1.25|1.25|1.25
;   useMinPrintHeight,0
;   minPrintHeight,0.3
;   useMaxPrintHeight,0
;   maxPrintHeight,15
;   useDiaphragm,0
;   diaphragmLayerInterval,20
;   robustSlicing,1
;   mergeAllIntoSolid,0
;   onlyRetractWhenCrossingOutline,0
;   retractBetweenLayers,0
;   useRetractionMinTravel,0
;   retractionMinTravel,3
;   retractWhileWiping,0
;   onlyWipeOutlines,1
;   avoidCrossingOutline,1
;   maxMovementDetourFactor,3
;   toolChangeRetractionDistance,0
;   toolChangeExtraRestartDistance,0
;   toolChangeRetractionSpeed,360
;   externalThinWallType,0
;   internalThinWallType,2
;   thinWallAllowedOverlapPercentage,10
;   singleExtrusionMinLength,1
;   singleExtrusionMinPrintingWidthPercentage,50
;   singleExtrusionMaxPrintingWidthPercentage,200
;   singleExtrusionEndpointExtension,0.2
;   horizontalSizeCompensation,0
G90
M83
M106 S255
M140 S55
M190 S55
M104 S250 T0
M109 S250 T0
G28
G92 E0.0
; process PProp
; layer 1, Z = 0.270
T0
; feature skirt
; tool H0.270 W0.420
G1 Z0.270 F1002
G1 X15.824 Y11.393 F7800
G1 E0.1200 F1800
G1 X16.379 Y10.742 E0.0182 F1251
G1 X16.784 Y10.429 E0.0109
G1 X17.542 Y10.063 E0.0179
G1 X17.807 Y9.971 E0.0059
G1 X18.574 Y9.799 E0.0167
G1 X18.923 Y9.772 E0.0074
G1 X19.706 Y9.823 E0.0166
G1 X19.881 Y9.847 E0.0038
G1 X20.628 Y10.006 E0.0162
G1 X20.852 Y10.076 E0.0050
G1 X21.575 Y10.383 E0.0167
G1 X21.675 Y10.431 E0.0024
G1 X22.372 Y10.803 E0.0168
G1 X22.490 Y10.875 E0.0029
G1 X23.905 Y11.853 E0.0365
G1 X23.957 Y11.890 E0.0014
G1 X25.580 Y13.141 E0.0435
G1 X25.610 Y13.165 E0.0008
G1 X27.405 Y14.638 E0.0493
G1 X27.430 Y14.659 E0.0007
G1 X28.718 Y15.775 E0.0362
G1 X28.733 Y15.788 E0.0004
G1 X31.722 Y18.465 E0.0851
G1 X31.739 Y18.480 E0.0005
G1 X34.165 Y20.734 E0.0703
G1 X34.178 Y20.733 E0.0003
G1 X34.832 Y21.354 E0.0191
G1 X35.587 Y22.055 E0.0218
G1 X35.587 Y22.070 E0.0003
G1 X41.404 Y27.587 E0.1701
G1 X50.034 Y35.610 E0.2500
G1 X67.283 Y51.738 E0.5010
G1 X68.002 Y52.414 E0.0209
G1 X68.701 Y53.072 E0.0204
G1 X82.132 Y65.701 E0.3911
G1 X87.862 Y71.032 E0.1661
G1 X88.634 Y71.752 E0.0224
G1 X89.294 Y72.369 E0.0192
G1 X98.322 Y80.798 E0.2620
G1 X98.327 Y80.802 E0.0001
G1 X124.037 Y105.051 E0.7498
G1 X129.428 Y110.173 E0.1578
G1 X129.461 Y110.205 E0.0010
G1 X130.221 Y110.983 E0.0231
G1 X130.362 Y111.157 E0.0047
G1 X131.632 Y113.047 E0.0483
G1 X129.468 Y115.843 E0.0750
G1 X127.303 Y115.082 E0.0487
G1 X127.117 Y114.999 E0.0043
G1 X126.144 Y114.463 E0.0236
G1 X126.099 Y114.436 E0.0011
G1 X122.304 Y112.128 E0.0942
G1 X122.272 Y112.108 E0.0008
G1 X118.106 Y109.399 E0.1054
G1 X118.085 Y109.384 E0.0005
G1 X114.537 Y106.968 E0.0911
G1 X114.520 Y106.957 E0.0004
G1 X102.558 Y98.514 E0.3106
G1 X102.553 Y98.509 E0.0002
G1 X95.987 Y93.817 E0.1712
G1 X95.977 Y93.809 E0.0003
G1 X90.352 Y89.700 E0.1478
G1 X90.345 Y89.694 E0.0002
G1 X81.602 Y83.208 E0.2310
G1 X81.598 Y83.204 E0.0001
G1 X80.169 Y82.134 E0.0379
G1 X80.155 Y82.135 E0.0003
G1 X79.429 Y81.580 E0.0194
G1 X78.604 Y80.962 E0.0219
G1 X78.603 Y80.948 E0.0003
G1 X72.618 Y76.372 E0.1598
G1 X72.599 Y76.357 E0.0005
G1 X68.166 Y72.823 E0.1203
G1 X68.151 Y72.810 E0.0004
G1 X62.229 Y67.927 E0.1628
G1 X62.214 Y67.914 E0.0004
G1 X58.069 Y64.383 E0.1155
G1 X58.053 Y64.383 E0.0004
G1 X57.361 Y63.779 E0.0195
G1 X56.593 Y63.124 E0.0214
G1 X56.592 Y63.107 E0.0004
G1 X53.470 Y60.378 E0.0880
G1 X53.460 Y60.369 E0.0003
G1 X49.392 Y56.731 E0.1158
G1 X49.379 Y56.719 E0.0004
G1 X45.416 Y53.070 E0.1143
G1 X45.406 Y53.061 E0.0003
G1 X42.754 Y50.563 E0.0773
G1 X42.743 Y50.552 E0.0003
G1 X39.123 Y47.057 E0.1068
G1 X39.108 Y47.043 E0.0004
G1 X36.800 Y44.739 E0.0692
G1 X36.792 Y44.731 E0.0002
G1 X34.529 Y42.428 E0.0685
G1 X34.513 Y42.412 E0.0005
G1 X31.519 Y39.250 E0.0924
G1 X31.504 Y39.234 E0.0005
G1 X29.572 Y37.121 E0.0608
G1 X29.555 Y37.102 E0.0005
G1 X27.108 Y34.314 E0.0787
G1 X27.081 Y34.283 E0.0009
G1 X25.489 Y32.344 E0.0532
G1 X25.446 Y32.342 E0.0009
G1 X24.800 Y31.505 E0.0224
G1 X24.265 Y30.854 E0.0179
G1 X24.266 Y30.814 E0.0008
G1 X22.633 Y28.699 E0.0567
G1 X22.617 Y28.678 E0.0006
G1 X21.257 Y26.837 E0.0486
G1 X21.239 Y26.813 E0.0006
G1 X19.480 Y24.307 E0.0650
G1 X19.457 Y24.273 E0.0009
G1 X17.739 Y21.642 E0.0667
G1 X17.717 Y21.608 E0.0009
G1 X17.328 Y20.967 E0.0159
G1 X17.299 Y20.915 E0.0013
G1 X16.754 Y19.910 E0.0243
G1 X16.731 Y19.866 E0.0011
G1 X16.248 Y18.883 E0.0232
G1 X16.214 Y18.807 E0.0018
G1 X15.819 Y17.842 E0.0221
G1 X15.797 Y17.786 E0.0013
G1 X15.459 Y16.829 E0.0215
G1 X15.425 Y16.715 E0.0025
G1 X15.199 Y15.801 E0.0200
G1 X15.179 Y15.704 E0.0021
G1 X15.030 Y14.795 E0.0195
G1 X15.014 Y14.577 E0.0046
G1 X15.027 Y13.736 E0.0178
G1 X15.043 Y13.557 E0.0038
G1 X15.180 Y12.724 E0.0179
G1 X15.294 Y12.373 E0.0078
G1 X15.660 Y11.641 E0.0174
G1 X15.824 Y11.393 E0.0063
G1 X16.160 Y11.646 F7800
G1 E0.1200 F1800
G1 X16.670 Y11.047 E0.0167 F1251
G1 X17.006 Y10.788 E0.0090
G1 X17.703 Y10.452 E0.0164
G1 X17.922 Y10.376 E0.0049
G1 X18.636 Y10.216 E0.0155
G1 X18.926 Y10.193 E0.0062
G1 X19.663 Y10.241 E0.0157
G1 X19.809 Y10.261 E0.0031
G1 X20.521 Y10.413 E0.0155
G1 X20.707 Y10.471 E0.0041
G1 X21.403 Y10.766 E0.0160
G1 X21.485 Y10.805 E0.0019
G1 X22.163 Y11.168 E0.0163
G1 X22.261 Y11.228 E0.0024
G1 X23.662 Y12.195 E0.0361
G1 X23.705 Y12.226 E0.0011
G1 X25.321 Y13.472 E0.0433
G1 X25.346 Y13.491 E0.0007
G1 X27.137 Y14.961 E0.0492
G1 X27.157 Y14.979 E0.0006
G1 X28.442 Y16.091 E0.0361
G1 X28.454 Y16.102 E0.0004
G1 X31.441 Y18.777 E0.0850
G1 X31.454 Y18.789 E0.0004
G1 X34.004 Y21.158 E0.0738
G1 X34.015 Y21.158 E0.0002
G1 X34.545 Y21.660 E0.0155
G1 X35.172 Y22.243 E0.0182
G1 X35.173 Y22.255 E0.0003
G1 X41.116 Y27.893 E0.1738
G1 X49.747 Y35.917 E0.2500
G1 X67.121 Y52.163 E0.5047
G1 X67.715 Y52.721 E0.0173
G1 X68.287 Y53.259 E0.0167
G1 X81.845 Y66.007 E0.3948
G1 X87.701 Y71.456 E0.1697
G1 X88.347 Y72.060 E0.0188
G1 X88.879 Y72.556 E0.0154
G1 X98.036 Y81.105 E0.2658
G1 X98.039 Y81.109 E0.0001
G1 X123.748 Y105.356 E0.7498
G1 X129.136 Y110.475 E0.1577
G1 X129.163 Y110.502 E0.0008
G1 X129.907 Y111.263 E0.0226
G1 X130.024 Y111.407 E0.0039
G1 X131.114 Y113.029 E0.0415
G1 X129.321 Y115.346 E0.0622
G1 X127.459 Y114.692 E0.0419
G1 X127.305 Y114.623 E0.0036
G1 X126.351 Y114.097 E0.0231
G1 X126.314 Y114.075 E0.0009
G1 X122.525 Y111.771 E0.0941
G1 X122.498 Y111.755 E0.0007
G1 X118.337 Y109.048 E0.1053
G1 X118.319 Y109.036 E0.0005
G1 X114.775 Y106.622 E0.0910
G1 X114.761 Y106.612 E0.0004
G1 X102.801 Y98.171 E0.3106
G1 X102.796 Y98.167 E0.0001
G1 X96.232 Y93.476 E0.1712
G1 X96.223 Y93.470 E0.0002
G1 X90.601 Y89.361 E0.1477
G1 X90.595 Y89.356 E0.0002
G1 X81.849 Y82.868 E0.2310
G1 X80.295 Y81.704 E0.0412
G1 X80.283 Y81.705 E0.0002
G1 X79.683 Y81.245 E0.0160
G1 X79.008 Y80.740 E0.0179
G1 X79.007 Y80.729 E0.0002
G1 X72.875 Y76.039 E0.1638
G1 X72.859 Y76.027 E0.0004
G1 X68.430 Y72.495 E0.1202
G1 X68.417 Y72.485 E0.0004
G1 X62.498 Y67.604 E0.1628
G1 X62.485 Y67.594 E0.0003
G1 X58.216 Y63.955 E0.1190
G1 X58.202 Y63.956 E0.0003
G1 X57.636 Y63.461 E0.0160
G1 X57.003 Y62.922 E0.0176
G1 X57.002 Y62.907 E0.0003
G1 X53.747 Y60.063 E0.0917
G1 X53.739 Y60.055 E0.0002
G1 X49.673 Y56.419 E0.1157
G1 X49.662 Y56.409 E0.0003
G1 X45.701 Y52.762 E0.1142
G1 X45.693 Y52.754 E0.0002
G1 X43.043 Y50.258 E0.0772
G1 X43.034 Y50.249 E0.0003
G1 X39.416 Y46.756 E0.1067
G1 X39.404 Y46.744 E0.0004
G1 X37.097 Y44.442 E0.0691
G1 X37.091 Y44.435 E0.0002
G1 X34.830 Y42.135 E0.0684
G1 X34.816 Y42.122 E0.0004
G1 X31.825 Y38.962 E0.0923
G1 X31.813 Y38.949 E0.0004
G1 X29.883 Y36.839 E0.0607
G1 X29.869 Y36.823 E0.0004
G1 X27.425 Y34.040 E0.0786
G1 X27.404 Y34.014 E0.0007
G1 X25.695 Y31.934 E0.0571
G1 X25.660 Y31.932 E0.0007
G1 X25.129 Y31.244 E0.0184
G1 X24.690 Y30.710 E0.0147
G1 X24.692 Y30.678 E0.0007
G1 X22.966 Y28.444 E0.0599
G1 X22.953 Y28.427 E0.0005
G1 X21.596 Y26.590 E0.0485
G1 X21.582 Y26.570 E0.0005
G1 X19.826 Y24.068 E0.0648
G1 X19.807 Y24.040 E0.0007
G1 X18.092 Y21.415 E0.0665
G1 X18.075 Y21.387 E0.0007
G1 X17.690 Y20.753 E0.0157
G1 X17.666 Y20.711 E0.0010
G1 X17.125 Y19.714 E0.0241
G1 X17.106 Y19.677 E0.0009
G1 X16.628 Y18.704 E0.0230
G1 X16.600 Y18.641 E0.0015
G1 X16.209 Y17.688 E0.0219
G1 X16.191 Y17.641 E0.0011
G1 X15.859 Y16.698 E0.0212
G1 X15.830 Y16.604 E0.0021
G1 X15.608 Y15.708 E0.0196
G1 X15.592 Y15.628 E0.0017
G1 X15.447 Y14.746 E0.0190
G1 X15.434 Y14.565 E0.0038
G1 X15.447 Y13.758 E0.0171
G1 X15.460 Y13.610 E0.0032
G1 X15.590 Y12.823 E0.0169
G1 X15.684 Y12.532 E0.0065
G1 X16.024 Y11.851 E0.0162
G1 X16.160 Y11.646 E0.0052
G1 X16.496 Y11.899 F7800
G1 E0.1200 F1800
G1 X16.961 Y11.353 E0.0152 F1251
G1 X17.227 Y11.147 E0.0071
G1 X17.863 Y10.841 E0.0150
G1 X18.037 Y10.781 E0.0039
G1 X18.699 Y10.632 E0.0144
G1 X18.928 Y10.614 E0.0049
G1 X19.621 Y10.659 E0.0147
G1 X19.736 Y10.675 E0.0025
G1 X20.415 Y10.819 E0.0147
G1 X20.561 Y10.866 E0.0033
G1 X21.230 Y11.149 E0.0154
G1 X21.296 Y11.180 E0.0015
G1 X21.954 Y11.532 E0.0158
G1 X22.032 Y11.580 E0.0019
G1 X23.419 Y12.538 E0.0358
G1 X23.453 Y12.562 E0.0009
G1 X25.062 Y13.802 E0.0431
G1 X25.082 Y13.818 E0.0005
G1 X26.868 Y15.284 E0.0490
G1 X26.884 Y15.298 E0.0004
G1 X28.165 Y16.407 E0.0360
G1 X28.176 Y16.416 E0.0003
G1 X31.159 Y19.088 E0.0850
G1 X31.170 Y19.098 E0.0003
G1 X33.844 Y21.582 E0.0774
G1 X33.852 Y21.582 E0.0002
G1 X34.258 Y21.966 E0.0119
G1 X34.758 Y22.431 E0.0145
G1 X34.758 Y22.441 E0.0002
G1 X40.828 Y28.199 E0.1775
G1 X49.460 Y36.224 E0.2500
G1 X66.960 Y52.587 E0.5083
G1 X67.428 Y53.028 E0.0136
G1 X67.872 Y53.445 E0.0130
G1 X81.558 Y66.314 E0.3986
G1 X87.540 Y71.881 E0.1734
G1 X88.061 Y72.367 E0.0151
G1 X88.463 Y72.743 E0.0117
G1 X97.752 Y81.415 E0.2696
G1 X123.460 Y105.661 E0.7497
G1 X128.844 Y110.777 E0.1576
G1 X128.866 Y110.798 E0.0006
G1 X129.593 Y111.543 E0.0221
G1 X129.686 Y111.657 E0.0031
G1 X130.596 Y113.012 E0.0346
G1 X129.174 Y114.850 E0.0493
G1 X127.615 Y114.302 E0.0351
G1 X127.492 Y114.247 E0.0028
G1 X126.558 Y113.731 E0.0226
G1 X126.528 Y113.714 E0.0007
G1 X122.746 Y111.414 E0.0939
G1 X122.725 Y111.401 E0.0005
G1 X118.568 Y108.697 E0.1052
G1 X118.554 Y108.687 E0.0004
G1 X115.013 Y106.276 E0.0909
G1 X115.001 Y106.268 E0.0003
G1 X103.040 Y97.825 E0.3106
G1 X96.477 Y93.135 E0.1711
G1 X96.470 Y93.130 E0.0002
G1 X90.849 Y89.022 E0.1477
G1 X90.844 Y89.019 E0.0001
G1 X82.101 Y82.531 E0.2310
G1 X80.421 Y81.273 E0.0445
G1 X80.411 Y81.274 E0.0002
G1 X79.936 Y80.910 E0.0127
G1 X79.412 Y80.518 E0.0139
G1 X79.411 Y80.509 E0.0002
G1 X73.132 Y75.707 E0.1677
G1 X73.119 Y75.697 E0.0003
G1 X68.693 Y72.168 E0.1201
G1 X68.683 Y72.160 E0.0003
G1 X62.766 Y67.281 E0.1627
G1 X62.756 Y67.273 E0.0003
G1 X58.362 Y63.528 E0.1225
G1 X58.351 Y63.529 E0.0002
G1 X57.910 Y63.143 E0.0124
G1 X57.413 Y62.719 E0.0139
G1 X57.412 Y62.708 E0.0002
G1 X54.025 Y59.747 E0.0954
G1 X54.018 Y59.741 E0.0002
G1 X49.954 Y56.107 E0.1157
G1 X49.946 Y56.099 E0.0002
G1 X45.987 Y52.454 E0.1142
G1 X45.980 Y52.448 E0.0002
G1 X43.332 Y49.953 E0.0772
G1 X43.324 Y49.946 E0.0002
G1 X39.709 Y46.455 E0.1066
G1 X39.699 Y46.446 E0.0003
