; G-Code generated by Simplify3D(R) Version 4.1.2
; Sep 24, 2022 at 2:37:42 PM
; Settings Summary
;   processName,PProp
;   applyToModels,Wing-R4
;   profileName,PProp - LW-PLA
;   profileVersion,2022-05-27 11:45:37
;   baseProfile,Default
;   printMaterial,
;   printQuality,
;   printExtruders,
;   extruderName,Primary Extruder
;   extruderToolheadNumber,0
;   extruderDiameter,0.4
;   extruderAutoWidth,0
;   extruderWidth,0.42
;   extrusionMultiplier,0.45
;   extruderUseRetract,1
;   extruderRetractionDistance,0
;   extruderExtraRestartDistance,0.12
;   extruderRetractionZLift,0
;   extruderRetractionSpeed,1800
;   extruderUseCoasting,1
;   extruderCoastingDistance,0.2
;   extruderUseWipe,1
;   extruderWipeDistance,2
;   primaryExtruder,0
;   layerHeight,0.3
;   topSolidLayers,0
;   bottomSolidLayers,0
;   perimeterOutlines,1
;   printPerimetersInsideOut,1
;   startPointOption,2
;   startPointOriginX,0
;   startPointOriginY,-100
;   sequentialIslands,0
;   spiralVaseMode,1
;   firstLayerHeightPercentage,90
;   firstLayerWidthPercentage,100
;   firstLayerUnderspeed,0.5
;   useRaft,0
;   raftExtruder,0
;   raftTopLayers,3
;   raftBaseLayers,2
;   raftOffset,3
;   raftSeparationDistance,0.14
;   raftTopInfill,100
;   aboveRaftSpeedMultiplier,0.3
;   useSkirt,1
;   skirtExtruder,0
;   skirtLayers,1
;   skirtOutlines,3
;   skirtOffset,1.4
;   usePrimePillar,0
;   primePillarExtruder,999
;   primePillarWidth,12
;   primePillarLocation,7
;   primePillarSpeedMultiplier,1
;   useOozeShield,0
;   oozeShieldExtruder,999
;   oozeShieldOffset,2
;   oozeShieldOutlines,1
;   oozeShieldSidewallShape,1
;   oozeShieldSidewallAngle,30
;   oozeShieldSpeedMultiplier,1
;   infillExtruder,0
;   internalInfillPattern,Rectilinear
;   externalInfillPattern,Rectilinear
;   infillPercentage,0
;   outlineOverlapPercentage,15
;   infillExtrusionWidthPercentage,100
;   minInfillLength,5
;   infillLayerInterval,1
;   internalInfillAngles,45,-45
;   overlapInternalInfillAngles,0
;   externalInfillAngles,45,-45
;   generateSupport,0
;   supportExtruder,0
;   supportInfillPercentage,30
;   supportExtraInflation,0
;   supportBaseLayers,0
;   denseSupportExtruder,0
;   denseSupportLayers,0
;   denseSupportInfillPercentage,70
;   supportLayerInterval,1
;   supportHorizontalPartOffset,0.3
;   supportUpperSeparationLayers,1
;   supportLowerSeparationLayers,1
;   supportType,0
;   supportGridSpacing,4
;   maxOverhangAngle,45
;   supportAngles,0
;   temperatureName,Primary Extruder,Heated Bed
;   temperatureNumber,0,1
;   temperatureSetpointCount,1,1
;   temperatureSetpointLayers,1,1
;   temperatureSetpointTemperatures,250,55
;   temperatureStabilizeAtStartup,1,1
;   temperatureHeatedBed,0,1
;   fanLayers,1
;   fanSpeeds,100
;   blipFanToFullPower,1
;   adjustSpeedForCooling,0
;   minSpeedLayerTime,15
;   minCoolingSpeedSlowdown,80
;   increaseFanForCooling,0
;   minFanLayerTime,20
;   maxCoolingFanSpeed,100
;   increaseFanForBridging,0
;   bridgingFanSpeed,100
;   use5D,1
;   relativeEdistances,1
;   allowEaxisZeroing,1
;   independentExtruderAxes,0
;   includeM10123,0
;   stickySupport,1
;   applyToolheadOffsets,0
;   gcodeXoffset,0
;   gcodeYoffset,0
;   gcodeZoffset,0
;   overrideMachineDefinition,1
;   machineTypeOverride,0
;   strokeXoverride,200
;   strokeYoverride,200
;   strokeZoverride,200
;   originOffsetXoverride,0
;   originOffsetYoverride,0
;   originOffsetZoverride,0
;   homeXdirOverride,-1
;   homeYdirOverride,-1
;   homeZdirOverride,-1
;   flipXoverride,1
;   flipYoverride,-1
;   flipZoverride,1
;   toolheadOffsets,0,0|0,0|0,0|0,0|0,0|0,0
;   overrideFirmwareConfiguration,1
;   firmwareTypeOverride,RepRap (Marlin/Repetier/Sprinter)
;   GPXconfigOverride,r2
;   baudRateOverride,115200
;   overridePrinterModels,0
;   printerModelsOverride
;   startingGcode,G28,G92 E0.0
;   layerChangeGcode,
;   retractionGcode,
;   toolChangeGcode,
;   endingGcode,M104 S0 ; turn off extruder,M140 S0 ; turn off bed,G28 X0 ; home X axis,M84 ; disable motors,M107 ; turn off fan
;   exportFileFormat,gcode
;   celebration,0
;   celebrationSong,Take On Me
;   postProcessing,
;   defaultSpeed,2502
;   outlineUnderspeed,0.9
;   solidInfillUnderspeed,0.8
;   supportUnderspeed,0.8
;   rapidXYspeed,7800
;   rapidZspeed,1002
;   minBridgingArea,5
;   bridgingExtraInflation,0
;   bridgingExtrusionMultiplier,1
;   bridgingSpeedMultiplier,0.3
;   useFixedBridgingAngle,0
;   fixedBridgingAngle,0
;   applyBridgingToPerimeters,0
;   filamentDiameters,1.75|1.75|1.75|1.75|1.75|1.75
;   filamentPricesPerKg,1000|1000|1000|1000|1000|1000
;   filamentDensities,1.25|1.25|1.25|1.25|1.25|1.25
;   useMinPrintHeight,0
;   minPrintHeight,0.3
;   useMaxPrintHeight,0
;   maxPrintHeight,15
;   useDiaphragm,0
;   diaphragmLayerInterval,20
;   robustSlicing,1
;   mergeAllIntoSolid,0
;   onlyRetractWhenCrossingOutline,0
;   retractBetweenLayers,0
;   useRetractionMinTravel,0
;   retractionMinTravel,3
;   retractWhileWiping,0
;   onlyWipeOutlines,1
;   avoidCrossingOutline,1
;   maxMovementDetourFactor,3
;   toolChangeRetractionDistance,0
;   toolChangeExtraRestartDistance,0
;   toolChangeRetractionSpeed,360
;   externalThinWallType,0
;   internalThinWallType,2
;   thinWallAllowedOverlapPercentage,10
;   singleExtrusionMinLength,1
;   singleExtrusionMinPrintingWidthPercentage,50
;   singleExtrusionMaxPrintingWidthPercentage,200
;   singleExtrusionEndpointExtension,0.2
;   horizontalSizeCompensation,0
G90
M83
M106 S255
M140 S55
M190 S55
M104 S250 T0
M109 S250 T0
G28
G92 E0.0
; process PProp
; layer 1, Z = 0.270
T0
; feature skirt
; tool H0.270 W0.420
G1 Z0.270 F1002
G1 X14.515 Y18.693 F7800
G1 E0.1200 F1800
G1 X14.762 Y18.527 E0.0063 F1251
G1 X15.491 Y18.156 E0.0174
G1 X15.842 Y18.040 E0.0078
G1 X16.674 Y17.897 E0.0179
G1 X16.853 Y17.879 E0.0038
G1 X17.693 Y17.860 E0.0178
G1 X17.911 Y17.874 E0.0046
G1 X18.822 Y18.016 E0.0195
G1 X18.919 Y18.035 E0.0021
G1 X19.834 Y18.255 E0.0200
G1 X19.948 Y18.288 E0.0025
G1 X20.908 Y18.620 E0.0215
G1 X20.964 Y18.641 E0.0013
G1 X21.932 Y19.029 E0.0221
G1 X22.008 Y19.062 E0.0018
G1 X22.995 Y19.538 E0.0232
G1 X23.039 Y19.560 E0.0011
G1 X24.048 Y20.098 E0.0243
G1 X24.100 Y20.127 E0.0013
G1 X24.743 Y20.512 E0.0159
G1 X24.778 Y20.533 E0.0009
G1 X27.421 Y22.232 E0.0667
G1 X27.455 Y22.255 E0.0009
G1 X29.974 Y23.996 E0.0650
G1 X29.999 Y24.013 E0.0006
G1 X31.849 Y25.359 E0.0486
G1 X31.870 Y25.375 E0.0006
G1 X33.997 Y26.993 E0.0567
G1 X34.036 Y26.991 E0.0008
G1 X34.692 Y27.522 E0.0179
G1 X35.533 Y28.161 E0.0224
G1 X35.535 Y28.204 E0.0009
G1 X37.487 Y29.783 E0.0533
G1 X37.518 Y29.809 E0.0009
G1 X40.323 Y32.236 E0.0787
G1 X40.342 Y32.252 E0.0005
G1 X42.469 Y34.169 E0.0608
G1 X42.485 Y34.184 E0.0005
G1 X45.671 Y37.157 E0.0925
G1 X45.692 Y37.177 E0.0006
G1 X50.327 Y41.710 E0.1376
G1 X50.345 Y41.728 E0.0006
G1 X53.869 Y45.325 E0.1068
G1 X53.880 Y45.336 E0.0003
G1 X56.397 Y47.970 E0.0773
G1 X56.407 Y47.980 E0.0003
G1 X60.084 Y51.916 E0.1143
G1 X60.098 Y51.931 E0.0004
G1 X65.015 Y57.364 E0.1555
G1 X65.025 Y57.376 E0.0003
G1 X66.527 Y59.080 E0.0482
G1 X66.535 Y59.081 E0.0002
G1 X67.210 Y59.855 E0.0218
G1 X67.813 Y60.540 E0.0193
G1 X67.812 Y60.548 E0.0002
G1 X70.020 Y63.084 E0.0713
G1 X70.031 Y63.097 E0.0004
G1 X74.934 Y68.894 E0.1611
G1 X74.949 Y68.913 E0.0005
G1 X79.898 Y75.002 E0.1665
G1 X79.915 Y75.023 E0.0006
G1 X84.527 Y80.965 E0.1596
G1 X84.547 Y80.966 E0.0004
G1 X85.176 Y81.800 E0.0222
G1 X85.724 Y82.506 E0.0190
G1 X85.723 Y82.524 E0.0004
G1 X93.356 Y92.639 E0.2688
G1 X93.362 Y92.647 E0.0002
G1 X97.513 Y98.241 E0.1478
G1 X97.521 Y98.252 E0.0003
G1 X102.260 Y104.782 E0.1712
G1 X102.264 Y104.788 E0.0002
G1 X110.770 Y116.653 E0.3097
G1 X110.782 Y116.670 E0.0004
G1 X113.248 Y120.236 E0.0920
G1 X113.263 Y120.257 E0.0006
G1 X116.003 Y124.403 E0.1054
G1 X116.023 Y124.434 E0.0008
G1 X118.359 Y128.213 E0.0943
G1 X118.385 Y128.258 E0.0011
G1 X118.929 Y129.227 E0.0236
G1 X119.014 Y129.412 E0.0043
G1 X119.790 Y131.571 E0.0487
G1 X117.009 Y133.755 E0.0750
G1 X115.110 Y132.499 E0.0483
G1 X114.936 Y132.360 E0.0047
G1 X114.153 Y131.606 E0.0231
G1 X114.120 Y131.573 E0.0010
G1 X108.956 Y126.217 E0.1579
G1 X84.520 Y100.683 E0.7498
G1 X84.515 Y100.678 E0.0001
G1 X76.023 Y91.716 E0.2620
G1 X75.396 Y91.053 E0.0194
G1 X74.677 Y90.291 E0.0222
G1 X69.305 Y84.603 E0.1660
G1 X56.575 Y71.265 E0.3912
G1 X55.921 Y70.576 E0.0202
G1 X55.234 Y69.852 E0.0212
G1 X38.981 Y52.725 E0.5009
G1 X30.922 Y44.183 E0.2491
G1 X25.335 Y38.377 E0.1709
G1 X25.320 Y38.377 E0.0003
G1 X24.613 Y37.627 E0.0219
G1 X23.988 Y36.978 E0.0191
G1 X23.989 Y36.964 E0.0003
G1 X21.735 Y34.574 E0.0697
G1 X21.720 Y34.557 E0.0005
G1 X19.001 Y31.566 E0.0858
G1 X18.981 Y31.543 E0.0007
G1 X17.113 Y29.383 E0.0606
G1 X17.082 Y29.345 E0.0010
G1 X15.082 Y26.835 E0.0681
G1 X15.037 Y26.775 E0.0016
G1 X14.046 Y25.363 E0.0366
G1 X13.973 Y25.245 E0.0029
G1 X13.596 Y24.551 E0.0168
G1 X13.547 Y24.451 E0.0024
G1 X13.236 Y23.730 E0.0167
G1 X13.164 Y23.507 E0.0050
G1 X12.999 Y22.761 E0.0162
G1 X12.974 Y22.586 E0.0038
G1 X12.917 Y21.803 E0.0166
G1 X12.942 Y21.454 E0.0074
G1 X13.108 Y20.686 E0.0167
G1 X13.198 Y20.420 E0.0060
G1 X13.558 Y19.660 E0.0179
G1 X13.868 Y19.252 E0.0109
G1 X14.515 Y18.693 E0.0182
G1 X14.771 Y19.027 F7800
G1 E0.1200 F1800
G1 X14.975 Y18.890 E0.0052 F1251
G1 X15.654 Y18.544 E0.0162
G1 X15.944 Y18.448 E0.0065
G1 X16.730 Y18.313 E0.0169
G1 X16.878 Y18.299 E0.0032
G1 X17.684 Y18.280 E0.0171
G1 X17.865 Y18.292 E0.0038
G1 X18.749 Y18.430 E0.0190
G1 X18.829 Y18.446 E0.0017
G1 X19.726 Y18.661 E0.0196
G1 X19.821 Y18.689 E0.0021
G1 X20.766 Y19.015 E0.0212
G1 X20.813 Y19.032 E0.0011
G1 X21.769 Y19.416 E0.0219
G1 X21.832 Y19.444 E0.0015
G1 X22.809 Y19.914 E0.0230
G1 X22.845 Y19.933 E0.0009
G1 X23.846 Y20.466 E0.0241
G1 X23.889 Y20.491 E0.0010
G1 X24.525 Y20.871 E0.0157
G1 X24.553 Y20.888 E0.0007
G1 X27.191 Y22.583 E0.0665
G1 X27.219 Y22.602 E0.0007
G1 X29.733 Y24.340 E0.0648
G1 X29.753 Y24.354 E0.0005
G1 X31.600 Y25.698 E0.0485
G1 X31.618 Y25.711 E0.0005
G1 X33.863 Y27.419 E0.0599
G1 X33.896 Y27.418 E0.0007
G1 X34.433 Y27.852 E0.0146
G1 X35.125 Y28.379 E0.0185
G1 X35.127 Y28.414 E0.0007
G1 X37.220 Y30.107 E0.0571
G1 X37.246 Y30.129 E0.0007
G1 X40.047 Y32.552 E0.0786
G1 X40.062 Y32.566 E0.0004
G1 X42.187 Y34.480 E0.0607
G1 X42.200 Y34.492 E0.0004
G1 X45.383 Y37.462 E0.0924
G1 X45.400 Y37.479 E0.0005
G1 X50.032 Y42.009 E0.1375
G1 X50.047 Y42.024 E0.0005
G1 X53.568 Y45.618 E0.1068
G1 X53.577 Y45.627 E0.0003
G1 X56.093 Y48.259 E0.0772
G1 X56.101 Y48.267 E0.0002
G1 X59.776 Y52.202 E0.1142
G1 X59.787 Y52.214 E0.0003
G1 X64.702 Y57.645 E0.1554
G1 X64.711 Y57.655 E0.0003
G1 X66.330 Y59.492 E0.0519
G1 X66.337 Y59.492 E0.0002
G1 X66.894 Y60.132 E0.0180
G1 X67.386 Y60.691 E0.0158
G1 X67.386 Y60.698 E0.0001
G1 X69.702 Y63.359 E0.0749
G1 X69.712 Y63.370 E0.0003
G1 X74.611 Y69.164 E0.1610
G1 X74.624 Y69.179 E0.0004
G1 X79.571 Y75.265 E0.1664
G1 X79.585 Y75.283 E0.0005
G1 X84.310 Y81.370 E0.1635
G1 X84.326 Y81.371 E0.0003
G1 X84.842 Y82.055 E0.0182
G1 X85.294 Y82.637 E0.0156
G1 X85.293 Y82.652 E0.0003
G1 X93.020 Y92.891 E0.2721
G1 X93.025 Y92.898 E0.0002
G1 X97.175 Y98.491 E0.1478
G1 X97.181 Y98.499 E0.0002
G1 X101.920 Y105.029 E0.1712
G1 X101.924 Y105.033 E0.0001
G1 X110.428 Y116.897 E0.3097
G1 X110.438 Y116.911 E0.0004
G1 X112.902 Y120.473 E0.0919
G1 X112.914 Y120.490 E0.0005
G1 X115.651 Y124.632 E0.1053
G1 X115.668 Y124.658 E0.0007
G1 X117.999 Y128.430 E0.0941
G1 X118.021 Y128.467 E0.0009
G1 X118.554 Y129.417 E0.0231
G1 X118.624 Y129.571 E0.0036
G1 X119.292 Y131.428 E0.0419
G1 X116.988 Y133.238 E0.0622
G1 X115.358 Y132.159 E0.0415
G1 X115.214 Y132.044 E0.0039
G1 X114.447 Y131.306 E0.0226
G1 X114.420 Y131.279 E0.0008
G1 X109.259 Y125.926 E0.1577
G1 X84.824 Y100.393 E0.7498
G1 X84.820 Y100.389 E0.0001
G1 X76.207 Y91.299 E0.2657
G1 X75.702 Y90.764 E0.0156
G1 X75.100 Y90.127 E0.0186
G1 X69.609 Y84.313 E0.1697
G1 X56.759 Y70.849 E0.3949
G1 X56.226 Y70.287 E0.0164
G1 X55.657 Y69.688 E0.0175
G1 X39.286 Y52.436 E0.5046
G1 X31.227 Y43.893 E0.2492
G1 X25.518 Y37.962 E0.1747
G1 X25.506 Y37.961 E0.0003
G1 X24.917 Y37.337 E0.0182
G1 X24.412 Y36.812 E0.0155
G1 X24.412 Y36.801 E0.0002
G1 X22.042 Y34.287 E0.0733
G1 X22.029 Y34.273 E0.0004
G1 X19.314 Y31.286 E0.0857
G1 X19.297 Y31.267 E0.0005
G1 X17.434 Y29.111 E0.0604
G1 X17.408 Y29.080 E0.0009
G1 X15.415 Y26.579 E0.0679
G1 X15.377 Y26.529 E0.0013
G1 X14.397 Y25.131 E0.0362
G1 X14.336 Y25.033 E0.0024
G1 X13.969 Y24.359 E0.0163
G1 X13.929 Y24.276 E0.0019
G1 X13.629 Y23.582 E0.0160
G1 X13.569 Y23.398 E0.0041
G1 X13.413 Y22.686 E0.0155
G1 X13.392 Y22.541 E0.0031
G1 X13.338 Y21.803 E0.0157
G1 X13.359 Y21.514 E0.0062
G1 X13.514 Y20.798 E0.0155
G1 X13.588 Y20.578 E0.0049
G1 X13.919 Y19.879 E0.0164
G1 X14.176 Y19.541 E0.0090
G1 X14.771 Y19.027 E0.0167
G1 X15.026 Y19.361 F7800
G1 E0.1200 F1800
G1 X15.188 Y19.253 E0.0041 F1251
G1 X15.816 Y18.933 E0.0149
G1 X16.046 Y18.857 E0.0051
G1 X16.786 Y18.730 E0.0159
G1 X16.903 Y18.718 E0.0025
G1 X17.675 Y18.700 E0.0164
G1 X17.819 Y18.710 E0.0030
G1 X18.675 Y18.844 E0.0184
G1 X18.739 Y18.856 E0.0014
G1 X19.619 Y19.067 E0.0192
G1 X19.693 Y19.089 E0.0016
G1 X20.624 Y19.410 E0.0209
G1 X20.661 Y19.424 E0.0008
G1 X21.606 Y19.803 E0.0216
G1 X21.656 Y19.825 E0.0012
G1 X22.622 Y20.291 E0.0228
G1 X22.651 Y20.306 E0.0007
G1 X23.644 Y20.835 E0.0239
G1 X23.678 Y20.854 E0.0008
G1 X24.307 Y21.229 E0.0155
G1 X24.329 Y21.243 E0.0006
G1 X26.961 Y22.935 E0.0664
G1 X26.983 Y22.950 E0.0006
G1 X29.493 Y24.684 E0.0647
G1 X29.508 Y24.695 E0.0004
G1 X31.351 Y26.036 E0.0484
G1 X31.365 Y26.046 E0.0004
G1 X33.730 Y27.845 E0.0630
G1 X33.755 Y27.844 E0.0005
G1 X34.173 Y28.183 E0.0114
G1 X34.717 Y28.596 E0.0145
G1 X34.718 Y28.624 E0.0006
G1 X36.953 Y30.432 E0.0610
G1 X36.973 Y30.449 E0.0006
G1 X39.770 Y32.868 E0.0785
G1 X39.782 Y32.879 E0.0003
G1 X41.904 Y34.791 E0.0606
G1 X41.915 Y34.800 E0.0003
G1 X45.094 Y37.768 E0.0923
G1 X45.108 Y37.781 E0.0004
G1 X49.736 Y42.307 E0.1374
G1 X49.749 Y42.320 E0.0004
G1 X53.267 Y45.911 E0.1067
G1 X53.274 Y45.918 E0.0002
G1 X55.788 Y48.548 E0.0772
G1 X55.794 Y48.555 E0.0002
G1 X59.468 Y52.487 E0.1142
G1 X59.477 Y52.497 E0.0003
G1 X64.390 Y57.926 E0.1553
G1 X64.397 Y57.934 E0.0002
G1 X66.133 Y59.904 E0.0557
G1 X66.139 Y59.904 E0.0001
G1 X66.578 Y60.410 E0.0142
G1 X66.960 Y60.843 E0.0122
G1 X66.960 Y60.848 E0.0001
G1 X69.385 Y63.634 E0.0784
G1 X69.392 Y63.642 E0.0002
G1 X74.289 Y69.433 E0.1609
G1 X74.299 Y69.445 E0.0003
G1 X79.243 Y75.528 E0.1663
G1 X79.255 Y75.542 E0.0004
G1 X84.093 Y81.775 E0.1674
G1 X84.105 Y81.776 E0.0003
G1 X84.509 Y82.311 E0.0142
G1 X84.864 Y82.768 E0.0123
G1 X84.864 Y82.780 E0.0003
G1 X92.684 Y93.143 E0.2754
G1 X92.688 Y93.149 E0.0001
G1 X96.837 Y98.740 E0.1477
G1 X96.842 Y98.747 E0.0002
G1 X101.583 Y105.279 E0.1712
G1 X110.085 Y117.140 E0.3096
G1 X110.093 Y117.151 E0.0003
G1 X112.555 Y120.710 E0.0918
G1 X112.565 Y120.724 E0.0004
G1 X115.299 Y124.861 E0.1052
G1 X115.312 Y124.881 E0.0005
G1 X117.640 Y128.647 E0.0939
G1 X117.657 Y128.677 E0.0007
G1 X118.180 Y129.608 E0.0226
G1 X118.235 Y129.729 E0.0028
G1 X118.795 Y131.285 E0.0351
G1 X116.967 Y132.720 E0.0493
G1 X115.605 Y131.820 E0.0346
G1 X115.491 Y131.728 E0.0031
G1 X114.741 Y131.006 E0.0221
G1 X114.719 Y130.985 E0.0006
G1 X109.562 Y125.635 E0.1576
G1 X85.125 Y100.100 E0.7499
G1 X76.391 Y90.882 E0.2694
G1 X76.007 Y90.476 E0.0119
G1 X75.523 Y89.964 E0.0150
G1 X69.913 Y84.023 E0.1734
G1 X56.943 Y70.432 E0.3986
G1 X56.530 Y69.998 E0.0127
G1 X56.081 Y69.524 E0.0139
G1 X39.591 Y52.148 E0.5082
G1 X31.531 Y43.604 E0.2492
