; G-Code generated by Simplify3D(R) Version 4.1.2
; Sep 24, 2022 at 2:34:18 PM
; Settings Summary
;   processName,PProp
;   applyToModels,Wing-Center
;   profileName,PProp - LW-PLA
;   profileVersion,2022-05-27 11:45:37
;   baseProfile,Default
;   printMaterial,
;   printQuality,
;   printExtruders,
;   extruderName,Primary Extruder
;   extruderToolheadNumber,0
;   extruderDiameter,0.4
;   extruderAutoWidth,0
;   extruderWidth,0.42
;   extrusionMultiplier,0.45
;   extruderUseRetract,1
;   extruderRetractionDistance,0
;   extruderExtraRestartDistance,0.12
;   extruderRetractionZLift,0
;   extruderRetractionSpeed,1800
;   extruderUseCoasting,1
;   extruderCoastingDistance,0.2
;   extruderUseWipe,1
;   extruderWipeDistance,2
;   primaryExtruder,0
;   layerHeight,0.3
;   topSolidLayers,0
;   bottomSolidLayers,0
;   perimeterOutlines,1
;   printPerimetersInsideOut,1
;   startPointOption,2
;   startPointOriginX,0
;   startPointOriginY,-100
;   sequentialIslands,0
;   spiralVaseMode,1
;   firstLayerHeightPercentage,90
;   firstLayerWidthPercentage,100
;   firstLayerUnderspeed,0.5
;   useRaft,0
;   raftExtruder,0
;   raftTopLayers,3
;   raftBaseLayers,2
;   raftOffset,3
;   raftSeparationDistance,0.14
;   raftTopInfill,100
;   aboveRaftSpeedMultiplier,0.3
;   useSkirt,1
;   skirtExtruder,0
;   skirtLayers,1
;   skirtOutlines,3
;   skirtOffset,1.4
;   usePrimePillar,0
;   primePillarExtruder,999
;   primePillarWidth,12
;   primePillarLocation,7
;   primePillarSpeedMultiplier,1
;   useOozeShield,0
;   oozeShieldExtruder,999
;   oozeShieldOffset,2
;   oozeShieldOutlines,1
;   oozeShieldSidewallShape,1
;   oozeShieldSidewallAngle,30
;   oozeShieldSpeedMultiplier,1
;   infillExtruder,0
;   internalInfillPattern,Rectilinear
;   externalInfillPattern,Rectilinear
;   infillPercentage,0
;   outlineOverlapPercentage,15
;   infillExtrusionWidthPercentage,100
;   minInfillLength,5
;   infillLayerInterval,1
;   internalInfillAngles,45,-45
;   overlapInternalInfillAngles,0
;   externalInfillAngles,45,-45
;   generateSupport,0
;   supportExtruder,0
;   supportInfillPercentage,30
;   supportExtraInflation,0
;   supportBaseLayers,0
;   denseSupportExtruder,0
;   denseSupportLayers,0
;   denseSupportInfillPercentage,70
;   supportLayerInterval,1
;   supportHorizontalPartOffset,0.3
;   supportUpperSeparationLayers,1
;   supportLowerSeparationLayers,1
;   supportType,0
;   supportGridSpacing,4
;   maxOverhangAngle,45
;   supportAngles,0
;   temperatureName,Primary Extruder,Heated Bed
;   temperatureNumber,0,1
;   temperatureSetpointCount,1,1
;   temperatureSetpointLayers,1,1
;   temperatureSetpointTemperatures,250,55
;   temperatureStabilizeAtStartup,1,1
;   temperatureHeatedBed,0,1
;   fanLayers,1
;   fanSpeeds,100
;   blipFanToFullPower,1
;   adjustSpeedForCooling,0
;   minSpeedLayerTime,15
;   minCoolingSpeedSlowdown,80
;   increaseFanForCooling,0
;   minFanLayerTime,20
;   maxCoolingFanSpeed,100
;   increaseFanForBridging,0
;   bridgingFanSpeed,100
;   use5D,1
;   relativeEdistances,1
;   allowEaxisZeroing,1
;   independentExtruderAxes,0
;   includeM10123,0
;   stickySupport,1
;   applyToolheadOffsets,0
;   gcodeXoffset,0
;   gcodeYoffset,0
;   gcodeZoffset,0
;   overrideMachineDefinition,1
;   machineTypeOverride,0
;   strokeXoverride,200
;   strokeYoverride,200
;   strokeZoverride,200
;   originOffsetXoverride,0
;   originOffsetYoverride,0
;   originOffsetZoverride,0
;   homeXdirOverride,-1
;   homeYdirOverride,-1
;   homeZdirOverride,-1
;   flipXoverride,1
;   flipYoverride,-1
;   flipZoverride,1
;   toolheadOffsets,0,0|0,0|0,0|0,0|0,0|0,0
;   overrideFirmwareConfiguration,1
;   firmwareTypeOverride,RepRap (Marlin/Repetier/Sprinter)
;   GPXconfigOverride,r2
;   baudRateOverride,115200
;   overridePrinterModels,0
;   printerModelsOverride
;   startingGcode,G28,G92 E0.0
;   layerChangeGcode,
;   retractionGcode,
;   toolChangeGcode,
;   endingGcode,M104 S0 ; turn off extruder,M140 S0 ; turn off bed,G28 X0 ; home X axis,M84 ; disable motors,M107 ; turn off fan
;   exportFileFormat,gcode
;   celebration,0
;   celebrationSong,Take On Me
;   postProcessing,
;   defaultSpeed,2502
;   outlineUnderspeed,0.9
;   solidInfillUnderspeed,0.8
;   supportUnderspeed,0.8
;   rapidXYspeed,7800
;   rapidZspeed,1002
;   minBridgingArea,5
;   bridgingExtraInflation,0
;   bridgingExtrusionMultiplier,1
;   bridgingSpeedMultiplier,0.3
;   useFixedBridgingAngle,0
;   fixedBridgingAngle,0
;   applyBridgingToPerimeters,0
;   filamentDiameters,1.75|1.75|1.75|1.75|1.75|1.75
;   filamentPricesPerKg,1000|1000|1000|1000|1000|1000
;   filamentDensities,1.25|1.25|1.25|1.25|1.25|1.25
;   useMinPrintHeight,0
;   minPrintHeight,0.3
;   useMaxPrintHeight,0
;   maxPrintHeight,15
;   useDiaphragm,0
;   diaphragmLayerInterval,20
;   robustSlicing,1
;   mergeAllIntoSolid,0
;   onlyRetractWhenCrossingOutline,0
;   retractBetweenLayers,0
;   useRetractionMinTravel,0
;   retractionMinTravel,3
;   retractWhileWiping,0
;   onlyWipeOutlines,1
;   avoidCrossingOutline,1
;   maxMovementDetourFactor,3
;   toolChangeRetractionDistance,0
;   toolChangeExtraRestartDistance,0
;   toolChangeRetractionSpeed,360
;   externalThinWallType,0
;   internalThinWallType,2
;   thinWallAllowedOverlapPercentage,10
;   singleExtrusionMinLength,1
;   singleExtrusionMinPrintingWidthPercentage,50
;   singleExtrusionMaxPrintingWidthPercentage,200
;   singleExtrusionEndpointExtension,0.2
;   horizontalSizeCompensation,0
G90
M83
M106 S255
M140 S55
M190 S55
M104 S250 T0
M109 S250 T0
G28
G92 E0.0
; process PProp
; layer 1, Z = 0.270
T0
; feature skirt
; tool H0.270 W0.420
G1 Z0.270 F1002
G1 X13.882 Y16.452 F7800
G1 E0.1200 F1800
G1 X14.895 Y15.687 E0.0269 F1251
G1 X15.334 Y15.476 E0.0103
G1 X15.989 Y15.308 E0.0144
G1 X16.098 Y15.285 E0.0024
G1 X16.895 Y15.157 E0.0171
G1 X17.132 Y15.142 E0.0050
G1 X17.979 Y15.171 E0.0180
G1 X18.214 Y15.201 E0.0050
G1 X19.097 Y15.406 E0.0192
G1 X19.455 Y15.551 E0.0082
G1 X20.407 Y16.124 E0.0236
G1 X20.489 Y16.178 E0.0021
G1 X21.300 Y16.759 E0.0212
G1 X21.358 Y16.803 E0.0015
G1 X22.203 Y17.488 E0.0231
G1 X22.238 Y17.518 E0.0010
G1 X24.658 Y19.636 E0.0682
G1 X24.670 Y19.636 E0.0003
G1 X24.748 Y19.715 E0.0023
G1 X24.892 Y19.841 E0.0041
G1 X24.892 Y19.861 E0.0004
G1 X28.036 Y23.044 E0.0949
G1 X28.062 Y23.071 E0.0008
G1 X31.894 Y27.200 E0.1195
G1 X31.912 Y27.220 E0.0006
G1 X33.373 Y28.864 E0.0467
G1 X33.386 Y28.879 E0.0004
G1 X37.865 Y34.079 E0.1456
G1 X41.277 Y37.975 E0.1099
G1 X50.772 Y48.645 E0.3031
G1 X64.353 Y63.989 E0.4347
G1 X64.352 Y64.008 E0.0004
G1 X72.497 Y73.211 E0.2607
G1 X72.496 Y73.227 E0.0003
G1 X80.782 Y82.677 E0.2666
G1 X80.781 Y82.689 E0.0002
G1 X88.151 Y91.035 E0.2362
G1 X94.834 Y98.515 E0.2128
G1 X94.832 Y98.541 E0.0006
G1 X99.790 Y104.121 E0.1584
G1 X99.796 Y104.127 E0.0002
G1 X107.897 Y113.368 E0.2607
G1 X107.897 Y113.375 E0.0002
G1 X119.236 Y126.361 E0.3658
G1 X119.152 Y127.345 E0.0210
G1 X120.155 Y127.427 E0.0213
G1 X127.221 Y135.476 E0.2272
G1 X127.226 Y135.482 E0.0001
G1 X135.620 Y145.154 E0.2717
G1 X132.913 Y148.358 E0.0890
G1 X130.253 Y146.740 E0.0661
G1 X130.201 Y146.707 E0.0013
G1 X127.363 Y144.778 E0.0728
G1 X127.337 Y144.760 E0.0007
G1 X123.872 Y142.275 E0.0905
G1 X123.851 Y142.259 E0.0006
G1 X119.789 Y139.211 E0.1078
G1 X119.772 Y139.198 E0.0004
G1 X115.286 Y135.709 E0.1206
G1 X114.312 Y135.325 E0.0222
G1 X113.968 Y135.120 E0.0085
G1 X112.715 Y134.059 E0.0348
G1 X112.726 Y132.959 E0.0233
G1 X111.884 Y132.973 E0.0179
G1 X110.098 Y131.616 E0.0476
G1 X110.081 Y131.603 E0.0005
G1 X104.388 Y127.113 E0.1538
G1 X104.382 Y127.108 E0.0002
G1 X97.870 Y121.906 E0.1768
G1 X97.868 Y121.849 E0.0012
G1 X95.191 Y119.707 E0.0727
G1 X95.177 Y119.695 E0.0004
G1 X91.964 Y117.043 E0.0884
G1 X91.959 Y117.039 E0.0001
G1 X82.465 Y109.122 E0.2623
G1 X82.465 Y109.109 E0.0003
G1 X75.141 Y102.845 E0.2045
G1 X75.126 Y102.832 E0.0004
G1 X71.709 Y99.815 E0.0967
G1 X71.695 Y99.802 E0.0004
G1 X68.310 Y96.721 E0.0971
G1 X68.292 Y96.705 E0.0005
G1 X66.365 Y94.881 E0.0563
G1 X66.366 Y94.822 E0.0012
G1 X64.935 Y93.562 E0.0405
G1 X64.896 Y93.526 E0.0011
G1 X61.646 Y90.406 E0.0956
G1 X61.632 Y90.392 E0.0004
G1 X59.354 Y88.136 E0.0680
G1 X58.551 Y87.359 E0.0237
G1 X58.536 Y87.344 E0.0004
G1 X58.502 Y87.317 E0.0010
G1 X56.786 Y85.593 E0.0516
G1 X56.695 Y85.502 E0.0027
G1 X55.058 Y83.863 E0.0491
G1 X55.063 Y83.858 E0.0001
G1 X48.637 Y77.240 E0.1957
G1 X48.641 Y77.132 E0.0023
G1 X46.009 Y74.347 E0.0813
G1 X45.993 Y74.330 E0.0005
G1 X43.101 Y71.149 E0.0912
G1 X43.090 Y71.137 E0.0003
G1 X40.297 Y67.988 E0.0893
G1 X40.286 Y67.976 E0.0003
G1 X37.597 Y64.863 E0.0873
G1 X37.586 Y64.850 E0.0003
G1 X35.270 Y62.094 E0.0764
G1 X35.217 Y62.089 E0.0011
G1 X30.218 Y55.788 E0.1706
G1 X30.202 Y55.767 E0.0006
G1 X28.038 Y52.917 E0.0759
G1 X28.025 Y52.899 E0.0005
G1 X26.034 Y50.173 E0.0716
G1 X26.021 Y50.154 E0.0005
G1 X23.320 Y46.309 E0.0997
G1 X23.332 Y46.209 E0.0021
G1 X22.558 Y45.072 E0.0292
G1 X22.532 Y45.032 E0.0010
G1 X21.003 Y42.587 E0.0612
G1 X20.985 Y42.558 E0.0007
G1 X19.555 Y40.124 E0.0599
G1 X19.539 Y40.095 E0.0007
G1 X18.175 Y37.621 E0.0599
G1 X18.161 Y37.595 E0.0006
G1 X16.898 Y35.171 E0.0580
G1 X16.886 Y35.147 E0.0006
G1 X15.757 Y32.860 E0.0541
G1 X15.745 Y32.835 E0.0006
G1 X14.773 Y30.748 E0.0489
G1 X14.739 Y30.669 E0.0018
G1 X14.026 Y28.809 E0.0423
G1 X13.873 Y28.767 E0.0034
G1 X12.932 Y25.977 E0.0625
G1 X12.906 Y25.887 E0.0020
G1 X12.574 Y24.578 E0.0286
G1 X12.556 Y24.500 E0.0017
G1 X12.317 Y23.205 E0.0279
G1 X12.304 Y23.116 E0.0019
G1 X12.162 Y21.822 E0.0276
G1 X12.155 Y21.662 E0.0034
G1 X12.181 Y20.390 E0.0270
G1 X12.219 Y20.110 E0.0060
G1 X12.495 Y19.035 E0.0235
G1 X12.545 Y18.883 E0.0034
G1 X12.919 Y17.951 E0.0213
G1 X12.994 Y17.795 E0.0037
G1 X13.555 Y16.822 E0.0238
G1 X13.882 Y16.452 E0.0105
G1 X14.169 Y16.762 F7800
G1 E0.1200 F1800
G1 X15.115 Y16.047 E0.0251 F1251
G1 X15.478 Y15.872 E0.0086
G1 X16.084 Y15.717 E0.0133
G1 X16.174 Y15.698 E0.0020
G1 X16.942 Y15.575 E0.0165
G1 X17.138 Y15.562 E0.0042
G1 X17.944 Y15.590 E0.0171
G1 X18.139 Y15.615 E0.0042
G1 X18.970 Y15.807 E0.0181
G1 X19.267 Y15.927 E0.0068
G1 X20.183 Y16.479 E0.0227
G1 X20.251 Y16.524 E0.0017
G1 X21.050 Y17.097 E0.0209
G1 X21.098 Y17.133 E0.0013
G1 X21.935 Y17.812 E0.0229
G1 X21.964 Y17.837 E0.0008
G1 X24.472 Y20.031 E0.0707
G1 X24.472 Y20.049 E0.0004
G1 X24.488 Y20.050 E0.0004
G1 X27.735 Y23.336 E0.0980
G1 X27.756 Y23.359 E0.0007
G1 X31.585 Y27.484 E0.1194
G1 X31.599 Y27.500 E0.0005
G1 X33.058 Y29.142 E0.0466
G1 X33.069 Y29.154 E0.0003
G1 X37.566 Y34.375 E0.1462
G1 X40.962 Y38.253 E0.1094
G1 X50.342 Y48.792 E0.2994
G1 X63.923 Y64.137 E0.4347
G1 X63.922 Y64.155 E0.0004
G1 X72.067 Y73.358 E0.2607
G1 X72.066 Y73.373 E0.0003
G1 X80.351 Y82.823 E0.2666
G1 X80.350 Y82.835 E0.0003
G1 X87.837 Y91.314 E0.2400
G1 X94.404 Y98.663 E0.2091
G1 X94.402 Y98.690 E0.0006
G1 X99.476 Y104.400 E0.1621
G1 X99.480 Y104.405 E0.0001
G1 X107.466 Y113.512 E0.2570
G1 X107.465 Y113.519 E0.0001
G1 X118.802 Y126.503 E0.3657
G1 X118.698 Y127.729 E0.0261
G1 X119.951 Y127.832 E0.0267
G1 X126.905 Y135.753 E0.2236
G1 X126.909 Y135.758 E0.0001
G1 X135.067 Y145.157 E0.2640
G1 X132.824 Y147.813 E0.0737
G1 X130.475 Y146.384 E0.0583
G1 X130.432 Y146.356 E0.0011
G1 X127.601 Y144.432 E0.0726
G1 X127.580 Y144.417 E0.0005
G1 X124.119 Y141.935 E0.0904
G1 X124.101 Y141.922 E0.0005
G1 X120.042 Y138.876 E0.1077
G1 X120.029 Y138.865 E0.0004
G1 X115.496 Y135.341 E0.1218
G1 X114.498 Y134.947 E0.0227
G1 X114.213 Y134.777 E0.0071
G1 X113.137 Y133.866 E0.0299
G1 X113.150 Y132.532 E0.0283
G1 X112.022 Y132.551 E0.0239
G1 X110.354 Y131.283 E0.0445
G1 X110.339 Y131.272 E0.0004
G1 X104.649 Y126.783 E0.1538
G1 X104.644 Y126.780 E0.0001
G1 X98.286 Y121.701 E0.1726
G1 X98.285 Y121.644 E0.0012
G1 X95.455 Y119.380 E0.0769
G1 X95.443 Y119.370 E0.0003
G1 X92.231 Y116.719 E0.0884
G1 X92.227 Y116.716 E0.0001
G1 X82.883 Y108.924 E0.2581
G1 X82.883 Y108.914 E0.0002
G1 X75.415 Y102.527 E0.2085
G1 X75.403 Y102.516 E0.0003
G1 X71.988 Y99.501 E0.0967
G1 X71.977 Y99.491 E0.0003
G1 X68.594 Y96.412 E0.0970
G1 X68.579 Y96.399 E0.0004
G1 X66.789 Y94.704 E0.0523
G1 X66.790 Y94.636 E0.0014
G1 X65.216 Y93.250 E0.0445
G1 X65.184 Y93.220 E0.0009
G1 X61.938 Y90.104 E0.0955
G1 X61.926 Y90.093 E0.0003
G1 X59.648 Y87.837 E0.0680
G1 X58.844 Y87.058 E0.0237
G1 X58.831 Y87.046 E0.0004
G1 X58.504 Y86.724 E0.0098
G1 X57.084 Y85.297 E0.0427
G1 X57.006 Y85.219 E0.0023
G1 X55.655 Y83.860 E0.0407
G1 X55.487 Y83.692 E0.0050
G1 X55.478 Y83.683 E0.0003
G1 X49.064 Y77.077 E0.1954
G1 X49.068 Y76.972 E0.0022
G1 X46.316 Y74.060 E0.0850
G1 X46.303 Y74.046 E0.0004
G1 X43.412 Y70.867 E0.0911
G1 X43.404 Y70.858 E0.0003
G1 X40.612 Y67.710 E0.0893
G1 X40.603 Y67.700 E0.0003
G1 X37.916 Y64.589 E0.0872
G1 X37.907 Y64.579 E0.0003
G1 X35.481 Y61.692 E0.0800
G1 X35.434 Y61.688 E0.0010
G1 X30.548 Y55.529 E0.1668
G1 X30.535 Y55.511 E0.0005
G1 X28.374 Y52.665 E0.0758
G1 X28.363 Y52.650 E0.0004
G1 X26.374 Y49.926 E0.0715
G1 X26.363 Y49.911 E0.0004
G1 X23.756 Y46.200 E0.0962
G1 X23.768 Y46.104 E0.0021
G1 X22.907 Y44.839 E0.0325
G1 X22.886 Y44.806 E0.0008
G1 X21.360 Y42.367 E0.0610
G1 X21.346 Y42.343 E0.0006
G1 X19.919 Y39.914 E0.0598
G1 X19.905 Y39.890 E0.0006
G1 X18.544 Y37.420 E0.0598
G1 X18.533 Y37.399 E0.0005
G1 X17.272 Y34.979 E0.0579
G1 X17.262 Y34.959 E0.0005
G1 X16.135 Y32.676 E0.0540
G1 X16.125 Y32.656 E0.0005
G1 X15.156 Y30.577 E0.0487
G1 X15.129 Y30.512 E0.0015
G1 X14.342 Y28.459 E0.0466
G1 X14.199 Y28.420 E0.0031
G1 X13.333 Y25.850 E0.0575
G1 X13.311 Y25.776 E0.0017
G1 X12.982 Y24.481 E0.0283
G1 X12.968 Y24.416 E0.0014
G1 X12.731 Y23.136 E0.0276
G1 X12.720 Y23.062 E0.0016
G1 X12.581 Y21.789 E0.0272
G1 X12.575 Y21.657 E0.0028
G1 X12.600 Y20.423 E0.0262
G1 X12.632 Y20.191 E0.0050
G1 X12.899 Y19.153 E0.0227
G1 X12.940 Y19.027 E0.0028
G1 X13.303 Y18.121 E0.0207
G1 X13.366 Y17.992 E0.0030
G1 X13.898 Y17.068 E0.0226
G1 X14.169 Y16.762 E0.0087
G1 X14.455 Y17.071 F7800
G1 E0.1200 F1800
G1 X15.334 Y16.408 E0.0234 F1251
G1 X15.623 Y16.269 E0.0068
G1 X16.179 Y16.126 E0.0122
G1 X16.251 Y16.111 E0.0016
G1 X16.989 Y15.993 E0.0159
G1 X17.144 Y15.983 E0.0033
G1 X17.910 Y16.009 E0.0163
G1 X18.064 Y16.029 E0.0033
G1 X18.843 Y16.209 E0.0170
G1 X19.079 Y16.304 E0.0054
G1 X19.959 Y16.835 E0.0218
G1 X20.013 Y16.870 E0.0014
G1 X20.800 Y17.434 E0.0205
G1 X20.838 Y17.463 E0.0010
G1 X21.667 Y18.136 E0.0226
G1 X21.691 Y18.155 E0.0006
G1 X24.051 Y20.222 E0.0666
G1 X24.051 Y20.454 E0.0049
G1 X24.306 Y20.463 E0.0054
G1 X27.433 Y23.629 E0.0944
G1 X27.451 Y23.647 E0.0005
G1 X31.275 Y27.768 E0.1193
G1 X31.287 Y27.781 E0.0004
G1 X32.743 Y29.420 E0.0465
G1 X32.752 Y29.429 E0.0003
G1 X37.201 Y34.596 E0.1447
G1 X37.189 Y34.770 E0.0037
G1 X37.364 Y34.782 E0.0037
G1 X40.648 Y38.531 E0.1057
G1 X49.912 Y48.937 E0.2956
G1 X49.900 Y49.127 E0.0040
G1 X50.088 Y49.139 E0.0040
G1 X63.492 Y64.284 E0.4291
G1 X63.479 Y64.482 E0.0042
G1 X63.660 Y64.494 E0.0038
G1 X71.636 Y73.505 E0.2553
G1 X71.622 Y73.722 E0.0046
G1 X71.825 Y73.735 E0.0043
G1 X79.920 Y82.969 E0.2605
G1 X79.908 Y83.158 E0.0040
G1 X80.085 Y83.170 E0.0038
G1 X87.522 Y91.592 E0.2384
G1 X93.974 Y98.812 E0.2054
G1 X93.961 Y99.018 E0.0044
G1 X94.143 Y99.030 E0.0039
G1 X99.161 Y104.678 E0.1603
G1 X99.165 Y104.682 E0.0001
G1 X107.034 Y113.657 E0.2532
G1 X107.019 Y113.861 E0.0043
G1 X107.219 Y113.875 E0.0042
G1 X118.369 Y126.645 E0.3597
G1 X118.252 Y128.007 E0.0290
G1 X116.981 Y129.041 E0.0348
G1 X117.129 Y129.211 E0.0048
G1 X118.451 Y128.130 E0.0362
G1 X119.747 Y128.237 E0.0276
G1 X126.593 Y136.033 E0.2201
G1 X134.514 Y145.161 E0.2564
