; G-Code generated by Simplify3D(R) Version 4.1.2
; Sep 24, 2022 at 2:34:44 PM
; Settings Summary
;   processName,PProp
;   applyToModels,Wing-L1
;   profileName,PProp - LW-PLA
;   profileVersion,2022-05-27 11:45:37
;   baseProfile,Default
;   printMaterial,
;   printQuality,
;   printExtruders,
;   extruderName,Primary Extruder
;   extruderToolheadNumber,0
;   extruderDiameter,0.4
;   extruderAutoWidth,0
;   extruderWidth,0.42
;   extrusionMultiplier,0.45
;   extruderUseRetract,1
;   extruderRetractionDistance,0
;   extruderExtraRestartDistance,0.12
;   extruderRetractionZLift,0
;   extruderRetractionSpeed,1800
;   extruderUseCoasting,1
;   extruderCoastingDistance,0.2
;   extruderUseWipe,1
;   extruderWipeDistance,2
;   primaryExtruder,0
;   layerHeight,0.3
;   topSolidLayers,0
;   bottomSolidLayers,0
;   perimeterOutlines,1
;   printPerimetersInsideOut,1
;   startPointOption,2
;   startPointOriginX,0
;   startPointOriginY,-100
;   sequentialIslands,0
;   spiralVaseMode,1
;   firstLayerHeightPercentage,90
;   firstLayerWidthPercentage,100
;   firstLayerUnderspeed,0.5
;   useRaft,0
;   raftExtruder,0
;   raftTopLayers,3
;   raftBaseLayers,2
;   raftOffset,3
;   raftSeparationDistance,0.14
;   raftTopInfill,100
;   aboveRaftSpeedMultiplier,0.3
;   useSkirt,1
;   skirtExtruder,0
;   skirtLayers,1
;   skirtOutlines,3
;   skirtOffset,1.4
;   usePrimePillar,0
;   primePillarExtruder,999
;   primePillarWidth,12
;   primePillarLocation,7
;   primePillarSpeedMultiplier,1
;   useOozeShield,0
;   oozeShieldExtruder,999
;   oozeShieldOffset,2
;   oozeShieldOutlines,1
;   oozeShieldSidewallShape,1
;   oozeShieldSidewallAngle,30
;   oozeShieldSpeedMultiplier,1
;   infillExtruder,0
;   internalInfillPattern,Rectilinear
;   externalInfillPattern,Rectilinear
;   infillPercentage,0
;   outlineOverlapPercentage,15
;   infillExtrusionWidthPercentage,100
;   minInfillLength,5
;   infillLayerInterval,1
;   internalInfillAngles,45,-45
;   overlapInternalInfillAngles,0
;   externalInfillAngles,45,-45
;   generateSupport,0
;   supportExtruder,0
;   supportInfillPercentage,30
;   supportExtraInflation,0
;   supportBaseLayers,0
;   denseSupportExtruder,0
;   denseSupportLayers,0
;   denseSupportInfillPercentage,70
;   supportLayerInterval,1
;   supportHorizontalPartOffset,0.3
;   supportUpperSeparationLayers,1
;   supportLowerSeparationLayers,1
;   supportType,0
;   supportGridSpacing,4
;   maxOverhangAngle,45
;   supportAngles,0
;   temperatureName,Primary Extruder,Heated Bed
;   temperatureNumber,0,1
;   temperatureSetpointCount,1,1
;   temperatureSetpointLayers,1,1
;   temperatureSetpointTemperatures,250,55
;   temperatureStabilizeAtStartup,1,1
;   temperatureHeatedBed,0,1
;   fanLayers,1
;   fanSpeeds,100
;   blipFanToFullPower,1
;   adjustSpeedForCooling,0
;   minSpeedLayerTime,15
;   minCoolingSpeedSlowdown,80
;   increaseFanForCooling,0
;   minFanLayerTime,20
;   maxCoolingFanSpeed,100
;   increaseFanForBridging,0
;   bridgingFanSpeed,100
;   use5D,1
;   relativeEdistances,1
;   allowEaxisZeroing,1
;   independentExtruderAxes,0
;   includeM10123,0
;   stickySupport,1
;   applyToolheadOffsets,0
;   gcodeXoffset,0
;   gcodeYoffset,0
;   gcodeZoffset,0
;   overrideMachineDefinition,1
;   machineTypeOverride,0
;   strokeXoverride,200
;   strokeYoverride,200
;   strokeZoverride,200
;   originOffsetXoverride,0
;   originOffsetYoverride,0
;   originOffsetZoverride,0
;   homeXdirOverride,-1
;   homeYdirOverride,-1
;   homeZdirOverride,-1
;   flipXoverride,1
;   flipYoverride,-1
;   flipZoverride,1
;   toolheadOffsets,0,0|0,0|0,0|0,0|0,0|0,0
;   overrideFirmwareConfiguration,1
;   firmwareTypeOverride,RepRap (Marlin/Repetier/Sprinter)
;   GPXconfigOverride,r2
;   baudRateOverride,115200
;   overridePrinterModels,0
;   printerModelsOverride
;   startingGcode,G28,G92 E0.0
;   layerChangeGcode,
;   retractionGcode,
;   toolChangeGcode,
;   endingGcode,M104 S0 ; turn off extruder,M140 S0 ; turn off bed,G28 X0 ; home X axis,M84 ; disable motors,M107 ; turn off fan
;   exportFileFormat,gcode
;   celebration,0
;   celebrationSong,Take On Me
;   postProcessing,
;   defaultSpeed,2502
;   outlineUnderspeed,0.9
;   solidInfillUnderspeed,0.8
;   supportUnderspeed,0.8
;   rapidXYspeed,7800
;   rapidZspeed,1002
;   minBridgingArea,5
;   bridgingExtraInflation,0
;   bridgingExtrusionMultiplier,1
;   bridgingSpeedMultiplier,0.3
;   useFixedBridgingAngle,0
;   fixedBridgingAngle,0
;   applyBridgingToPerimeters,0
;   filamentDiameters,1.75|1.75|1.75|1.75|1.75|1.75
;   filamentPricesPerKg,1000|1000|1000|1000|1000|1000
;   filamentDensities,1.25|1.25|1.25|1.25|1.25|1.25
;   useMinPrintHeight,0
;   minPrintHeight,0.3
;   useMaxPrintHeight,0
;   maxPrintHeight,15
;   useDiaphragm,0
;   diaphragmLayerInterval,20
;   robustSlicing,1
;   mergeAllIntoSolid,0
;   onlyRetractWhenCrossingOutline,0
;   retractBetweenLayers,0
;   useRetractionMinTravel,0
;   retractionMinTravel,3
;   retractWhileWiping,0
;   onlyWipeOutlines,1
;   avoidCrossingOutline,1
;   maxMovementDetourFactor,3
;   toolChangeRetractionDistance,0
;   toolChangeExtraRestartDistance,0
;   toolChangeRetractionSpeed,360
;   externalThinWallType,0
;   internalThinWallType,2
;   thinWallAllowedOverlapPercentage,10
;   singleExtrusionMinLength,1
;   singleExtrusionMinPrintingWidthPercentage,50
;   singleExtrusionMaxPrintingWidthPercentage,200
;   singleExtrusionEndpointExtension,0.2
;   horizontalSizeCompensation,0
G90
M83
M106 S255
M140 S55
M190 S55
M104 S250 T0
M109 S250 T0
G28
G92 E0.0
; process PProp
; layer 1, Z = 0.270
T0
; feature skirt
; tool H0.270 W0.420
G1 Z0.270 F1002
G1 X12.161 Y9.178 F7800
G1 E0.1200 F1800
G1 X12.357 Y8.964 E0.0062 F1251
G1 X13.124 Y8.303 E0.0215
G1 X13.395 Y8.125 E0.0069
G1 X14.294 Y7.693 E0.0212
G1 X14.577 Y7.598 E0.0063
G1 X15.532 Y7.400 E0.0207
G1 X15.798 Y7.375 E0.0057
G1 X16.762 Y7.388 E0.0205
G1 X17.001 Y7.415 E0.0051
G1 X17.945 Y7.616 E0.0205
G1 X18.158 Y7.682 E0.0047
G1 X19.041 Y8.048 E0.0203
G1 X19.199 Y8.127 E0.0037
G1 X20.030 Y8.621 E0.0205
G1 X20.131 Y8.688 E0.0026
G1 X20.943 Y9.287 E0.0214
G1 X21.001 Y9.332 E0.0015
G1 X21.832 Y10.025 E0.0230
G1 X21.859 Y10.048 E0.0007
G1 X22.756 Y10.840 E0.0254
G1 X22.784 Y10.865 E0.0008
G1 X23.631 Y11.659 E0.0246
G1 X23.667 Y11.661 E0.0008
G1 X24.292 Y12.279 E0.0187
G1 X25.040 Y12.980 E0.0217
G1 X25.039 Y13.018 E0.0008
G1 X25.698 Y13.671 E0.0197
G1 X25.720 Y13.693 E0.0007
G1 X26.682 Y14.694 E0.0294
G1 X26.704 Y14.717 E0.0007
G1 X30.707 Y19.111 E0.1261
G1 X30.726 Y19.131 E0.0006
G1 X32.839 Y21.558 E0.0683
G1 X32.855 Y21.576 E0.0005
G1 X37.329 Y26.915 E0.1478
G1 X40.620 Y30.786 E0.1078
G1 X49.183 Y40.675 E0.2775
G1 X49.188 Y40.675 E0.0001
G1 X49.807 Y41.396 E0.0202
G1 X50.457 Y42.147 E0.0211
G1 X50.457 Y42.152 E0.0001
G1 X62.543 Y56.221 E0.3935
G1 X63.232 Y57.023 E0.0224
G1 X63.813 Y57.700 E0.0189
G1 X70.549 Y65.549 E0.2194
G1 X70.555 Y65.550 E0.0001
G1 X71.202 Y66.310 E0.0212
G1 X71.856 Y67.072 E0.0213
G1 X71.856 Y67.078 E0.0001
G1 X79.365 Y75.899 E0.2458
G1 X83.799 Y81.092 E0.1449
G1 X92.530 Y91.180 E0.2831
G1 X93.182 Y91.937 E0.0212
G1 X93.801 Y92.655 E0.0201
G1 X98.191 Y97.749 E0.1427
G1 X98.196 Y97.755 E0.0002
G1 X105.469 Y106.293 E0.2380
G1 X106.072 Y107.003 E0.0198
G1 X106.730 Y107.779 E0.0216
G1 X117.257 Y120.189 E0.3452
G1 X125.179 Y129.492 E0.2592
G1 X133.127 Y138.902 E0.2613
G1 X133.144 Y138.922 E0.0005
G1 X134.356 Y140.420 E0.0409
G1 X134.422 Y140.510 E0.0024
G1 X134.885 Y141.203 E0.0177
G1 X135.065 Y141.626 E0.0098
G1 X135.443 Y143.356 E0.0376
G1 X133.622 Y145.243 E0.0556
G1 X131.890 Y144.928 E0.0373
G1 X131.538 Y144.807 E0.0079
G1 X130.804 Y144.422 E0.0176
G1 X130.709 Y144.366 E0.0023
G1 X127.975 Y142.602 E0.0690
G1 X127.947 Y142.584 E0.0007
G1 X125.447 Y140.875 E0.0642
G1 X125.422 Y140.858 E0.0006
G1 X122.312 Y138.616 E0.0813
G1 X122.289 Y138.599 E0.0006
G1 X118.562 Y135.778 E0.0992
G1 X118.547 Y135.766 E0.0004
G1 X116.462 Y134.138 E0.0561
G1 X116.447 Y134.127 E0.0004
G1 X109.295 Y128.367 E0.1948
G1 X108.706 Y127.888 E0.0161
G1 X107.784 Y127.145 E0.0251
G1 X107.784 Y127.139 E0.0001
G1 X101.242 Y121.824 E0.1788
G1 X101.235 Y121.819 E0.0002
G1 X95.722 Y117.277 E0.1515
G1 X95.703 Y117.277 E0.0004
G1 X95.078 Y116.746 E0.0174
G1 X94.223 Y116.041 E0.0235
G1 X94.223 Y116.020 E0.0005
G1 X85.741 Y108.818 E0.2361
G1 X85.733 Y108.812 E0.0002
G1 X80.478 Y104.278 E0.1473
G1 X80.471 Y104.278 E0.0001
G1 X79.800 Y103.693 E0.0189
G1 X79.002 Y103.005 E0.0224
G1 X79.002 Y102.998 E0.0001
G1 X75.736 Y100.151 E0.0919
G1 X75.727 Y100.144 E0.0002
G1 X72.346 Y97.142 E0.0959
G1 X72.335 Y97.132 E0.0003
G1 X68.963 Y94.068 E0.0967
G1 X68.949 Y94.056 E0.0004
G1 X65.610 Y90.929 E0.0970
G1 X65.598 Y90.917 E0.0004
G1 X64.531 Y89.890 E0.0314
G1 X64.519 Y89.890 E0.0003
G1 X63.849 Y89.234 E0.0199
G1 X63.130 Y88.541 E0.0212
G1 X63.131 Y88.530 E0.0003
G1 X59.042 Y84.524 E0.1214
G1 X59.028 Y84.510 E0.0004
G1 X55.825 Y81.270 E0.0967
G1 X55.816 Y81.261 E0.0003
G1 X52.670 Y78.009 E0.0960
G1 X52.661 Y78.000 E0.0003
G1 X49.579 Y74.742 E0.0951
G1 X49.569 Y74.732 E0.0003
G1 X47.032 Y71.987 E0.0793
G1 X47.018 Y71.986 E0.0003
G1 X46.416 Y71.321 E0.0190
G1 X45.714 Y70.561 E0.0219
G1 X45.715 Y70.546 E0.0003
G1 X43.619 Y68.229 E0.0663
G1 X43.609 Y68.218 E0.0003
G1 X40.765 Y65.000 E0.0911
G1 X40.755 Y64.989 E0.0003
G1 X38.007 Y61.801 E0.0893
G1 X37.997 Y61.789 E0.0003
G1 X35.351 Y58.637 E0.0873
G1 X35.340 Y58.624 E0.0004
G1 X33.540 Y56.415 E0.0605
G1 X33.518 Y56.413 E0.0005
G1 X32.886 Y55.614 E0.0216
G1 X32.315 Y54.913 E0.0192
G1 X32.316 Y54.893 E0.0004
G1 X30.384 Y52.448 E0.0661
G1 X30.372 Y52.432 E0.0004
G1 X28.097 Y49.454 E0.0795
G1 X28.084 Y49.437 E0.0004
G1 X25.963 Y46.559 E0.0759
G1 X25.949 Y46.541 E0.0005
G1 X23.996 Y43.786 E0.0716
G1 X23.982 Y43.765 E0.0005
G1 X22.212 Y41.156 E0.0669
G1 X22.196 Y41.131 E0.0006
G1 X21.908 Y40.683 E0.0113
G1 X21.527 Y40.090 E0.0150
G1 X20.972 Y39.228 E0.0217
G1 X20.581 Y38.620 E0.0153
G1 X20.564 Y38.592 E0.0007
G1 X19.073 Y36.133 E0.0610
G1 X19.056 Y36.103 E0.0007
G1 X17.660 Y33.650 E0.0599
G1 X17.644 Y33.620 E0.0007
G1 X16.315 Y31.128 E0.0599
G1 X16.302 Y31.102 E0.0006
G1 X15.072 Y28.661 E0.0580
G1 X15.060 Y28.637 E0.0006
G1 X13.963 Y26.335 E0.0541
G1 X13.952 Y26.310 E0.0006
G1 X13.017 Y24.228 E0.0484
G1 X13.000 Y24.188 E0.0009
G1 X12.526 Y23.024 E0.0267
G1 X12.482 Y23.012 E0.0010
G1 X12.083 Y21.935 E0.0244
G1 X11.797 Y21.234 E0.0161
G1 X11.808 Y21.192 E0.0009
G1 X11.680 Y20.847 E0.0078
G1 X11.658 Y20.784 E0.0014
G1 X11.228 Y19.394 E0.0309
G1 X11.207 Y19.316 E0.0017
G1 X10.895 Y18.008 E0.0285
G1 X10.879 Y17.930 E0.0017
G1 X10.657 Y16.635 E0.0279
G1 X10.645 Y16.546 E0.0019
G1 X10.524 Y15.276 E0.0271
G1 X10.518 Y15.168 E0.0023
G1 X10.508 Y13.943 E0.0260
G1 X10.515 Y13.808 E0.0029
G1 X10.635 Y12.643 E0.0249
G1 X10.666 Y12.467 E0.0038
G1 X10.940 Y11.390 E0.0236
G1 X11.009 Y11.192 E0.0045
G1 X11.440 Y10.226 E0.0224
G1 X11.563 Y10.011 E0.0053
G1 X12.161 Y9.178 E0.0217
G1 X12.488 Y9.443 F7800
G1 E0.1200 F1800
G1 X12.650 Y9.266 E0.0051 F1251
G1 X13.377 Y8.639 E0.0204
G1 X13.602 Y8.492 E0.0057
G1 X14.453 Y8.083 E0.0200
G1 X14.688 Y8.004 E0.0053
G1 X15.594 Y7.816 E0.0196
G1 X15.815 Y7.795 E0.0047
G1 X16.735 Y7.808 E0.0195
G1 X16.933 Y7.830 E0.0042
G1 X17.838 Y8.023 E0.0196
G1 X18.015 Y8.078 E0.0039
G1 X18.866 Y8.430 E0.0195
G1 X18.997 Y8.495 E0.0031
G1 X19.807 Y8.977 E0.0200
G1 X19.890 Y9.032 E0.0021
G1 X20.689 Y9.622 E0.0211
G1 X20.737 Y9.659 E0.0013
G1 X21.561 Y10.346 E0.0228
G1 X21.583 Y10.365 E0.0006
G1 X22.476 Y11.153 E0.0253
G1 X22.499 Y11.173 E0.0006
G1 X23.458 Y12.073 E0.0279
G1 X23.488 Y12.074 E0.0006
G1 X24.001 Y12.582 E0.0153
G1 X24.615 Y13.158 E0.0179
G1 X24.614 Y13.189 E0.0007
G1 X25.401 Y13.967 E0.0235
G1 X25.419 Y13.986 E0.0006
G1 X26.377 Y14.983 E0.0293
G1 X26.395 Y15.002 E0.0006
G1 X30.395 Y19.392 E0.1260
G1 X30.410 Y19.409 E0.0005
G1 X32.521 Y21.832 E0.0682
G1 X32.534 Y21.847 E0.0004
G1 X37.008 Y27.186 E0.1478
G1 X40.301 Y31.059 E0.1078
G1 X48.982 Y41.080 E0.2813
G1 X49.489 Y41.670 E0.0165
G1 X50.024 Y42.293 E0.0175
G1 X62.337 Y56.625 E0.4009
G1 X62.914 Y57.297 E0.0188
G1 X63.380 Y57.841 E0.0152
G1 X70.348 Y65.954 E0.2269
G1 X70.884 Y66.584 E0.0175
G1 X71.423 Y67.218 E0.0177
G1 X79.045 Y76.172 E0.2495
G1 X83.482 Y81.367 E0.1449
G1 X92.325 Y91.585 E0.2867
G1 X92.864 Y92.211 E0.0175
G1 X93.369 Y92.797 E0.0164
G1 X97.873 Y98.023 E0.1464
G1 X97.876 Y98.028 E0.0001
G1 X105.260 Y106.696 E0.2416
G1 X105.752 Y107.276 E0.0161
G1 X106.296 Y107.917 E0.0179
G1 X116.937 Y120.461 E0.3490
G1 X124.858 Y129.763 E0.2592
G1 X132.805 Y139.171 E0.2613
G1 X132.819 Y139.188 E0.0005
G1 X134.023 Y140.677 E0.0406
G1 X134.078 Y140.751 E0.0020
G1 X134.514 Y141.403 E0.0166
G1 X134.663 Y141.754 E0.0081
G1 X134.985 Y143.226 E0.0320
G1 X133.476 Y144.789 E0.0461
G1 X131.996 Y144.520 E0.0319
G1 X131.704 Y144.420 E0.0065
G1 X131.007 Y144.054 E0.0167
G1 X130.928 Y144.008 E0.0019
G1 X128.205 Y142.251 E0.0688
G1 X128.182 Y142.236 E0.0006
G1 X125.687 Y140.530 E0.0641
G1 X125.666 Y140.516 E0.0005
G1 X122.560 Y138.276 E0.0812
G1 X122.541 Y138.262 E0.0005
G1 X118.816 Y135.444 E0.0991
G1 X118.804 Y135.434 E0.0003
G1 X116.722 Y133.808 E0.0561
G1 X116.710 Y133.799 E0.0003
G1 X109.445 Y127.948 E0.1979
G1 X108.969 Y127.561 E0.0130
G1 X108.204 Y126.945 E0.0208
G1 X108.204 Y126.940 E0.0001
G1 X101.507 Y121.499 E0.1831
G1 X101.502 Y121.494 E0.0001
G1 X95.874 Y116.858 E0.1547
G1 X95.859 Y116.858 E0.0003
G1 X95.347 Y116.424 E0.0142
G1 X94.643 Y115.843 E0.0194
G1 X94.643 Y115.826 E0.0004
G1 X86.013 Y108.498 E0.2402
G1 X86.007 Y108.493 E0.0002
G1 X80.635 Y103.859 E0.1505
G1 X80.629 Y103.859 E0.0001
G1 X80.076 Y103.377 E0.0156
G1 X79.423 Y102.813 E0.0183
G1 X79.423 Y102.807 E0.0001
G1 X76.012 Y99.835 E0.0960
G1 X76.005 Y99.829 E0.0002
G1 X72.625 Y96.829 E0.0959
G1 X72.616 Y96.821 E0.0003
G1 X69.246 Y93.758 E0.0966
G1 X69.235 Y93.748 E0.0003
G1 X65.899 Y90.624 E0.0970
G1 X65.888 Y90.614 E0.0003
G1 X64.707 Y89.476 E0.0348
G1 X64.697 Y89.476 E0.0002
G1 X64.142 Y88.932 E0.0165
G1 X63.556 Y88.368 E0.0172
G1 X63.556 Y88.359 E0.0002
G1 X59.337 Y84.225 E0.1253
G1 X59.325 Y84.214 E0.0003
G1 X56.124 Y80.976 E0.0966
G1 X56.117 Y80.968 E0.0002
G1 X52.973 Y77.718 E0.0959
G1 X52.965 Y77.710 E0.0002
G1 X49.885 Y74.454 E0.0951
G1 X49.877 Y74.446 E0.0002
G1 X47.227 Y71.579 E0.0828
G1 X47.215 Y71.578 E0.0002
G1 X46.726 Y71.037 E0.0155
G1 X46.144 Y70.408 E0.0182
G1 X46.145 Y70.395 E0.0003
G1 X43.931 Y67.948 E0.0700
G1 X43.923 Y67.939 E0.0002
G1 X41.081 Y64.723 E0.0911
G1 X41.073 Y64.714 E0.0003
G1 X38.326 Y61.528 E0.0893
G1 X38.317 Y61.517 E0.0003
G1 X35.674 Y58.368 E0.0872
G1 X35.665 Y58.357 E0.0003
G1 X33.755 Y56.015 E0.0641
G1 X33.737 Y56.013 E0.0004
G1 X33.214 Y55.350 E0.0179
G1 X32.749 Y54.780 E0.0156
G1 X32.750 Y54.764 E0.0003
G1 X30.715 Y52.189 E0.0696
G1 X30.704 Y52.176 E0.0004
G1 X28.432 Y49.201 E0.0794
G1 X28.421 Y49.187 E0.0004
G1 X26.302 Y46.312 E0.0758
G1 X26.291 Y46.296 E0.0004
G1 X24.340 Y43.545 E0.0716
G1 X24.328 Y43.527 E0.0004
G1 X22.561 Y40.922 E0.0668
G1 X22.548 Y40.901 E0.0005
G1 X22.261 Y40.456 E0.0112
G1 X21.880 Y39.863 E0.0150
G1 X21.392 Y39.104 E0.0191
G1 X20.936 Y38.395 E0.0179
G1 X20.921 Y38.372 E0.0006
G1 X19.434 Y35.917 E0.0609
G1 X19.419 Y35.893 E0.0006
G1 X18.027 Y33.445 E0.0598
G1 X18.013 Y33.420 E0.0006
G1 X16.686 Y30.932 E0.0598
G1 X16.676 Y30.911 E0.0005
G1 X15.448 Y28.474 E0.0579
G1 X15.439 Y28.454 E0.0005
G1 X14.344 Y26.156 E0.0540
G1 X14.334 Y26.135 E0.0005
G1 X13.402 Y24.060 E0.0483
G1 X13.388 Y24.026 E0.0008
G1 X12.836 Y22.671 E0.0310
G1 X12.800 Y22.662 E0.0008
