; G-Code generated by Simplify3D(R) Version 4.1.2
; Sep 24, 2022 at 2:35:26 PM
; Settings Summary
;   processName,PProp
;   applyToModels,Wing-L2
;   profileName,PProp - LW-PLA
;   profileVersion,2022-05-27 11:45:37
;   baseProfile,Default
;   printMaterial,
;   printQuality,
;   printExtruders,
;   extruderName,Primary Extruder
;   extruderToolheadNumber,0
;   extruderDiameter,0.4
;   extruderAutoWidth,0
;   extruderWidth,0.42
;   extrusionMultiplier,0.45
;   extruderUseRetract,1
;   extruderRetractionDistance,0
;   extruderExtraRestartDistance,0.12
;   extruderRetractionZLift,0
;   extruderRetractionSpeed,1800
;   extruderUseCoasting,1
;   extruderCoastingDistance,0.2
;   extruderUseWipe,1
;   extruderWipeDistance,2
;   primaryExtruder,0
;   layerHeight,0.3
;   topSolidLayers,0
;   bottomSolidLayers,0
;   perimeterOutlines,1
;   printPerimetersInsideOut,1
;   startPointOption,2
;   startPointOriginX,0
;   startPointOriginY,-100
;   sequentialIslands,0
;   spiralVaseMode,1
;   firstLayerHeightPercentage,90
;   firstLayerWidthPercentage,100
;   firstLayerUnderspeed,0.5
;   useRaft,0
;   raftExtruder,0
;   raftTopLayers,3
;   raftBaseLayers,2
;   raftOffset,3
;   raftSeparationDistance,0.14
;   raftTopInfill,100
;   aboveRaftSpeedMultiplier,0.3
;   useSkirt,1
;   skirtExtruder,0
;   skirtLayers,1
;   skirtOutlines,3
;   skirtOffset,1.4
;   usePrimePillar,0
;   primePillarExtruder,999
;   primePillarWidth,12
;   primePillarLocation,7
;   primePillarSpeedMultiplier,1
;   useOozeShield,0
;   oozeShieldExtruder,999
;   oozeShieldOffset,2
;   oozeShieldOutlines,1
;   oozeShieldSidewallShape,1
;   oozeShieldSidewallAngle,30
;   oozeShieldSpeedMultiplier,1
;   infillExtruder,0
;   internalInfillPattern,Rectilinear
;   externalInfillPattern,Rectilinear
;   infillPercentage,0
;   outlineOverlapPercentage,15
;   infillExtrusionWidthPercentage,100
;   minInfillLength,5
;   infillLayerInterval,1
;   internalInfillAngles,45,-45
;   overlapInternalInfillAngles,0
;   externalInfillAngles,45,-45
;   generateSupport,0
;   supportExtruder,0
;   supportInfillPercentage,30
;   supportExtraInflation,0
;   supportBaseLayers,0
;   denseSupportExtruder,0
;   denseSupportLayers,0
;   denseSupportInfillPercentage,70
;   supportLayerInterval,1
;   supportHorizontalPartOffset,0.3
;   supportUpperSeparationLayers,1
;   supportLowerSeparationLayers,1
;   supportType,0
;   supportGridSpacing,4
;   maxOverhangAngle,45
;   supportAngles,0
;   temperatureName,Primary Extruder,Heated Bed
;   temperatureNumber,0,1
;   temperatureSetpointCount,1,1
;   temperatureSetpointLayers,1,1
;   temperatureSetpointTemperatures,250,55
;   temperatureStabilizeAtStartup,1,1
;   temperatureHeatedBed,0,1
;   fanLayers,1
;   fanSpeeds,100
;   blipFanToFullPower,1
;   adjustSpeedForCooling,0
;   minSpeedLayerTime,15
;   minCoolingSpeedSlowdown,80
;   increaseFanForCooling,0
;   minFanLayerTime,20
;   maxCoolingFanSpeed,100
;   increaseFanForBridging,0
;   bridgingFanSpeed,100
;   use5D,1
;   relativeEdistances,1
;   allowEaxisZeroing,1
;   independentExtruderAxes,0
;   includeM10123,0
;   stickySupport,1
;   applyToolheadOffsets,0
;   gcodeXoffset,0
;   gcodeYoffset,0
;   gcodeZoffset,0
;   overrideMachineDefinition,1
;   machineTypeOverride,0
;   strokeXoverride,200
;   strokeYoverride,200
;   strokeZoverride,200
;   originOffsetXoverride,0
;   originOffsetYoverride,0
;   originOffsetZoverride,0
;   homeXdirOverride,-1
;   homeYdirOverride,-1
;   homeZdirOverride,-1
;   flipXoverride,1
;   flipYoverride,-1
;   flipZoverride,1
;   toolheadOffsets,0,0|0,0|0,0|0,0|0,0|0,0
;   overrideFirmwareConfiguration,1
;   firmwareTypeOverride,RepRap (Marlin/Repetier/Sprinter)
;   GPXconfigOverride,r2
;   baudRateOverride,115200
;   overridePrinterModels,0
;   printerModelsOverride
;   startingGcode,G28,G92 E0.0
;   layerChangeGcode,
;   retractionGcode,
;   toolChangeGcode,
;   endingGcode,M104 S0 ; turn off extruder,M140 S0 ; turn off bed,G28 X0 ; home X axis,M84 ; disable motors,M107 ; turn off fan
;   exportFileFormat,gcode
;   celebration,0
;   celebrationSong,Take On Me
;   postProcessing,
;   defaultSpeed,2502
;   outlineUnderspeed,0.9
;   solidInfillUnderspeed,0.8
;   supportUnderspeed,0.8
;   rapidXYspeed,7800
;   rapidZspeed,1002
;   minBridgingArea,5
;   bridgingExtraInflation,0
;   bridgingExtrusionMultiplier,1
;   bridgingSpeedMultiplier,0.3
;   useFixedBridgingAngle,0
;   fixedBridgingAngle,0
;   applyBridgingToPerimeters,0
;   filamentDiameters,1.75|1.75|1.75|1.75|1.75|1.75
;   filamentPricesPerKg,1000|1000|1000|1000|1000|1000
;   filamentDensities,1.25|1.25|1.25|1.25|1.25|1.25
;   useMinPrintHeight,0
;   minPrintHeight,0.3
;   useMaxPrintHeight,0
;   maxPrintHeight,15
;   useDiaphragm,0
;   diaphragmLayerInterval,20
;   robustSlicing,1
;   mergeAllIntoSolid,0
;   onlyRetractWhenCrossingOutline,0
;   retractBetweenLayers,0
;   useRetractionMinTravel,0
;   retractionMinTravel,3
;   retractWhileWiping,0
;   onlyWipeOutlines,1
;   avoidCrossingOutline,1
;   maxMovementDetourFactor,3
;   toolChangeRetractionDistance,0
;   toolChangeExtraRestartDistance,0
;   toolChangeRetractionSpeed,360
;   externalThinWallType,0
;   internalThinWallType,2
;   thinWallAllowedOverlapPercentage,10
;   singleExtrusionMinLength,1
;   singleExtrusionMinPrintingWidthPercentage,50
;   singleExtrusionMaxPrintingWidthPercentage,200
;   singleExtrusionEndpointExtension,0.2
;   horizontalSizeCompensation,0
G90
M83
M106 S255
M140 S55
M190 S55
M104 S250 T0
M109 S250 T0
G28
G92 E0.0
; process PProp
; layer 1, Z = 0.270
T0
; feature skirt
; tool H0.270 W0.420
G1 Z0.270 F1002
G1 X12.853 Y12.558 F7800
G1 E0.1200 F1800
G1 X13.533 Y11.862 E0.0206 F1251
G1 X13.874 Y11.616 E0.0089
G1 X14.734 Y11.197 E0.0203
G1 X14.961 Y11.113 E0.0051
G1 X15.856 Y10.878 E0.0196
G1 X16.191 Y10.838 E0.0071
G1 X17.118 Y10.855 E0.0197
G1 X17.302 Y10.873 E0.0039
G1 X18.204 Y11.026 E0.0194
G1 X18.458 Y11.099 E0.0056
G1 X19.318 Y11.446 E0.0197
G1 X19.436 Y11.501 E0.0027
G1 X20.246 Y11.933 E0.0195
G1 X20.367 Y12.006 E0.0030
G1 X21.185 Y12.572 E0.0211
G1 X21.227 Y12.602 E0.0011
G1 X22.058 Y13.230 E0.0221
G1 X22.100 Y13.263 E0.0011
G1 X23.971 Y14.811 E0.0515
G1 X24.005 Y14.841 E0.0010
G1 X25.832 Y16.470 E0.0519
G1 X25.862 Y16.498 E0.0009
G1 X27.911 Y18.453 E0.0601
G1 X27.933 Y18.475 E0.0007
G1 X32.150 Y22.706 E0.1268
G1 X32.173 Y22.730 E0.0007
G1 X34.546 Y25.244 E0.0734
G1 X35.064 Y25.795 E0.0160
G1 X35.879 Y26.662 E0.0253
G1 X41.307 Y32.440 E0.1682
G1 X47.753 Y39.136 E0.1972
G1 X48.444 Y39.859 E0.0212
G1 X49.098 Y40.543 E0.0201
G1 X61.919 Y53.955 E0.3937
G1 X62.571 Y54.637 E0.0200
G1 X63.265 Y55.364 E0.0213
G1 X67.987 Y60.302 E0.1450
G1 X68.676 Y61.027 E0.0212
G1 X69.370 Y61.758 E0.0214
G1 X80.410 Y73.391 E0.3403
G1 X85.892 Y79.168 E0.1690
G1 X93.696 Y87.285 E0.2389
G1 X94.411 Y88.033 E0.0219
G1 X95.044 Y88.693 E0.0194
G1 X102.085 Y96.051 E0.2161
G1 X102.090 Y96.056 E0.0002
G1 X109.978 Y104.393 E0.2435
G1 X110.584 Y105.035 E0.0187
G1 X111.317 Y105.811 E0.0227
G1 X136.012 Y131.968 E0.7632
G1 X136.025 Y131.983 E0.0004
G1 X138.089 Y134.239 E0.0649
G1 X138.174 Y134.342 E0.0028
G1 X138.598 Y134.921 E0.0152
G1 X138.749 Y135.195 E0.0066
G1 X139.445 Y136.950 E0.0401
G1 X137.518 Y139.196 E0.0628
G1 X135.672 Y138.773 E0.0402
G1 X135.423 Y138.687 E0.0056
G1 X134.760 Y138.375 E0.0155
G1 X134.660 Y138.322 E0.0024
G1 X133.009 Y137.350 E0.0407
G1 X132.986 Y137.336 E0.0006
G1 X130.794 Y135.981 E0.0547
G1 X130.771 Y135.967 E0.0006
G1 X127.971 Y134.151 E0.0708
G1 X127.945 Y134.134 E0.0006
G1 X124.145 Y131.533 E0.0977
G1 X124.126 Y131.519 E0.0005
G1 X120.539 Y128.962 E0.0935
G1 X120.524 Y128.951 E0.0004
G1 X117.141 Y126.463 E0.0891
G1 X117.134 Y126.457 E0.0002
G1 X105.634 Y117.877 E0.3044
G1 X105.629 Y117.874 E0.0001
G1 X101.891 Y115.055 E0.0993
G1 X101.876 Y115.056 E0.0003
G1 X101.191 Y114.527 E0.0184
G1 X100.339 Y113.884 E0.0227
G1 X100.338 Y113.868 E0.0003
G1 X92.976 Y108.188 E0.1973
G1 X92.965 Y108.179 E0.0003
G1 X83.037 Y100.338 E0.2684
G1 X83.025 Y100.338 E0.0003
G1 X82.359 Y99.802 E0.0182
G1 X81.511 Y99.132 E0.0229
G1 X81.510 Y99.119 E0.0003
G1 X77.806 Y96.138 E0.1009
G1 X77.794 Y96.129 E0.0003
G1 X72.818 Y92.025 E0.1368
G1 X72.801 Y92.010 E0.0005
G1 X69.354 Y89.057 E0.0963
G1 X69.345 Y89.048 E0.0003
G1 X66.566 Y86.616 E0.0783
G1 X66.542 Y86.617 E0.0005
G1 X65.896 Y86.030 E0.0185
G1 X65.114 Y85.345 E0.0220
G1 X65.113 Y85.319 E0.0006
G1 X59.858 Y80.546 E0.1506
G1 X59.844 Y80.533 E0.0004
G1 X56.189 Y77.106 E0.1063
G1 X56.181 Y77.098 E0.0002
G1 X53.012 Y74.072 E0.0930
G1 X52.998 Y74.058 E0.0004
G1 X48.350 Y69.474 E0.1385
G1 X48.328 Y69.473 E0.0005
G1 X47.663 Y68.797 E0.0201
G1 X46.970 Y68.113 E0.0207
G1 X46.970 Y68.091 E0.0005
G1 X43.985 Y65.052 E0.0904
G1 X43.975 Y65.042 E0.0003
G1 X41.074 Y62.021 E0.0889
G1 X41.061 Y62.008 E0.0004
G1 X38.395 Y59.146 E0.0830
G1 X38.387 Y59.137 E0.0003
G1 X36.272 Y56.823 E0.0665
G1 X36.260 Y56.810 E0.0004
G1 X34.203 Y54.489 E0.0658
G1 X34.183 Y54.488 E0.0004
G1 X33.530 Y53.730 E0.0212
G1 X32.916 Y53.038 E0.0196
G1 X32.917 Y53.019 E0.0004
G1 X30.799 Y50.561 E0.0689
G1 X30.782 Y50.542 E0.0005
G1 X28.624 Y47.931 E0.0719
G1 X28.614 Y47.919 E0.0003
G1 X26.540 Y45.342 E0.0702
G1 X26.522 Y45.318 E0.0006
G1 X24.670 Y42.901 E0.0646
G1 X24.658 Y42.884 E0.0004
G1 X23.264 Y41.001 E0.0497
G1 X23.245 Y40.975 E0.0007
G1 X22.059 Y39.282 E0.0438
G1 X22.023 Y39.278 E0.0008
G1 X21.420 Y38.370 E0.0231
G1 X20.950 Y37.699 E0.0174
G1 X20.954 Y37.667 E0.0007
G1 X19.752 Y35.856 E0.0461
G1 X19.732 Y35.824 E0.0008
G1 X18.406 Y33.684 E0.0534
G1 X18.395 Y33.666 E0.0004
G1 X16.922 Y31.197 E0.0610
G1 X16.901 Y31.161 E0.0009
G1 X14.671 Y27.119 E0.0980
G1 X14.648 Y27.076 E0.0010
G1 X13.832 Y25.445 E0.0387
G1 X13.816 Y25.412 E0.0008
G1 X13.122 Y23.915 E0.0350
G1 X13.092 Y23.844 E0.0016
G1 X12.600 Y22.578 E0.0288
G1 X12.580 Y22.523 E0.0012
G1 X12.168 Y21.293 E0.0275
G1 X12.141 Y21.201 E0.0020
G1 X11.836 Y19.979 E0.0267
G1 X11.821 Y19.913 E0.0014
G1 X11.590 Y18.711 E0.0260
G1 X11.572 Y18.582 E0.0028
G1 X11.476 Y17.433 E0.0245
G1 X11.472 Y17.330 E0.0022
G1 X11.473 Y16.206 E0.0238
G1 X11.493 Y15.987 E0.0047
G1 X11.679 Y14.967 E0.0220
G1 X11.721 Y14.802 E0.0036
G1 X12.045 Y13.823 E0.0219
G1 X12.184 Y13.534 E0.0068
G1 X12.704 Y12.743 E0.0201
G1 X12.853 Y12.558 E0.0050
G1 X13.167 Y12.837 F7800
G1 E0.1200 F1800
G1 X13.808 Y12.182 E0.0194 F1251
G1 X14.091 Y11.978 E0.0074
G1 X14.900 Y11.583 E0.0191
G1 X15.088 Y11.514 E0.0043
G1 X15.935 Y11.292 E0.0186
G1 X16.212 Y11.259 E0.0059
G1 X17.095 Y11.275 E0.0187
G1 X17.247 Y11.289 E0.0032
G1 X18.111 Y11.437 E0.0186
G1 X18.322 Y11.496 E0.0046
G1 X19.151 Y11.832 E0.0190
G1 X19.248 Y11.877 E0.0023
G1 X20.038 Y12.298 E0.0190
G1 X20.138 Y12.359 E0.0025
G1 X20.942 Y12.915 E0.0207
G1 X20.977 Y12.940 E0.0009
G1 X21.801 Y13.562 E0.0219
G1 X21.836 Y13.590 E0.0009
G1 X23.700 Y15.132 E0.0513
G1 X23.729 Y15.157 E0.0008
G1 X25.550 Y16.781 E0.0518
G1 X25.575 Y16.804 E0.0007
G1 X27.619 Y18.755 E0.0599
G1 X27.637 Y18.773 E0.0005
G1 X31.850 Y23.001 E0.1266
G1 X31.870 Y23.021 E0.0006
G1 X34.359 Y25.657 E0.0769
G1 X34.758 Y26.083 E0.0124
G1 X35.454 Y26.823 E0.0216
G1 X41.003 Y32.729 E0.1719
G1 X47.569 Y39.551 E0.2009
G1 X48.142 Y40.150 E0.0176
G1 X48.674 Y40.707 E0.0164
G1 X61.733 Y54.368 E0.4010
G1 X62.267 Y54.928 E0.0164
G1 X62.839 Y55.526 E0.0176
G1 X67.802 Y60.717 E0.1524
G1 X68.372 Y61.317 E0.0176
G1 X68.945 Y61.921 E0.0177
G1 X79.980 Y73.548 E0.3401
G1 X85.590 Y79.459 E0.1729
G1 X93.513 Y87.701 E0.2426
G1 X94.109 Y88.324 E0.0183
G1 X94.620 Y88.858 E0.0157
G1 X101.781 Y96.340 E0.2197
G1 X101.785 Y96.345 E0.0001
G1 X109.791 Y104.807 E0.2472
G1 X110.278 Y105.323 E0.0151
G1 X110.891 Y105.972 E0.0189
G1 X135.706 Y132.256 E0.7669
G1 X135.717 Y132.267 E0.0003
G1 X137.772 Y134.514 E0.0646
G1 X137.842 Y134.599 E0.0023
G1 X138.244 Y135.148 E0.0144
G1 X138.369 Y135.375 E0.0055
G1 X138.961 Y136.869 E0.0341
G1 X137.365 Y138.730 E0.0520
G1 X135.788 Y138.369 E0.0343
G1 X135.581 Y138.298 E0.0046
G1 X134.948 Y137.999 E0.0149
G1 X134.865 Y137.955 E0.0020
G1 X133.224 Y136.989 E0.0404
G1 X133.205 Y136.978 E0.0005
G1 X131.016 Y135.625 E0.0546
G1 X130.998 Y135.613 E0.0005
G1 X128.201 Y133.800 E0.0707
G1 X128.180 Y133.786 E0.0005
G1 X124.384 Y131.187 E0.0976
G1 X124.368 Y131.176 E0.0004
G1 X120.784 Y128.620 E0.0934
G1 X120.772 Y128.612 E0.0003
G1 X117.390 Y126.124 E0.0891
G1 X117.384 Y126.120 E0.0001
G1 X105.885 Y117.541 E0.3044
G1 X105.881 Y117.538 E0.0001
G1 X102.023 Y114.628 E0.1025
G1 X102.010 Y114.629 E0.0003
G1 X101.446 Y114.193 E0.0151
G1 X100.747 Y113.666 E0.0186
G1 X100.747 Y113.653 E0.0003
G1 X93.234 Y107.856 E0.2013
G1 X93.225 Y107.849 E0.0002
G1 X83.176 Y99.912 E0.2717
G1 X83.166 Y99.912 E0.0002
G1 X82.620 Y99.473 E0.0149
G1 X81.922 Y98.921 E0.0189
G1 X81.922 Y98.911 E0.0002
G1 X78.070 Y95.811 E0.1049
G1 X78.060 Y95.804 E0.0003
G1 X73.087 Y91.702 E0.1368
G1 X73.072 Y91.689 E0.0004
G1 X69.628 Y88.738 E0.0962
G1 X69.620 Y88.731 E0.0002
G1 X66.722 Y86.195 E0.0817
G1 X66.703 Y86.195 E0.0004
G1 X66.175 Y85.716 E0.0151
G1 X65.530 Y85.151 E0.0182
G1 X65.530 Y85.130 E0.0005
G1 X60.142 Y80.237 E0.1544
G1 X60.130 Y80.226 E0.0003
G1 X56.477 Y76.800 E0.1062
G1 X56.470 Y76.794 E0.0002
G1 X53.304 Y73.769 E0.0929
G1 X53.292 Y73.758 E0.0003
G1 X48.525 Y69.057 E0.1420
G1 X48.508 Y69.057 E0.0004
G1 X47.961 Y68.500 E0.0165
G1 X47.392 Y67.939 E0.0170
G1 X47.392 Y67.921 E0.0004
G1 X44.285 Y64.759 E0.0940
G1 X44.277 Y64.751 E0.0002
G1 X41.378 Y61.732 E0.0888
G1 X41.368 Y61.721 E0.0003
G1 X38.703 Y58.860 E0.0829
G1 X38.696 Y58.853 E0.0002
G1 X36.584 Y56.541 E0.0664
G1 X36.573 Y56.530 E0.0003
G1 X34.400 Y54.079 E0.0695
G1 X34.384 Y54.078 E0.0003
G1 X33.846 Y53.454 E0.0175
G1 X33.343 Y52.887 E0.0161
G1 X33.344 Y52.872 E0.0003
G1 X31.118 Y50.288 E0.0724
G1 X31.105 Y50.272 E0.0004
G1 X28.949 Y47.665 E0.0718
G1 X28.940 Y47.654 E0.0003
G1 X26.869 Y45.080 E0.0701
G1 X26.854 Y45.061 E0.0005
G1 X25.005 Y42.647 E0.0645
G1 X24.995 Y42.633 E0.0004
G1 X23.603 Y40.753 E0.0496
G1 X23.587 Y40.731 E0.0006
G1 X22.295 Y38.886 E0.0478
G1 X22.265 Y38.883 E0.0006
G1 X21.767 Y38.133 E0.0191
G1 X21.384 Y37.586 E0.0142
G1 X21.387 Y37.560 E0.0006
G1 X20.104 Y35.626 E0.0492
G1 X20.087 Y35.600 E0.0007
G1 X18.764 Y33.465 E0.0533
G1 X18.755 Y33.450 E0.0004
G1 X17.284 Y30.985 E0.0609
G1 X17.268 Y30.956 E0.0007
G1 X15.040 Y26.920 E0.0978
G1 X15.021 Y26.884 E0.0009
G1 X14.209 Y25.260 E0.0385
G1 X14.195 Y25.232 E0.0006
G1 X13.506 Y23.745 E0.0348
G1 X13.481 Y23.686 E0.0014
G1 X12.993 Y22.430 E0.0286
G1 X12.977 Y22.385 E0.0010
G1 X12.569 Y21.167 E0.0273
G1 X12.546 Y21.091 E0.0017
G1 X12.245 Y19.883 E0.0264
G1 X12.232 Y19.829 E0.0012
G1 X12.005 Y18.643 E0.0256
G1 X11.990 Y18.536 E0.0023
G1 X11.896 Y17.407 E0.0240
G1 X11.892 Y17.322 E0.0018
G1 X11.893 Y16.225 E0.0233
G1 X11.910 Y16.044 E0.0039
G1 X12.090 Y15.057 E0.0213
G1 X12.124 Y14.920 E0.0030
G1 X12.435 Y13.981 E0.0210
G1 X12.551 Y13.742 E0.0056
G1 X13.044 Y12.990 E0.0191
G1 X13.167 Y12.837 E0.0042
G1 X13.482 Y13.116 F7800
G1 E0.1200 F1800
G1 X14.083 Y12.501 E0.0183 F1251
G1 X14.307 Y12.340 E0.0059
G1 X15.065 Y11.970 E0.0179
G1 X15.214 Y11.915 E0.0034
G1 X16.013 Y11.705 E0.0175
G1 X16.233 Y11.679 E0.0047
G1 X17.071 Y11.695 E0.0178
G1 X17.192 Y11.706 E0.0026
G1 X18.018 Y11.847 E0.0178
G1 X18.185 Y11.894 E0.0037
G1 X18.983 Y12.217 E0.0183
G1 X19.060 Y12.253 E0.0018
G1 X19.830 Y12.663 E0.0185
G1 X19.909 Y12.711 E0.0020
G1 X20.700 Y13.258 E0.0204
G1 X20.728 Y13.278 E0.0007
G1 X21.544 Y13.895 E0.0217
G1 X21.571 Y13.917 E0.0007
G1 X23.429 Y15.453 E0.0512
