; G-Code generated by Simplify3D(R) Version 4.1.2
; Sep 24, 2022 at 2:36:47 PM
; Settings Summary
;   processName,PProp
;   applyToModels,Wing-R2
;   profileName,PProp - LW-PLA
;   profileVersion,2022-05-27 11:45:37
;   baseProfile,Default
;   printMaterial,
;   printQuality,
;   printExtruders,
;   extruderName,Primary Extruder
;   extruderToolheadNumber,0
;   extruderDiameter,0.4
;   extruderAutoWidth,0
;   extruderWidth,0.42
;   extrusionMultiplier,0.45
;   extruderUseRetract,1
;   extruderRetractionDistance,0
;   extruderExtraRestartDistance,0.12
;   extruderRetractionZLift,0
;   extruderRetractionSpeed,1800
;   extruderUseCoasting,1
;   extruderCoastingDistance,0.2
;   extruderUseWipe,1
;   extruderWipeDistance,2
;   primaryExtruder,0
;   layerHeight,0.3
;   topSolidLayers,0
;   bottomSolidLayers,0
;   perimeterOutlines,1
;   printPerimetersInsideOut,1
;   startPointOption,2
;   startPointOriginX,0
;   startPointOriginY,-100
;   sequentialIslands,0
;   spiralVaseMode,1
;   firstLayerHeightPercentage,90
;   firstLayerWidthPercentage,100
;   firstLayerUnderspeed,0.5
;   useRaft,0
;   raftExtruder,0
;   raftTopLayers,3
;   raftBaseLayers,2
;   raftOffset,3
;   raftSeparationDistance,0.14
;   raftTopInfill,100
;   aboveRaftSpeedMultiplier,0.3
;   useSkirt,1
;   skirtExtruder,0
;   skirtLayers,1
;   skirtOutlines,3
;   skirtOffset,1.4
;   usePrimePillar,0
;   primePillarExtruder,999
;   primePillarWidth,12
;   primePillarLocation,7
;   primePillarSpeedMultiplier,1
;   useOozeShield,0
;   oozeShieldExtruder,999
;   oozeShieldOffset,2
;   oozeShieldOutlines,1
;   oozeShieldSidewallShape,1
;   oozeShieldSidewallAngle,30
;   oozeShieldSpeedMultiplier,1
;   infillExtruder,0
;   internalInfillPattern,Rectilinear
;   externalInfillPattern,Rectilinear
;   infillPercentage,0
;   outlineOverlapPercentage,15
;   infillExtrusionWidthPercentage,100
;   minInfillLength,5
;   infillLayerInterval,1
;   internalInfillAngles,45,-45
;   overlapInternalInfillAngles,0
;   externalInfillAngles,45,-45
;   generateSupport,0
;   supportExtruder,0
;   supportInfillPercentage,30
;   supportExtraInflation,0
;   supportBaseLayers,0
;   denseSupportExtruder,0
;   denseSupportLayers,0
;   denseSupportInfillPercentage,70
;   supportLayerInterval,1
;   supportHorizontalPartOffset,0.3
;   supportUpperSeparationLayers,1
;   supportLowerSeparationLayers,1
;   supportType,0
;   supportGridSpacing,4
;   maxOverhangAngle,45
;   supportAngles,0
;   temperatureName,Primary Extruder,Heated Bed
;   temperatureNumber,0,1
;   temperatureSetpointCount,1,1
;   temperatureSetpointLayers,1,1
;   temperatureSetpointTemperatures,250,55
;   temperatureStabilizeAtStartup,1,1
;   temperatureHeatedBed,0,1
;   fanLayers,1
;   fanSpeeds,100
;   blipFanToFullPower,1
;   adjustSpeedForCooling,0
;   minSpeedLayerTime,15
;   minCoolingSpeedSlowdown,80
;   increaseFanForCooling,0
;   minFanLayerTime,20
;   maxCoolingFanSpeed,100
;   increaseFanForBridging,0
;   bridgingFanSpeed,100
;   use5D,1
;   relativeEdistances,1
;   allowEaxisZeroing,1
;   independentExtruderAxes,0
;   includeM10123,0
;   stickySupport,1
;   applyToolheadOffsets,0
;   gcodeXoffset,0
;   gcodeYoffset,0
;   gcodeZoffset,0
;   overrideMachineDefinition,1
;   machineTypeOverride,0
;   strokeXoverride,200
;   strokeYoverride,200
;   strokeZoverride,200
;   originOffsetXoverride,0
;   originOffsetYoverride,0
;   originOffsetZoverride,0
;   homeXdirOverride,-1
;   homeYdirOverride,-1
;   homeZdirOverride,-1
;   flipXoverride,1
;   flipYoverride,-1
;   flipZoverride,1
;   toolheadOffsets,0,0|0,0|0,0|0,0|0,0|0,0
;   overrideFirmwareConfiguration,1
;   firmwareTypeOverride,RepRap (Marlin/Repetier/Sprinter)
;   GPXconfigOverride,r2
;   baudRateOverride,115200
;   overridePrinterModels,0
;   printerModelsOverride
;   startingGcode,G28,G92 E0.0
;   layerChangeGcode,
;   retractionGcode,
;   toolChangeGcode,
;   endingGcode,M104 S0 ; turn off extruder,M140 S0 ; turn off bed,G28 X0 ; home X axis,M84 ; disable motors,M107 ; turn off fan
;   exportFileFormat,gcode
;   celebration,0
;   celebrationSong,Take On Me
;   postProcessing,
;   defaultSpeed,2502
;   outlineUnderspeed,0.9
;   solidInfillUnderspeed,0.8
;   supportUnderspeed,0.8
;   rapidXYspeed,7800
;   rapidZspeed,1002
;   minBridgingArea,5
;   bridgingExtraInflation,0
;   bridgingExtrusionMultiplier,1
;   bridgingSpeedMultiplier,0.3
;   useFixedBridgingAngle,0
;   fixedBridgingAngle,0
;   applyBridgingToPerimeters,0
;   filamentDiameters,1.75|1.75|1.75|1.75|1.75|1.75
;   filamentPricesPerKg,1000|1000|1000|1000|1000|1000
;   filamentDensities,1.25|1.25|1.25|1.25|1.25|1.25
;   useMinPrintHeight,0
;   minPrintHeight,0.3
;   useMaxPrintHeight,0
;   maxPrintHeight,15
;   useDiaphragm,0
;   diaphragmLayerInterval,20
;   robustSlicing,1
;   mergeAllIntoSolid,0
;   onlyRetractWhenCrossingOutline,0
;   retractBetweenLayers,0
;   useRetractionMinTravel,0
;   retractionMinTravel,3
;   retractWhileWiping,0
;   onlyWipeOutlines,1
;   avoidCrossingOutline,1
;   maxMovementDetourFactor,3
;   toolChangeRetractionDistance,0
;   toolChangeExtraRestartDistance,0
;   toolChangeRetractionSpeed,360
;   externalThinWallType,0
;   internalThinWallType,2
;   thinWallAllowedOverlapPercentage,10
;   singleExtrusionMinLength,1
;   singleExtrusionMinPrintingWidthPercentage,50
;   singleExtrusionMaxPrintingWidthPercentage,200
;   singleExtrusionEndpointExtension,0.2
;   horizontalSizeCompensation,0
G90
M83
M106 S255
M140 S55
M190 S55
M104 S250 T0
M109 S250 T0
G28
G92 E0.0
; process PProp
; layer 1, Z = 0.270
T0
; feature skirt
; tool H0.270 W0.420
G1 Z0.270 F1002
G1 X14.476 Y14.519 F7800
G1 E0.1200 F1800
G1 X14.880 Y14.124 E0.0120 F1251
G1 X14.942 Y14.067 E0.0018
G1 X15.285 Y13.773 E0.0096
G1 X15.444 Y13.658 E0.0042
G1 X16.247 Y13.169 E0.0200
G1 X16.542 Y13.039 E0.0068
G1 X17.517 Y12.754 E0.0216
G1 X17.680 Y12.718 E0.0035
G1 X18.706 Y12.565 E0.0220
G1 X18.929 Y12.552 E0.0047
G1 X20.115 Y12.592 E0.0252
G1 X20.216 Y12.600 E0.0022
G1 X21.298 Y12.728 E0.0231
G1 X21.425 Y12.749 E0.0027
G1 X22.618 Y13.018 E0.0259
G1 X22.683 Y13.035 E0.0014
G1 X23.895 Y13.379 E0.0267
G1 X23.988 Y13.409 E0.0021
G1 X25.278 Y13.890 E0.0292
G1 X25.332 Y13.912 E0.0012
G1 X26.534 Y14.426 E0.0277
G1 X26.605 Y14.459 E0.0016
G1 X28.145 Y15.237 E0.0366
G1 X28.176 Y15.253 E0.0008
G1 X29.687 Y16.072 E0.0365
G1 X29.729 Y16.096 E0.0010
G1 X33.700 Y18.456 E0.0980
G1 X33.739 Y18.480 E0.0010
G1 X37.109 Y20.658 E0.0851
G1 X37.131 Y20.673 E0.0006
G1 X38.770 Y21.784 E0.0420
G1 X38.794 Y21.800 E0.0006
G1 X40.073 Y22.712 E0.0333
G1 X40.103 Y22.710 E0.0006
G1 X40.761 Y23.202 E0.0174
G1 X41.648 Y23.835 E0.0231
G1 X41.651 Y23.869 E0.0007
G1 X43.304 Y25.108 E0.0438
G1 X43.329 Y25.127 E0.0007
G1 X45.168 Y26.581 E0.0497
G1 X45.184 Y26.594 E0.0004
G1 X47.541 Y28.522 E0.0646
G1 X47.564 Y28.540 E0.0006
G1 X50.073 Y30.695 E0.0702
G1 X50.085 Y30.706 E0.0003
G1 X52.625 Y32.946 E0.0719
G1 X52.644 Y32.963 E0.0005
G1 X55.034 Y35.159 E0.0689
G1 X55.053 Y35.159 E0.0004
G1 X55.726 Y35.794 E0.0196
G1 X56.462 Y36.471 E0.0212
G1 X56.463 Y36.491 E0.0004
G1 X58.716 Y38.621 E0.0658
G1 X58.729 Y38.634 E0.0004
G1 X60.974 Y40.821 E0.0665
G1 X60.983 Y40.829 E0.0003
G1 X63.759 Y43.586 E0.0830
G1 X63.772 Y43.599 E0.0004
G1 X66.699 Y46.594 E0.0889
G1 X66.708 Y46.605 E0.0003
G1 X69.650 Y49.685 E0.0904
G1 X69.672 Y49.685 E0.0005
G1 X70.334 Y50.401 E0.0207
G1 X70.988 Y51.087 E0.0201
G1 X70.988 Y51.109 E0.0005
G1 X75.489 Y55.975 E0.1406
G1 X75.505 Y55.993 E0.0005
G1 X81.271 Y62.480 E0.1841
G1 X81.287 Y62.499 E0.0005
G1 X86.290 Y68.368 E0.1636
G1 X86.317 Y68.370 E0.0006
G1 X86.974 Y69.170 E0.0220
G1 X87.542 Y69.837 E0.0186
G1 X87.541 Y69.862 E0.0005
G1 X89.883 Y72.716 E0.0783
G1 X89.891 Y72.726 E0.0003
G1 X92.733 Y76.265 E0.0963
G1 X92.747 Y76.283 E0.0005
G1 X96.691 Y81.388 E0.1369
G1 X96.700 Y81.399 E0.0003
G1 X99.561 Y85.197 E0.1009
G1 X99.574 Y85.198 E0.0003
G1 X100.218 Y86.069 E0.0230
G1 X100.731 Y86.750 E0.0181
G1 X100.730 Y86.762 E0.0003
G1 X108.251 Y96.935 E0.2684
G1 X108.259 Y96.946 E0.0003
G1 X113.703 Y104.485 E0.1973
G1 X113.718 Y104.486 E0.0003
G1 X114.336 Y105.363 E0.0228
G1 X114.841 Y106.061 E0.0183
G1 X114.839 Y106.076 E0.0003
G1 X117.537 Y109.901 E0.0993
G1 X117.540 Y109.906 E0.0001
G1 X125.750 Y121.674 E0.3044
G1 X125.755 Y121.681 E0.0002
G1 X128.134 Y125.142 E0.0891
G1 X128.144 Y125.157 E0.0004
G1 X130.586 Y128.823 E0.0935
G1 X130.599 Y128.843 E0.0005
G1 X133.078 Y132.725 E0.0977
G1 X133.094 Y132.751 E0.0006
G1 X134.819 Y135.607 E0.0708
G1 X134.833 Y135.630 E0.0006
G1 X136.118 Y137.866 E0.0547
G1 X136.131 Y137.888 E0.0006
G1 X137.050 Y139.570 E0.0406
G1 X137.100 Y139.671 E0.0024
G1 X137.390 Y140.343 E0.0155
G1 X137.469 Y140.596 E0.0056
G1 X137.832 Y142.454 E0.0402
G1 X135.526 Y144.308 E0.0628
G1 X133.794 Y143.557 E0.0401
G1 X133.525 Y143.397 E0.0066
G1 X132.959 Y142.954 E0.0152
G1 X132.859 Y142.867 E0.0028
G1 X130.670 Y140.732 E0.0649
G1 X130.656 Y140.718 E0.0004
G1 X105.298 Y115.201 E0.7632
G1 X104.537 Y114.435 E0.0229
G1 X103.925 Y113.818 E0.0184
G1 X95.843 Y105.668 E0.2435
G1 X95.838 Y105.663 E0.0002
G1 X88.707 Y98.392 E0.2161
G1 X88.070 Y97.740 E0.0193
G1 X87.346 Y96.998 E0.0220
G1 X79.484 Y88.944 E0.2388
G1 X73.876 Y83.272 E0.1692
G1 X62.600 Y71.870 E0.3402
G1 X61.902 Y71.159 E0.0211
G1 X61.195 Y70.439 E0.0214
G1 X56.406 Y65.563 E0.1450
G1 X55.693 Y64.836 E0.0216
G1 X55.040 Y64.171 E0.0198
G1 X42.043 Y50.933 E0.3936
G1 X41.387 Y50.261 E0.0199
G1 X40.683 Y49.538 E0.0214
G1 X34.199 Y42.889 E0.1970
G1 X28.595 Y37.280 E0.1682
G1 X27.625 Y36.306 E0.0292
G1 X27.220 Y35.900 E0.0122
G1 X25.014 Y33.686 E0.0663
G1 X24.991 Y33.663 E0.0007
G1 X21.109 Y29.553 E0.1199
G1 X21.090 Y29.533 E0.0006
G1 X18.881 Y27.089 E0.0699
G1 X18.852 Y27.055 E0.0010
G1 X17.309 Y25.217 E0.0509
G1 X17.281 Y25.183 E0.0009
G1 X15.646 Y23.083 E0.0565
G1 X15.612 Y23.038 E0.0012
G1 X15.010 Y22.186 E0.0221
G1 X14.981 Y22.143 E0.0011
G1 X14.442 Y21.307 E0.0211
G1 X14.373 Y21.185 E0.0030
G1 X13.967 Y20.360 E0.0195
G1 X13.916 Y20.242 E0.0027
G1 X13.595 Y19.371 E0.0197
G1 X13.532 Y19.114 E0.0056
G1 X13.407 Y18.207 E0.0194
G1 X13.395 Y18.024 E0.0039
G1 X13.408 Y17.096 E0.0197
G1 X13.458 Y16.763 E0.0071
G1 X13.721 Y15.876 E0.0196
G1 X13.812 Y15.652 E0.0051
G1 X14.249 Y14.824 E0.0199
G1 X14.476 Y14.519 E0.0081
G1 X14.794 Y14.796 F7800
G1 E0.1200 F1800
G1 X15.169 Y14.428 E0.0111 F1251
G1 X15.220 Y14.381 E0.0015
G1 X15.545 Y14.104 E0.0091
G1 X15.677 Y14.008 E0.0034
G1 X16.442 Y13.542 E0.0190
G1 X16.687 Y13.434 E0.0057
G1 X17.621 Y13.161 E0.0207
G1 X17.756 Y13.131 E0.0029
G1 X18.749 Y12.983 E0.0213
G1 X18.934 Y12.972 E0.0039
G1 X20.092 Y13.012 E0.0246
G1 X20.176 Y13.018 E0.0018
G1 X21.238 Y13.143 E0.0227
G1 X21.343 Y13.161 E0.0022
G1 X22.520 Y13.426 E0.0256
G1 X22.574 Y13.440 E0.0012
G1 X23.772 Y13.781 E0.0264
G1 X23.849 Y13.806 E0.0017
G1 X25.127 Y14.282 E0.0289
G1 X25.171 Y14.300 E0.0010
G1 X26.363 Y14.810 E0.0275
G1 X26.421 Y14.837 E0.0014
G1 X27.953 Y15.610 E0.0364
G1 X27.979 Y15.624 E0.0006
G1 X29.484 Y16.439 E0.0363
G1 X29.518 Y16.459 E0.0009
G1 X33.482 Y18.815 E0.0978
G1 X33.515 Y18.835 E0.0008
G1 X36.879 Y21.009 E0.0850
G1 X36.897 Y21.022 E0.0005
G1 X38.532 Y22.130 E0.0419
G1 X38.552 Y22.144 E0.0005
G1 X39.952 Y23.141 E0.0365
G1 X39.976 Y23.140 E0.0005
G1 X40.513 Y23.542 E0.0142
G1 X41.245 Y24.064 E0.0191
G1 X41.248 Y24.092 E0.0006
G1 X43.050 Y25.442 E0.0478
G1 X43.071 Y25.458 E0.0006
G1 X44.906 Y26.909 E0.0496
G1 X44.919 Y26.920 E0.0004
G1 X47.273 Y28.845 E0.0645
G1 X47.292 Y28.861 E0.0005
G1 X49.799 Y31.013 E0.0701
G1 X49.809 Y31.022 E0.0003
G1 X52.346 Y33.260 E0.0718
G1 X52.361 Y33.273 E0.0004
G1 X54.873 Y35.581 E0.0724
G1 X54.889 Y35.581 E0.0003
G1 X55.440 Y36.102 E0.0161
G1 X56.046 Y36.659 E0.0175
G1 X56.046 Y36.675 E0.0003
G1 X58.426 Y38.925 E0.0695
G1 X58.437 Y38.936 E0.0003
G1 X60.680 Y41.121 E0.0664
G1 X60.687 Y41.128 E0.0002
G1 X63.462 Y43.883 E0.0829
G1 X63.472 Y43.893 E0.0003
G1 X66.397 Y46.887 E0.0888
G1 X66.405 Y46.896 E0.0002
G1 X69.467 Y50.101 E0.0940
G1 X69.485 Y50.102 E0.0004
G1 X70.028 Y50.689 E0.0170
G1 X70.566 Y51.253 E0.0165
G1 X70.566 Y51.271 E0.0004
G1 X75.179 Y56.258 E0.1441
G1 X75.193 Y56.273 E0.0004
G1 X80.955 Y62.757 E0.1840
G1 X80.969 Y62.773 E0.0004
G1 X86.088 Y68.778 E0.1674
G1 X86.110 Y68.780 E0.0005
G1 X86.652 Y69.439 E0.0181
G1 X87.116 Y69.984 E0.0152
G1 X87.115 Y70.004 E0.0004
G1 X89.558 Y72.982 E0.0817
G1 X89.564 Y72.990 E0.0002
G1 X92.404 Y76.526 E0.0962
G1 X92.416 Y76.541 E0.0004
G1 X96.358 Y81.643 E0.1368
G1 X96.365 Y81.653 E0.0003
G1 X99.340 Y85.602 E0.1049
G1 X99.351 Y85.603 E0.0002
G1 X99.882 Y86.320 E0.0189
G1 X100.301 Y86.878 E0.0148
G1 X100.301 Y86.887 E0.0002
G1 X107.913 Y97.184 E0.2717
G1 X107.920 Y97.193 E0.0002
G1 X113.475 Y104.887 E0.2013
G1 X113.488 Y104.888 E0.0003
G1 X113.994 Y105.607 E0.0187
G1 X114.409 Y106.181 E0.0150
G1 X114.408 Y106.194 E0.0003
G1 X117.193 Y110.142 E0.1025
G1 X117.196 Y110.147 E0.0001
G1 X125.405 Y121.913 E0.3044
G1 X125.409 Y121.919 E0.0001
G1 X127.787 Y125.379 E0.0891
G1 X127.796 Y125.391 E0.0003
G1 X130.235 Y129.055 E0.0934
G1 X130.246 Y129.071 E0.0004
G1 X132.722 Y132.949 E0.0976
G1 X132.736 Y132.970 E0.0005
G1 X134.459 Y135.823 E0.0707
G1 X134.470 Y135.842 E0.0005
G1 X135.753 Y138.073 E0.0546
G1 X135.763 Y138.092 E0.0005
G1 X136.677 Y139.763 E0.0404
G1 X136.718 Y139.847 E0.0020
G1 X136.996 Y140.489 E0.0149
G1 X137.061 Y140.698 E0.0046
G1 X137.371 Y142.286 E0.0343
G1 X135.460 Y143.822 E0.0520
G1 X133.985 Y143.182 E0.0341
G1 X133.763 Y143.050 E0.0055
G1 X133.227 Y142.631 E0.0144
G1 X133.144 Y142.558 E0.0023
G1 X130.964 Y140.433 E0.0646
G1 X130.953 Y140.421 E0.0003
G1 X105.473 Y114.781 E0.7669
G1 X104.836 Y114.139 E0.0192
G1 X104.346 Y113.645 E0.0148
G1 X96.141 Y105.373 E0.2472
G1 X96.137 Y105.369 E0.0001
G1 X88.885 Y97.973 E0.2198
G1 X88.371 Y97.446 E0.0156
G1 X87.767 Y96.828 E0.0184
G1 X79.783 Y88.649 E0.2425
G1 X74.051 Y82.852 E0.1729
G1 X62.778 Y71.451 E0.3402
G1 X62.202 Y70.865 E0.0174
G1 X61.615 Y70.267 E0.0178
G1 X56.583 Y65.143 E0.1524
G1 X55.993 Y64.542 E0.0179
G1 X55.460 Y63.999 E0.0161
G1 X42.222 Y50.514 E0.4009
G1 X41.687 Y49.966 E0.0162
G1 X41.104 Y49.369 E0.0177
G1 X34.497 Y42.594 E0.2008
G1 X28.770 Y36.860 E0.1720
G1 X27.922 Y36.010 E0.0255
G1 X27.640 Y35.727 E0.0085
G1 X25.313 Y33.392 E0.0699
G1 X25.294 Y33.372 E0.0006
G1 X21.416 Y29.266 E0.1198
G1 X21.400 Y29.250 E0.0005
G1 X19.195 Y26.810 E0.0698
G1 X19.171 Y26.782 E0.0008
G1 X17.634 Y24.950 E0.0507
G1 X17.610 Y24.922 E0.0008
G1 X15.980 Y22.829 E0.0563
G1 X15.952 Y22.791 E0.0010
G1 X15.356 Y21.947 E0.0219
G1 X15.331 Y21.911 E0.0009
G1 X14.802 Y21.090 E0.0207
G1 X14.744 Y20.988 E0.0025
G1 X14.348 Y20.185 E0.0190
G1 X14.306 Y20.086 E0.0023
G1 X13.998 Y19.247 E0.0190
G1 X13.945 Y19.035 E0.0046
G1 X13.825 Y18.166 E0.0186
G1 X13.815 Y18.013 E0.0032
G1 X13.827 Y17.131 E0.0187
G1 X13.869 Y16.855 E0.0059
G1 X14.118 Y16.015 E0.0186
G1 X14.194 Y15.829 E0.0043
G1 X14.606 Y15.049 E0.0187
G1 X14.794 Y14.796 E0.0067
G1 X15.111 Y15.073 F7800
G1 E0.1200 F1800
G1 X15.458 Y14.733 E0.0103 F1251
G1 X15.498 Y14.696 E0.0012
G1 X15.805 Y14.434 E0.0086
G1 X15.910 Y14.358 E0.0027
G1 X16.637 Y13.915 E0.0181
G1 X16.831 Y13.829 E0.0045
G1 X17.726 Y13.568 E0.0198
G1 X17.832 Y13.544 E0.0023
G1 X18.792 Y13.401 E0.0206
G1 X18.939 Y13.393 E0.0031
G1 X20.069 Y13.431 E0.0240
G1 X20.136 Y13.436 E0.0014
G1 X21.178 Y13.559 E0.0223
G1 X21.261 Y13.573 E0.0018
G1 X22.422 Y13.835 E0.0252
G1 X22.465 Y13.846 E0.0009
G1 X23.649 Y14.182 E0.0261
G1 X23.710 Y14.202 E0.0014
G1 X24.975 Y14.674 E0.0286
