; G-Code generated by Simplify3D(R) Version 4.1.2
; Sep 24, 2022 at 2:37:28 PM
; Settings Summary
;   processName,PProp
;   applyToModels,Wing-R3
;   profileName,PProp - LW-PLA
;   profileVersion,2022-05-27 11:45:37
;   baseProfile,Default
;   printMaterial,
;   printQuality,
;   printExtruders,
;   extruderName,Primary Extruder
;   extruderToolheadNumber,0
;   extruderDiameter,0.4
;   extruderAutoWidth,0
;   extruderWidth,0.42
;   extrusionMultiplier,0.45
;   extruderUseRetract,1
;   extruderRetractionDistance,0
;   extruderExtraRestartDistance,0.12
;   extruderRetractionZLift,0
;   extruderRetractionSpeed,1800
;   extruderUseCoasting,1
;   extruderCoastingDistance,0.2
;   extruderUseWipe,1
;   extruderWipeDistance,2
;   primaryExtruder,0
;   layerHeight,0.3
;   topSolidLayers,0
;   bottomSolidLayers,0
;   perimeterOutlines,1
;   printPerimetersInsideOut,1
;   startPointOption,2
;   startPointOriginX,0
;   startPointOriginY,-100
;   sequentialIslands,0
;   spiralVaseMode,1
;   firstLayerHeightPercentage,90
;   firstLayerWidthPercentage,100
;   firstLayerUnderspeed,0.5
;   useRaft,0
;   raftExtruder,0
;   raftTopLayers,3
;   raftBaseLayers,2
;   raftOffset,3
;   raftSeparationDistance,0.14
;   raftTopInfill,100
;   aboveRaftSpeedMultiplier,0.3
;   useSkirt,1
;   skirtExtruder,0
;   skirtLayers,1
;   skirtOutlines,3
;   skirtOffset,1.4
;   usePrimePillar,0
;   primePillarExtruder,999
;   primePillarWidth,12
;   primePillarLocation,7
;   primePillarSpeedMultiplier,1
;   useOozeShield,0
;   oozeShieldExtruder,999
;   oozeShieldOffset,2
;   oozeShieldOutlines,1
;   oozeShieldSidewallShape,1
;   oozeShieldSidewallAngle,30
;   oozeShieldSpeedMultiplier,1
;   infillExtruder,0
;   internalInfillPattern,Rectilinear
;   externalInfillPattern,Rectilinear
;   infillPercentage,0
;   outlineOverlapPercentage,15
;   infillExtrusionWidthPercentage,100
;   minInfillLength,5
;   infillLayerInterval,1
;   internalInfillAngles,45,-45
;   overlapInternalInfillAngles,0
;   externalInfillAngles,45,-45
;   generateSupport,0
;   supportExtruder,0
;   supportInfillPercentage,30
;   supportExtraInflation,0
;   supportBaseLayers,0
;   denseSupportExtruder,0
;   denseSupportLayers,0
;   denseSupportInfillPercentage,70
;   supportLayerInterval,1
;   supportHorizontalPartOffset,0.3
;   supportUpperSeparationLayers,1
;   supportLowerSeparationLayers,1
;   supportType,0
;   supportGridSpacing,4
;   maxOverhangAngle,45
;   supportAngles,0
;   temperatureName,Primary Extruder,Heated Bed
;   temperatureNumber,0,1
;   temperatureSetpointCount,1,1
;   temperatureSetpointLayers,1,1
;   temperatureSetpointTemperatures,250,55
;   temperatureStabilizeAtStartup,1,1
;   temperatureHeatedBed,0,1
;   fanLayers,1
;   fanSpeeds,100
;   blipFanToFullPower,1
;   adjustSpeedForCooling,0
;   minSpeedLayerTime,15
;   minCoolingSpeedSlowdown,80
;   increaseFanForCooling,0
;   minFanLayerTime,20
;   maxCoolingFanSpeed,100
;   increaseFanForBridging,0
;   bridgingFanSpeed,100
;   use5D,1
;   relativeEdistances,1
;   allowEaxisZeroing,1
;   independentExtruderAxes,0
;   includeM10123,0
;   stickySupport,1
;   applyToolheadOffsets,0
;   gcodeXoffset,0
;   gcodeYoffset,0
;   gcodeZoffset,0
;   overrideMachineDefinition,1
;   machineTypeOverride,0
;   strokeXoverride,200
;   strokeYoverride,200
;   strokeZoverride,200
;   originOffsetXoverride,0
;   originOffsetYoverride,0
;   originOffsetZoverride,0
;   homeXdirOverride,-1
;   homeYdirOverride,-1
;   homeZdirOverride,-1
;   flipXoverride,1
;   flipYoverride,-1
;   flipZoverride,1
;   toolheadOffsets,0,0|0,0|0,0|0,0|0,0|0,0
;   overrideFirmwareConfiguration,1
;   firmwareTypeOverride,RepRap (Marlin/Repetier/Sprinter)
;   GPXconfigOverride,r2
;   baudRateOverride,115200
;   overridePrinterModels,0
;   printerModelsOverride
;   startingGcode,G28,G92 E0.0
;   layerChangeGcode,
;   retractionGcode,
;   toolChangeGcode,
;   endingGcode,M104 S0 ; turn off extruder,M140 S0 ; turn off bed,G28 X0 ; home X axis,M84 ; disable motors,M107 ; turn off fan
;   exportFileFormat,gcode
;   celebration,0
;   celebrationSong,Take On Me
;   postProcessing,
;   defaultSpeed,2502
;   outlineUnderspeed,0.9
;   solidInfillUnderspeed,0.8
;   supportUnderspeed,0.8
;   rapidXYspeed,7800
;   rapidZspeed,1002
;   minBridgingArea,5
;   bridgingExtraInflation,0
;   bridgingExtrusionMultiplier,1
;   bridgingSpeedMultiplier,0.3
;   useFixedBridgingAngle,0
;   fixedBridgingAngle,0
;   applyBridgingToPerimeters,0
;   filamentDiameters,1.75|1.75|1.75|1.75|1.75|1.75
;   filamentPricesPerKg,1000|1000|1000|1000|1000|1000
;   filamentDensities,1.25|1.25|1.25|1.25|1.25|1.25
;   useMinPrintHeight,0
;   minPrintHeight,0.3
;   useMaxPrintHeight,0
;   maxPrintHeight,15
;   useDiaphragm,0
;   diaphragmLayerInterval,20
;   robustSlicing,1
;   mergeAllIntoSolid,0
;   onlyRetractWhenCrossingOutline,0
;   retractBetweenLayers,0
;   useRetractionMinTravel,0
;   retractionMinTravel,3
;   retractWhileWiping,0
;   onlyWipeOutlines,1
;   avoidCrossingOutline,1
;   maxMovementDetourFactor,3
;   toolChangeRetractionDistance,0
;   toolChangeExtraRestartDistance,0
;   toolChangeRetractionSpeed,360
;   externalThinWallType,0
;   internalThinWallType,2
;   thinWallAllowedOverlapPercentage,10
;   singleExtrusionMinLength,1
;   singleExtrusionMinPrintingWidthPercentage,50
;   singleExtrusionMaxPrintingWidthPercentage,200
;   singleExtrusionEndpointExtension,0.2
;   horizontalSizeCompensation,0
G90
M83
M106 S255
M140 S55
M190 S55
M104 S250 T0
M109 S250 T0
G28
G92 E0.0
; process PProp
; layer 1, Z = 0.270
T0
; feature skirt
; tool H0.270 W0.420
G1 Z0.270 F1002
G1 X14.929 Y15.995 F7800
G1 E0.1200 F1800
G1 X15.178 Y15.819 E0.0065 F1251
G1 X15.962 Y15.398 E0.0189
G1 X16.223 Y15.295 E0.0059
G1 X16.746 Y15.154 E0.0115
G1 X16.855 Y15.130 E0.0024
G1 X17.436 Y15.029 E0.0125
G1 X17.570 Y15.013 E0.0028
G1 X18.364 Y14.963 E0.0169
G1 X18.566 Y14.967 E0.0043
G1 X19.764 Y15.090 E0.0256
G1 X19.895 Y15.110 E0.0028
G1 X21.074 Y15.362 E0.0256
G1 X21.187 Y15.392 E0.0025
G1 X22.480 Y15.800 E0.0288
G1 X22.549 Y15.824 E0.0016
G1 X23.451 Y16.170 E0.0205
G1 X23.508 Y16.193 E0.0013
G1 X24.308 Y16.547 E0.0186
G1 X24.356 Y16.570 E0.0011
G1 X25.565 Y17.169 E0.0286
G1 X25.628 Y17.203 E0.0015
G1 X27.160 Y18.077 E0.0374
G1 X27.188 Y18.094 E0.0007
G1 X28.404 Y18.832 E0.0302
G1 X28.441 Y18.855 E0.0009
G1 X32.119 Y21.270 E0.0934
G1 X32.158 Y21.297 E0.0010
G1 X36.284 Y24.239 E0.1075
G1 X36.322 Y24.267 E0.0010
G1 X38.761 Y26.151 E0.0654
G1 X38.778 Y26.165 E0.0005
G1 X40.436 Y27.493 E0.0451
G1 X40.461 Y27.514 E0.0007
G1 X42.605 Y29.327 E0.0596
G1 X42.620 Y29.340 E0.0004
G1 X44.563 Y31.037 E0.0547
G1 X44.583 Y31.054 E0.0005
G1 X46.476 Y32.779 E0.0543
G1 X46.495 Y32.779 E0.0004
G1 X47.148 Y33.390 E0.0190
G1 X47.910 Y34.085 E0.0219
G1 X47.910 Y34.105 E0.0004
G1 X49.574 Y35.665 E0.0484
G1 X49.594 Y35.684 E0.0006
G1 X54.454 Y40.452 E0.1444
G1 X54.477 Y40.475 E0.0007
G1 X59.849 Y46.028 E0.1639
G1 X59.869 Y46.048 E0.0006
G1 X65.085 Y51.693 E0.1631
G1 X65.102 Y51.712 E0.0005
G1 X70.822 Y58.163 E0.1829
G1 X70.835 Y58.176 E0.0004
G1 X73.254 Y60.988 E0.0787
G1 X73.259 Y60.995 E0.0002
G1 X76.006 Y64.234 E0.0901
G1 X76.015 Y64.244 E0.0003
G1 X77.577 Y66.129 E0.0519
G1 X77.588 Y66.130 E0.0002
G1 X78.238 Y66.926 E0.0218
G1 X78.818 Y67.625 E0.0193
G1 X78.817 Y67.636 E0.0002
G1 X81.306 Y70.684 E0.0835
G1 X81.320 Y70.702 E0.0005
G1 X86.505 Y77.300 E0.1780
G1 X86.522 Y77.323 E0.0006
G1 X91.591 Y84.099 E0.1795
G1 X91.602 Y84.114 E0.0004
G1 X97.746 Y92.597 E0.2222
G1 X97.757 Y92.598 E0.0002
G1 X98.368 Y93.455 E0.0223
G1 X98.895 Y94.183 E0.0191
G1 X98.894 Y94.193 E0.0002
G1 X104.980 Y102.734 E0.2225
G1 X104.805 Y104.555 E0.0388
G1 X97.663 Y111.350 E0.2091
G1 X95.628 Y111.295 E0.0432
G1 X88.403 Y103.633 E0.2234
G1 X88.396 Y103.632 E0.0002
G1 X87.735 Y102.924 E0.0205
G1 X87.060 Y102.208 E0.0209
G1 X87.060 Y102.200 E0.0002
G1 X74.335 Y88.550 E0.3959
G1 X65.956 Y79.670 E0.2590
G1 X65.248 Y78.916 E0.0220
G1 X64.622 Y78.249 E0.0194
G1 X49.299 Y61.926 E0.4750
G1 X48.608 Y61.185 E0.0215
G1 X47.930 Y60.458 E0.0211
G1 X34.226 Y45.778 E0.4261
G1 X30.706 Y42.022 E0.1092
G1 X23.473 Y34.411 E0.2228
G1 X23.448 Y34.385 E0.0008
G1 X19.553 Y30.038 E0.1238
G1 X19.535 Y30.018 E0.0006
G1 X18.294 Y28.570 E0.0405
G1 X18.274 Y28.546 E0.0007
G1 X17.119 Y27.127 E0.0388
G1 X17.101 Y27.104 E0.0006
G1 X15.985 Y25.663 E0.0387
G1 X15.958 Y25.627 E0.0010
G1 X14.751 Y23.945 E0.0439
G1 X14.709 Y23.883 E0.0016
G1 X14.212 Y23.091 E0.0198
G1 X14.157 Y22.995 E0.0024
G1 X13.827 Y22.346 E0.0155
G1 X13.778 Y22.236 E0.0026
G1 X13.431 Y21.348 E0.0202
G1 X13.364 Y21.107 E0.0053
G1 X13.213 Y20.217 E0.0191
G1 X13.195 Y20.021 E0.0042
G1 X13.190 Y19.249 E0.0164
G1 X13.225 Y18.948 E0.0064
G1 X13.443 Y18.052 E0.0196
G1 X13.529 Y17.813 E0.0054
G1 X13.719 Y17.416 E0.0093
G1 X13.766 Y17.327 E0.0021
G1 X14.007 Y16.914 E0.0101
G1 X14.239 Y16.627 E0.0078
G1 X14.929 Y15.995 E0.0198
G1 X15.193 Y16.323 F7800
G1 E0.1200 F1800
G1 X15.400 Y16.176 E0.0054 F1251
G1 X16.140 Y15.780 E0.0178
G1 X16.355 Y15.695 E0.0049
G1 X16.846 Y15.562 E0.0108
G1 X16.937 Y15.542 E0.0020
G1 X17.497 Y15.444 E0.0121
G1 X17.608 Y15.431 E0.0024
G1 X18.373 Y15.383 E0.0163
G1 X18.540 Y15.386 E0.0036
G1 X19.710 Y15.506 E0.0249
G1 X19.818 Y15.524 E0.0023
G1 X20.977 Y15.771 E0.0251
G1 X21.070 Y15.796 E0.0021
G1 X22.347 Y16.199 E0.0284
G1 X22.405 Y16.219 E0.0013
G1 X23.295 Y16.560 E0.0202
G1 X23.343 Y16.580 E0.0011
G1 X24.134 Y16.929 E0.0183
G1 X24.174 Y16.948 E0.0009
G1 X25.373 Y17.543 E0.0284
G1 X25.425 Y17.571 E0.0013
G1 X26.949 Y18.440 E0.0372
G1 X26.972 Y18.454 E0.0006
G1 X28.183 Y19.189 E0.0300
G1 X28.214 Y19.208 E0.0008
G1 X31.885 Y21.619 E0.0932
G1 X31.917 Y21.641 E0.0008
G1 X36.037 Y24.579 E0.1073
G1 X36.068 Y24.602 E0.0008
G1 X38.503 Y26.482 E0.0653
G1 X38.517 Y26.494 E0.0004
G1 X40.171 Y27.819 E0.0450
G1 X40.192 Y27.836 E0.0006
G1 X42.333 Y29.646 E0.0595
G1 X42.345 Y29.657 E0.0003
G1 X44.285 Y31.352 E0.0547
G1 X44.301 Y31.366 E0.0005
G1 X46.314 Y33.199 E0.0578
G1 X46.329 Y33.199 E0.0003
G1 X46.863 Y33.699 E0.0155
G1 X47.492 Y34.272 E0.0180
G1 X47.492 Y34.289 E0.0004
G1 X49.285 Y35.970 E0.0522
G1 X49.302 Y35.986 E0.0005
G1 X54.158 Y40.750 E0.1443
G1 X54.177 Y40.769 E0.0006
G1 X59.546 Y46.318 E0.1638
G1 X59.562 Y46.335 E0.0005
G1 X64.775 Y51.977 E0.1630
G1 X64.789 Y51.992 E0.0004
G1 X70.507 Y58.440 E0.1828
G1 X70.517 Y58.451 E0.0003
G1 X72.934 Y61.261 E0.0786
G1 X72.939 Y61.267 E0.0002
G1 X75.685 Y64.505 E0.0901
G1 X75.692 Y64.513 E0.0002
G1 X77.369 Y66.537 E0.0558
G1 X77.378 Y66.537 E0.0002
G1 X77.914 Y67.193 E0.0180
G1 X78.389 Y67.766 E0.0158
G1 X78.388 Y67.774 E0.0002
G1 X80.979 Y70.948 E0.0869
G1 X80.991 Y70.963 E0.0004
G1 X86.173 Y77.557 E0.1779
G1 X86.188 Y77.577 E0.0005
G1 X91.253 Y84.350 E0.1794
G1 X91.263 Y84.362 E0.0003
G1 X97.517 Y92.996 E0.2262
G1 X97.526 Y92.997 E0.0002
G1 X98.026 Y93.699 E0.0183
G1 X98.462 Y94.300 E0.0157
G1 X98.461 Y94.309 E0.0002
G1 X104.547 Y102.850 E0.2225
G1 X104.402 Y104.359 E0.0322
G1 X97.500 Y110.925 E0.2021
G1 X95.814 Y110.879 E0.0358
G1 X88.591 Y103.219 E0.2234
G1 X88.585 Y103.219 E0.0001
G1 X88.042 Y102.637 E0.0169
G1 X87.486 Y102.047 E0.0172
G1 X87.486 Y102.041 E0.0001
G1 X74.641 Y88.261 E0.3997
G1 X66.143 Y79.256 E0.2627
G1 X65.554 Y78.628 E0.0182
G1 X65.047 Y78.088 E0.0157
G1 X49.488 Y61.512 E0.4824
G1 X48.915 Y60.898 E0.0178
G1 X48.355 Y60.299 E0.0174
G1 X34.533 Y45.491 E0.4298
G1 X31.013 Y41.734 E0.1092
G1 X23.779 Y34.124 E0.2228
G1 X23.759 Y34.102 E0.0006
G1 X19.867 Y29.759 E0.1237
G1 X19.852 Y29.743 E0.0005
G1 X18.614 Y28.298 E0.0404
G1 X18.598 Y28.278 E0.0005
G1 X17.446 Y26.864 E0.0387
G1 X17.431 Y26.845 E0.0005
G1 X16.319 Y25.409 E0.0385
G1 X16.297 Y25.379 E0.0008
G1 X15.096 Y23.705 E0.0437
G1 X15.062 Y23.654 E0.0013
G1 X14.573 Y22.876 E0.0195
G1 X14.527 Y22.796 E0.0020
G1 X14.206 Y22.165 E0.0150
G1 X14.165 Y22.074 E0.0021
G1 X13.830 Y21.215 E0.0196
G1 X13.774 Y21.015 E0.0044
G1 X13.629 Y20.164 E0.0183
G1 X13.615 Y20.001 E0.0035
G1 X13.610 Y19.272 E0.0155
G1 X13.639 Y19.023 E0.0053
G1 X13.846 Y18.173 E0.0186
G1 X13.917 Y17.975 E0.0045
G1 X14.094 Y17.605 E0.0087
G1 X14.133 Y17.531 E0.0018
G1 X14.354 Y17.153 E0.0093
G1 X14.546 Y16.915 E0.0065
G1 X15.193 Y16.323 E0.0186
G1 X15.457 Y16.651 F7800
G1 E0.1200 F1800
G1 X15.621 Y16.534 E0.0043 F1251
G1 X16.317 Y16.162 E0.0167
G1 X16.488 Y16.094 E0.0039
G1 X16.947 Y15.970 E0.0101
G1 X17.018 Y15.954 E0.0016
G1 X17.558 Y15.860 E0.0116
G1 X17.646 Y15.850 E0.0019
G1 X18.382 Y15.803 E0.0156
G1 X18.515 Y15.806 E0.0028
G1 X19.656 Y15.923 E0.0243
G1 X19.742 Y15.937 E0.0018
G1 X20.879 Y16.180 E0.0247
G1 X20.953 Y16.199 E0.0016
G1 X22.215 Y16.597 E0.0281
G1 X22.260 Y16.613 E0.0010
G1 X23.140 Y16.950 E0.0200
G1 X23.178 Y16.966 E0.0009
G1 X23.960 Y17.312 E0.0181
G1 X23.992 Y17.327 E0.0008
G1 X25.181 Y17.916 E0.0282
G1 X25.222 Y17.938 E0.0010
G1 X26.738 Y18.804 E0.0370
G1 X26.757 Y18.814 E0.0005
G1 X27.962 Y19.546 E0.0299
G1 X27.986 Y19.561 E0.0006
G1 X31.651 Y21.968 E0.0930
G1 X31.677 Y21.985 E0.0007
G1 X35.790 Y24.919 E0.1072
G1 X35.814 Y24.937 E0.0007
G1 X38.244 Y26.814 E0.0651
G1 X38.256 Y26.823 E0.0003
G1 X39.906 Y28.145 E0.0449
G1 X39.923 Y28.159 E0.0005
G1 X42.060 Y29.966 E0.0594
G1 X42.070 Y29.974 E0.0003
G1 X44.008 Y31.666 E0.0546
G1 X44.020 Y31.678 E0.0004
G1 X46.152 Y33.620 E0.0612
G1 X46.164 Y33.619 E0.0003
G1 X46.578 Y34.007 E0.0120
G1 X47.073 Y34.459 E0.0142
G1 X47.074 Y34.472 E0.0003
G1 X48.996 Y36.274 E0.0559
G1 X49.010 Y36.287 E0.0004
G1 X53.862 Y41.048 E0.1442
G1 X53.877 Y41.063 E0.0004
G1 X59.242 Y46.608 E0.1637
G1 X59.255 Y46.622 E0.0004
G1 X64.465 Y52.260 E0.1629
G1 X64.476 Y52.273 E0.0004
G1 X70.192 Y58.717 E0.1828
G1 X70.200 Y58.727 E0.0003
G1 X72.615 Y61.534 E0.0786
G1 X72.619 Y61.539 E0.0001
G1 X75.364 Y64.776 E0.0900
G1 X75.370 Y64.782 E0.0002
G1 X77.162 Y66.944 E0.0596
G1 X77.169 Y66.944 E0.0001
G1 X77.590 Y67.461 E0.0141
G1 X77.960 Y67.907 E0.0123
G1 X77.959 Y67.913 E0.0001
G1 X80.653 Y71.212 E0.0904
G1 X80.662 Y71.224 E0.0003
G1 X85.841 Y77.815 E0.1778
G1 X85.853 Y77.830 E0.0004
G1 X90.916 Y84.600 E0.1794
G1 X90.923 Y84.610 E0.0003
G1 X97.287 Y93.394 E0.2301
G1 X97.294 Y93.395 E0.0001
G1 X97.685 Y93.944 E0.0143
G1 X98.028 Y94.418 E0.0124
G1 X98.027 Y94.424 E0.0001
G1 X104.114 Y102.966 E0.2225
G1 X103.999 Y104.163 E0.0255
G1 X97.337 Y110.501 E0.1951
G1 X95.999 Y110.464 E0.0284
G1 X88.779 Y102.806 E0.2233
G1 X88.774 Y102.806 E0.0001
G1 X88.348 Y102.349 E0.0132
G1 X87.911 Y101.886 E0.0135
G1 X87.912 Y101.881 E0.0001
G1 X74.946 Y87.973 E0.4034
G1 X66.330 Y78.841 E0.2664
G1 X65.860 Y78.340 E0.0146
G1 X65.472 Y77.927 E0.0120
G1 X49.676 Y61.098 E0.4897
G1 X49.222 Y60.611 E0.0141
G1 X48.781 Y60.139 E0.0137
G1 X34.840 Y45.204 E0.4334
G1 X31.319 Y41.447 E0.1092
G1 X24.086 Y33.837 E0.2228
G1 X24.070 Y33.819 E0.0005
G1 X20.181 Y29.481 E0.1236
G1 X20.170 Y29.467 E0.0004
G1 X18.935 Y28.027 E0.0403
G1 X18.922 Y28.011 E0.0004
G1 X17.774 Y26.601 E0.0386
G1 X17.762 Y26.586 E0.0004
G1 X16.654 Y25.155 E0.0384
G1 X16.636 Y25.131 E0.0006
G1 X15.441 Y23.466 E0.0435
G1 X15.414 Y23.425 E0.0010
G1 X14.933 Y22.660 E0.0192
G1 X14.897 Y22.597 E0.0015
G1 X14.585 Y21.983 E0.0146
G1 X14.553 Y21.911 E0.0017
G1 X14.229 Y21.082 E0.0189
G1 X14.185 Y20.924 E0.0035
G1 X14.046 Y20.110 E0.0175
G1 X14.035 Y19.981 E0.0028
G1 X14.030 Y19.294 E0.0146
G1 X14.053 Y19.097 E0.0042
G1 X14.249 Y18.294 E0.0175
G1 X14.305 Y18.137 E0.0035
G1 X14.469 Y17.794 E0.0081
G1 X14.500 Y17.736 E0.0014
G1 X14.701 Y17.392 E0.0084
G1 X14.853 Y17.204 E0.0051
G1 X15.457 Y16.651 E0.0174
