; G-Code generated by Simplify3D(R) Version 4.1.2
; Sep 24, 2022 at 2:35:50 PM
; Settings Summary
;   processName,PProp
;   applyToModels,Wing-L3
;   profileName,PProp - LW-PLA
;   profileVersion,2022-05-27 11:45:37
;   baseProfile,Default
;   printMaterial,
;   printQuality,
;   printExtruders,
;   extruderName,Primary Extruder
;   extruderToolheadNumber,0
;   extruderDiameter,0.4
;   extruderAutoWidth,0
;   extruderWidth,0.42
;   extrusionMultiplier,0.45
;   extruderUseRetract,1
;   extruderRetractionDistance,0
;   extruderExtraRestartDistance,0.12
;   extruderRetractionZLift,0
;   extruderRetractionSpeed,1800
;   extruderUseCoasting,1
;   extruderCoastingDistance,0.2
;   extruderUseWipe,1
;   extruderWipeDistance,2
;   primaryExtruder,0
;   layerHeight,0.3
;   topSolidLayers,0
;   bottomSolidLayers,0
;   perimeterOutlines,1
;   printPerimetersInsideOut,1
;   startPointOption,2
;   startPointOriginX,0
;   startPointOriginY,-100
;   sequentialIslands,0
;   spiralVaseMode,1
;   firstLayerHeightPercentage,90
;   firstLayerWidthPercentage,100
;   firstLayerUnderspeed,0.5
;   useRaft,0
;   raftExtruder,0
;   raftTopLayers,3
;   raftBaseLayers,2
;   raftOffset,3
;   raftSeparationDistance,0.14
;   raftTopInfill,100
;   aboveRaftSpeedMultiplier,0.3
;   useSkirt,1
;   skirtExtruder,0
;   skirtLayers,1
;   skirtOutlines,3
;   skirtOffset,1.4
;   usePrimePillar,0
;   primePillarExtruder,999
;   primePillarWidth,12
;   primePillarLocation,7
;   primePillarSpeedMultiplier,1
;   useOozeShield,0
;   oozeShieldExtruder,999
;   oozeShieldOffset,2
;   oozeShieldOutlines,1
;   oozeShieldSidewallShape,1
;   oozeShieldSidewallAngle,30
;   oozeShieldSpeedMultiplier,1
;   infillExtruder,0
;   internalInfillPattern,Rectilinear
;   externalInfillPattern,Rectilinear
;   infillPercentage,0
;   outlineOverlapPercentage,15
;   infillExtrusionWidthPercentage,100
;   minInfillLength,5
;   infillLayerInterval,1
;   internalInfillAngles,45,-45
;   overlapInternalInfillAngles,0
;   externalInfillAngles,45,-45
;   generateSupport,0
;   supportExtruder,0
;   supportInfillPercentage,30
;   supportExtraInflation,0
;   supportBaseLayers,0
;   denseSupportExtruder,0
;   denseSupportLayers,0
;   denseSupportInfillPercentage,70
;   supportLayerInterval,1
;   supportHorizontalPartOffset,0.3
;   supportUpperSeparationLayers,1
;   supportLowerSeparationLayers,1
;   supportType,0
;   supportGridSpacing,4
;   maxOverhangAngle,45
;   supportAngles,0
;   temperatureName,Primary Extruder,Heated Bed
;   temperatureNumber,0,1
;   temperatureSetpointCount,1,1
;   temperatureSetpointLayers,1,1
;   temperatureSetpointTemperatures,250,55
;   temperatureStabilizeAtStartup,1,1
;   temperatureHeatedBed,0,1
;   fanLayers,1
;   fanSpeeds,100
;   blipFanToFullPower,1
;   adjustSpeedForCooling,0
;   minSpeedLayerTime,15
;   minCoolingSpeedSlowdown,80
;   increaseFanForCooling,0
;   minFanLayerTime,20
;   maxCoolingFanSpeed,100
;   increaseFanForBridging,0
;   bridgingFanSpeed,100
;   use5D,1
;   relativeEdistances,1
;   allowEaxisZeroing,1
;   independentExtruderAxes,0
;   includeM10123,0
;   stickySupport,1
;   applyToolheadOffsets,0
;   gcodeXoffset,0
;   gcodeYoffset,0
;   gcodeZoffset,0
;   overrideMachineDefinition,1
;   machineTypeOverride,0
;   strokeXoverride,200
;   strokeYoverride,200
;   strokeZoverride,200
;   originOffsetXoverride,0
;   originOffsetYoverride,0
;   originOffsetZoverride,0
;   homeXdirOverride,-1
;   homeYdirOverride,-1
;   homeZdirOverride,-1
;   flipXoverride,1
;   flipYoverride,-1
;   flipZoverride,1
;   toolheadOffsets,0,0|0,0|0,0|0,0|0,0|0,0
;   overrideFirmwareConfiguration,1
;   firmwareTypeOverride,RepRap (Marlin/Repetier/Sprinter)
;   GPXconfigOverride,r2
;   baudRateOverride,115200
;   overridePrinterModels,0
;   printerModelsOverride
;   startingGcode,G28,G92 E0.0
;   layerChangeGcode,
;   retractionGcode,
;   toolChangeGcode,
;   endingGcode,M104 S0 ; turn off extruder,M140 S0 ; turn off bed,G28 X0 ; home X axis,M84 ; disable motors,M107 ; turn off fan
;   exportFileFormat,gcode
;   celebration,0
;   celebrationSong,Take On Me
;   postProcessing,
;   defaultSpeed,2502
;   outlineUnderspeed,0.9
;   solidInfillUnderspeed,0.8
;   supportUnderspeed,0.8
;   rapidXYspeed,7800
;   rapidZspeed,1002
;   minBridgingArea,5
;   bridgingExtraInflation,0
;   bridgingExtrusionMultiplier,1
;   bridgingSpeedMultiplier,0.3
;   useFixedBridgingAngle,0
;   fixedBridgingAngle,0
;   applyBridgingToPerimeters,0
;   filamentDiameters,1.75|1.75|1.75|1.75|1.75|1.75
;   filamentPricesPerKg,1000|1000|1000|1000|1000|1000
;   filamentDensities,1.25|1.25|1.25|1.25|1.25|1.25
;   useMinPrintHeight,0
;   minPrintHeight,0.3
;   useMaxPrintHeight,0
;   maxPrintHeight,15
;   useDiaphragm,0
;   diaphragmLayerInterval,20
;   robustSlicing,1
;   mergeAllIntoSolid,0
;   onlyRetractWhenCrossingOutline,0
;   retractBetweenLayers,0
;   useRetractionMinTravel,0
;   retractionMinTravel,3
;   retractWhileWiping,0
;   onlyWipeOutlines,1
;   avoidCrossingOutline,1
;   maxMovementDetourFactor,3
;   toolChangeRetractionDistance,0
;   toolChangeExtraRestartDistance,0
;   toolChangeRetractionSpeed,360
;   externalThinWallType,0
;   internalThinWallType,2
;   thinWallAllowedOverlapPercentage,10
;   singleExtrusionMinLength,1
;   singleExtrusionMinPrintingWidthPercentage,50
;   singleExtrusionMaxPrintingWidthPercentage,200
;   singleExtrusionEndpointExtension,0.2
;   horizontalSizeCompensation,0
G90
M83
M106 S255
M140 S55
M190 S55
M104 S250 T0
M109 S250 T0
G28
G92 E0.0
; process PProp
; layer 1, Z = 0.270
T0
; feature skirt
; tool H0.270 W0.420
G1 Z0.270 F1002
G1 X14.370 Y13.675 F7800
G1 E0.1200 F1800
G1 X15.030 Y13.012 E0.0198 F1251
G1 X15.326 Y12.792 E0.0078
G1 X15.784 Y12.549 E0.0110
G1 X15.954 Y12.474 E0.0039
G1 X16.651 Y12.230 E0.0157
G1 X16.876 Y12.174 E0.0049
G1 X17.482 Y12.084 E0.0130
G1 X17.722 Y12.072 E0.0051
G1 X18.462 Y12.107 E0.0157
G1 X18.658 Y12.133 E0.0042
G1 X19.533 Y12.318 E0.0190
G1 X19.756 Y12.388 E0.0050
G1 X20.513 Y12.708 E0.0174
G1 X20.629 Y12.765 E0.0027
G1 X21.380 Y13.180 E0.0182
G1 X21.469 Y13.234 E0.0022
G1 X21.891 Y13.517 E0.0108
G1 X21.937 Y13.550 E0.0012
G1 X23.087 Y14.400 E0.0303
G1 X23.133 Y14.436 E0.0013
G1 X24.785 Y15.786 E0.0453
G1 X24.821 Y15.816 E0.0010
G1 X27.071 Y17.800 E0.0636
G1 X27.099 Y17.825 E0.0008
G1 X28.673 Y19.302 E0.0458
G1 X28.690 Y19.318 E0.0005
G1 X32.400 Y22.937 E0.1100
G1 X32.424 Y22.961 E0.0007
G1 X39.737 Y30.499 E0.2228
G1 X43.347 Y34.169 E0.1092
G1 X57.459 Y48.453 E0.4260
G1 X58.151 Y49.157 E0.0209
G1 X58.867 Y49.886 E0.0217
G1 X74.558 Y65.855 E0.4750
G1 X75.199 Y66.510 E0.0194
G1 X75.921 Y67.249 E0.0220
G1 X84.450 Y75.975 E0.2589
G1 X97.575 Y89.246 E0.3960
G1 X97.583 Y89.246 E0.0002
G1 X98.269 Y89.948 E0.0208
G1 X98.953 Y90.639 E0.0206
G1 X98.953 Y90.647 E0.0002
G1 X106.315 Y98.176 E0.2234
G1 X106.288 Y100.212 E0.0432
G1 X99.209 Y107.073 E0.2091
G1 X97.382 Y107.174 E0.0388
G1 X89.095 Y100.745 E0.2225
G1 X89.084 Y100.746 E0.0002
G1 X88.378 Y100.189 E0.0191
G1 X87.547 Y99.545 E0.0223
G1 X87.546 Y99.534 E0.0002
G1 X79.257 Y92.999 E0.2239
G1 X79.242 Y92.988 E0.0004
G1 X72.765 Y87.720 E0.1771
G1 X72.743 Y87.702 E0.0006
G1 X66.670 Y82.522 E0.1694
G1 X66.653 Y82.507 E0.0005
G1 X63.374 Y79.606 E0.0929
G1 X63.357 Y79.606 E0.0004
G1 X62.677 Y78.989 E0.0195
G1 X61.920 Y78.320 E0.0214
G1 X61.920 Y78.302 E0.0004
G1 X58.439 Y75.145 E0.0997
G1 X58.427 Y75.135 E0.0003
G1 X53.936 Y70.956 E0.1301
G1 X53.923 Y70.944 E0.0004
G1 X50.454 Y67.621 E0.1019
G1 X50.444 Y67.612 E0.0003
G1 X46.607 Y63.856 E0.1139
G1 X46.596 Y63.844 E0.0004
G1 X42.520 Y59.744 E0.1227
G1 X42.506 Y59.729 E0.0004
G1 X39.882 Y57.003 E0.0803
G1 X39.873 Y56.993 E0.0003
G1 X37.012 Y53.954 E0.0886
G1 X36.995 Y53.936 E0.0005
G1 X32.635 Y49.112 E0.1379
G1 X32.617 Y49.091 E0.0006
G1 X31.126 Y47.365 E0.0484
G1 X31.106 Y47.364 E0.0004
G1 X30.443 Y46.574 E0.0219
G1 X29.858 Y45.897 E0.0190
G1 X29.859 Y45.878 E0.0004
G1 X28.212 Y43.916 E0.0543
G1 X28.196 Y43.897 E0.0005
G1 X26.579 Y41.886 E0.0547
G1 X26.567 Y41.871 E0.0004
G1 X24.842 Y39.654 E0.0596
G1 X24.821 Y39.627 E0.0007
G1 X23.288 Y37.539 E0.0550
G1 X23.274 Y37.521 E0.0005
G1 X21.804 Y35.441 E0.0540
G1 X21.782 Y35.408 E0.0008
G1 X19.666 Y32.198 E0.0816
G1 X19.648 Y32.172 E0.0007
G1 X17.965 Y29.468 E0.0676
G1 X17.951 Y29.444 E0.0006
G1 X16.672 Y27.282 E0.0533
G1 X16.653 Y27.249 E0.0008
G1 X15.827 Y25.748 E0.0364
G1 X15.811 Y25.717 E0.0007
G1 X15.139 Y24.410 E0.0312
G1 X15.110 Y24.349 E0.0014
G1 X14.560 Y23.116 E0.0287
G1 X14.536 Y23.059 E0.0013
G1 X14.097 Y21.925 E0.0258
G1 X14.070 Y21.848 E0.0017
G1 X13.780 Y20.920 E0.0206
G1 X13.761 Y20.852 E0.0015
G1 X13.432 Y19.537 E0.0288
G1 X13.411 Y19.434 E0.0022
G1 X13.325 Y18.903 E0.0114
G1 X13.320 Y18.864 E0.0008
G1 X13.254 Y18.352 E0.0109
G1 X13.246 Y18.258 E0.0020
G1 X13.194 Y17.243 E0.0216
G1 X13.200 Y17.043 E0.0042
G1 X13.305 Y16.113 E0.0199
G1 X13.332 Y15.963 E0.0032
G1 X13.438 Y15.524 E0.0096
G1 X13.460 Y15.444 E0.0018
G1 X13.618 Y14.940 E0.0112
G1 X13.732 Y14.685 E0.0059
G1 X14.183 Y13.918 E0.0189
G1 X14.370 Y13.675 E0.0065
G1 X14.687 Y13.953 F7800
G1 E0.1200 F1800
G1 X15.305 Y13.330 E0.0186 F1251
G1 X15.551 Y13.148 E0.0065
G1 X15.967 Y12.927 E0.0100
G1 X16.108 Y12.866 E0.0033
G1 X16.771 Y12.633 E0.0149
G1 X16.958 Y12.587 E0.0041
G1 X17.524 Y12.502 E0.0121
G1 X17.723 Y12.492 E0.0042
G1 X18.425 Y12.526 E0.0149
G1 X18.588 Y12.547 E0.0035
G1 X19.426 Y12.725 E0.0182
G1 X19.611 Y12.783 E0.0041
G1 X20.339 Y13.091 E0.0168
G1 X20.435 Y13.137 E0.0023
G1 X21.169 Y13.543 E0.0178
G1 X21.242 Y13.588 E0.0018
G1 X21.653 Y13.863 E0.0105
G1 X21.691 Y13.890 E0.0010
G1 X22.833 Y14.735 E0.0301
G1 X22.871 Y14.765 E0.0010
G1 X24.517 Y16.108 E0.0451
G1 X24.546 Y16.133 E0.0008
G1 X26.791 Y18.112 E0.0635
G1 X26.814 Y18.134 E0.0007
G1 X28.384 Y19.607 E0.0457
G1 X28.398 Y19.620 E0.0004
G1 X32.105 Y23.236 E0.1099
G1 X32.125 Y23.256 E0.0006
G1 X39.436 Y30.793 E0.2228
G1 X43.048 Y34.464 E0.1093
G1 X57.282 Y48.872 E0.4297
G1 X57.852 Y49.452 E0.0173
G1 X58.446 Y50.057 E0.0180
G1 X74.380 Y66.273 E0.4824
G1 X74.899 Y66.804 E0.0158
G1 X75.499 Y67.419 E0.0182
G1 X84.151 Y76.270 E0.2626
G1 X97.399 Y89.665 E0.3997
G1 X97.405 Y89.665 E0.0001
G1 X97.970 Y90.243 E0.0172
G1 X98.532 Y90.811 E0.0169
G1 X98.532 Y90.817 E0.0001
G1 X105.893 Y98.345 E0.2234
G1 X105.870 Y100.032 E0.0358
G1 X99.029 Y106.662 E0.2021
G1 X97.516 Y106.746 E0.0322
G1 X89.228 Y100.317 E0.2225
G1 X89.219 Y100.318 E0.0002
G1 X88.637 Y99.859 E0.0157
G1 X87.955 Y99.329 E0.0183
G1 X87.954 Y99.320 E0.0002
G1 X79.518 Y92.671 E0.2279
G1 X79.506 Y92.661 E0.0003
G1 X73.032 Y87.396 E0.1770
G1 X73.014 Y87.380 E0.0005
G1 X66.944 Y82.203 E0.1693
G1 X66.930 Y82.191 E0.0004
G1 X63.530 Y79.183 E0.0963
G1 X63.516 Y79.184 E0.0003
G1 X62.957 Y78.677 E0.0160
G1 X62.336 Y78.127 E0.0176
G1 X62.335 Y78.112 E0.0003
G1 X58.722 Y74.835 E0.1035
G1 X58.712 Y74.826 E0.0003
G1 X54.223 Y70.650 E0.1301
G1 X54.213 Y70.640 E0.0003
G1 X50.745 Y67.319 E0.1019
G1 X50.737 Y67.311 E0.0002
G1 X46.902 Y63.557 E0.1139
G1 X46.892 Y63.547 E0.0003
G1 X42.819 Y59.449 E0.1226
G1 X42.808 Y59.437 E0.0003
G1 X40.186 Y56.712 E0.0802
G1 X40.178 Y56.704 E0.0002
G1 X37.319 Y53.668 E0.0885
G1 X37.305 Y53.652 E0.0004
G1 X32.948 Y48.832 E0.1379
G1 X32.933 Y48.815 E0.0005
G1 X31.326 Y46.955 E0.0522
G1 X31.310 Y46.954 E0.0004
G1 X30.763 Y46.302 E0.0180
G1 X30.285 Y45.749 E0.0155
G1 X30.286 Y45.733 E0.0003
G1 X28.535 Y43.648 E0.0578
G1 X28.522 Y43.632 E0.0005
G1 X26.907 Y41.624 E0.0547
G1 X26.897 Y41.611 E0.0003
G1 X25.175 Y39.398 E0.0595
G1 X25.158 Y39.376 E0.0006
G1 X23.627 Y37.292 E0.0549
G1 X23.616 Y37.277 E0.0004
G1 X22.149 Y35.201 E0.0539
G1 X22.130 Y35.174 E0.0007
G1 X20.018 Y31.969 E0.0814
G1 X20.004 Y31.947 E0.0006
G1 X18.323 Y29.248 E0.0675
G1 X18.311 Y29.228 E0.0005
G1 X17.035 Y27.071 E0.0532
G1 X17.020 Y27.044 E0.0007
G1 X16.197 Y25.548 E0.0362
G1 X16.183 Y25.522 E0.0006
G1 X15.516 Y24.224 E0.0310
G1 X15.491 Y24.173 E0.0012
G1 X14.945 Y22.950 E0.0284
G1 X14.926 Y22.902 E0.0011
G1 X14.491 Y21.780 E0.0255
G1 X14.469 Y21.716 E0.0014
G1 X14.183 Y20.801 E0.0204
G1 X14.167 Y20.745 E0.0012
G1 X13.842 Y19.444 E0.0284
G1 X13.824 Y19.359 E0.0018
G1 X13.741 Y18.839 E0.0112
G1 X13.736 Y18.807 E0.0007
G1 X13.672 Y18.306 E0.0107
G1 X13.665 Y18.229 E0.0017
G1 X13.614 Y17.239 E0.0210
G1 X13.620 Y17.073 E0.0035
G1 X13.721 Y16.173 E0.0192
G1 X13.743 Y16.048 E0.0027
G1 X13.844 Y15.629 E0.0092
G1 X13.863 Y15.563 E0.0015
G1 X14.011 Y15.089 E0.0105
G1 X14.106 Y14.877 E0.0049
G1 X14.532 Y14.154 E0.0178
G1 X14.687 Y13.953 E0.0054
G1 X15.003 Y14.230 F7800
G1 E0.1200 F1800
G1 X15.581 Y13.649 E0.0174 F1251
G1 X15.776 Y13.504 E0.0051
G1 X16.150 Y13.305 E0.0090
G1 X16.262 Y13.257 E0.0026
G1 X16.892 Y13.036 E0.0142
G1 X17.039 Y12.999 E0.0032
G1 X17.565 Y12.921 E0.0113
G1 X17.723 Y12.913 E0.0034
G1 X18.388 Y12.945 E0.0141
G1 X18.517 Y12.961 E0.0028
G1 X19.319 Y13.131 E0.0174
G1 X19.466 Y13.178 E0.0033
G1 X20.165 Y13.473 E0.0161
G1 X20.241 Y13.510 E0.0018
G1 X20.957 Y13.907 E0.0174
G1 X21.016 Y13.942 E0.0014
G1 X21.415 Y14.210 E0.0102
G1 X21.445 Y14.231 E0.0008
G1 X22.579 Y15.069 E0.0299
G1 X22.610 Y15.093 E0.0008
G1 X24.248 Y16.431 E0.0449
G1 X24.271 Y16.451 E0.0006
G1 X26.510 Y18.425 E0.0633
G1 X26.529 Y18.442 E0.0005
G1 X28.095 Y19.912 E0.0456
G1 X28.106 Y19.923 E0.0003
G1 X31.810 Y23.534 E0.1097
G1 X31.825 Y23.550 E0.0005
G1 X39.136 Y31.086 E0.2228
G1 X42.749 Y34.759 E0.1093
G1 X57.106 Y49.292 E0.4334
G1 X57.553 Y49.748 E0.0136
G1 X58.025 Y50.228 E0.0143
G1 X74.202 Y66.692 E0.4897
G1 X74.599 Y67.098 E0.0121
G1 X75.077 Y67.588 E0.0145
G1 X83.853 Y76.565 E0.2663
G1 X97.222 Y90.084 E0.4034
G1 X97.227 Y90.084 E0.0001
G1 X97.671 Y90.538 E0.0135
G1 X98.111 Y90.983 E0.0133
G1 X98.111 Y90.988 E0.0001
G1 X105.471 Y98.514 E0.2233
G1 X105.453 Y99.852 E0.0284
G1 X98.850 Y106.251 E0.1951
G1 X97.649 Y106.318 E0.0255
G1 X89.361 Y99.889 E0.2225
G1 X89.354 Y99.889 E0.0001
G1 X88.894 Y99.527 E0.0124
G1 X88.362 Y99.114 E0.0143
G1 X88.361 Y99.107 E0.0001
G1 X79.779 Y92.342 E0.2318
G1 X79.770 Y92.334 E0.0003
G1 X73.299 Y87.071 E0.1770
G1 X73.285 Y87.059 E0.0004
G1 X67.218 Y81.885 E0.1692
G1 X67.207 Y81.876 E0.0003
G1 X63.686 Y78.761 E0.0997
G1 X63.675 Y78.761 E0.0002
G1 X63.237 Y78.364 E0.0125
G1 X62.751 Y77.934 E0.0138
G1 X62.751 Y77.922 E0.0002
G1 X59.005 Y74.524 E0.1073
G1 X58.997 Y74.518 E0.0002
G1 X54.511 Y70.343 E0.1300
G1 X54.502 Y70.335 E0.0002
G1 X51.036 Y67.016 E0.1018
G1 X51.030 Y67.010 E0.0002
G1 X47.197 Y63.258 E0.1138
G1 X47.189 Y63.250 E0.0002
G1 X43.118 Y59.154 E0.1225
G1 X43.109 Y59.145 E0.0003
G1 X40.489 Y56.422 E0.0802
G1 X40.483 Y56.416 E0.0002
G1 X37.626 Y53.381 E0.0884
G1 X37.615 Y53.369 E0.0003
G1 X33.262 Y48.552 E0.1378
G1 X33.250 Y48.539 E0.0004
G1 X31.527 Y46.544 E0.0559
G1 X31.514 Y46.544 E0.0003
G1 X31.083 Y46.030 E0.0142
G1 X30.712 Y45.600 E0.0120
G1 X30.712 Y45.589 E0.0003
G1 X28.859 Y43.380 E0.0612
G1 X28.848 Y43.367 E0.0004
G1 X27.236 Y41.362 E0.0546
G1 X27.228 Y41.352 E0.0003
G1 X25.508 Y39.142 E0.0594
G1 X25.495 Y39.125 E0.0005
G1 X23.967 Y37.045 E0.0547
G1 X23.958 Y37.033 E0.0003
G1 X22.494 Y34.962 E0.0538
G1 X22.479 Y34.940 E0.0006
G1 X20.370 Y31.740 E0.0813
G1 X20.359 Y31.723 E0.0004
G1 X18.681 Y29.028 E0.0673
G1 X18.671 Y29.012 E0.0004
G1 X17.398 Y26.860 E0.0530
G1 X17.386 Y26.838 E0.0005
G1 X16.566 Y25.348 E0.0361
G1 X16.555 Y25.328 E0.0005
G1 X15.892 Y24.037 E0.0308
G1 X15.873 Y23.997 E0.0009
G1 X15.331 Y22.783 E0.0282
G1 X15.316 Y22.746 E0.0009
G1 X14.886 Y21.635 E0.0253
G1 X14.868 Y21.584 E0.0011
G1 X14.586 Y20.681 E0.0201
